(Generated by PartKam Version 0.05)

G20 G90 G40

(bottom_pockets)
G0 Z0.125
T0 M6
G17
M3
G0 X1.3324 Y1.2009
G1 Z-0.1 F4
G3 X1.3282 Y1.18 I0.0504 J-0.0209 F12
G3 X1.3324 Y1.1591 I0.0546 J0
G3 X1.3442 Y1.1415 I0.0503 J0.0208
G3 X1.3618 Y1.1297 I0.0384 J0.0384
G3 X1.3825 Y1.1256 I0.0207 J0.0501
G3 X1.4033 Y1.1297 I0 J0.0542
G3 X1.4209 Y1.1415 I-0.0208 J0.0502
G3 X1.4327 Y1.1591 I-0.0385 J0.0385
G3 X1.4369 Y1.18 I-0.0504 J0.0209
G3 X1.4327 Y1.2009 I-0.0546 J0
G3 X1.4209 Y1.2186 I-0.0503 J-0.0208
G3 X1.4033 Y1.2304 I-0.0384 J-0.0384
G3 X1.3825 Y1.2345 I-0.0207 J-0.0501
G3 X1.3618 Y1.2304 I0 J-0.0542
G3 X1.3442 Y1.2186 I0.0208 J-0.0502
G3 X1.3324 Y1.2009 I0.0385 J-0.0385
G1 X1.2742 Y1.225 F12
G3 X1.2652 Y1.18 I0.1086 J-0.045 F12
G3 X1.2742 Y1.135 I0.1176 J0
G3 X1.2996 Y1.0969 I0.1085 J0.0449
G3 X1.3377 Y1.0715 I0.083 J0.083
G3 X1.3825 Y1.0626 I0.0449 J0.1083
G3 X1.4274 Y1.0715 I0 J0.1172
G3 X1.4655 Y1.0969 I-0.0449 J0.1084
G3 X1.4909 Y1.135 I-0.0831 J0.083
G3 X1.4999 Y1.18 I-0.1086 J0.045
G3 X1.4909 Y1.225 I-0.1176 J0
G3 X1.4655 Y1.2631 I-0.1085 J-0.0449
G3 X1.4274 Y1.2886 I-0.083 J-0.083
G3 X1.3825 Y1.2975 I-0.0449 J-0.1083
G3 X1.3377 Y1.2886 I0 J-0.1172
G3 X1.2996 Y1.2631 I0.0449 J-0.1084
G3 X1.2742 Y1.225 I0.0831 J-0.083
G1 X1.216 Y1.2491 F12
G3 X1.2022 Y1.18 I0.1668 J-0.0691 F12
G3 X1.216 Y1.1109 I0.1806 J0
G3 X1.2551 Y1.0524 I0.1667 J0.069
G3 X1.3136 Y1.0133 I0.1275 J0.1275
G3 X1.3825 Y0.9996 I0.069 J0.1665
G3 X1.4515 Y1.0133 I0 J0.1802
G3 X1.51 Y1.0524 I-0.069 J0.1666
G3 X1.5491 Y1.1109 I-0.1276 J0.1276
G3 X1.5629 Y1.18 I-0.1668 J0.0691
G3 X1.5491 Y1.2491 I-0.1806 J0
G3 X1.51 Y1.3077 I-0.1667 J-0.069
G3 X1.4515 Y1.3468 I-0.1275 J-0.1275
G3 X1.3825 Y1.3605 I-0.069 J-0.1665
G3 X1.3136 Y1.3468 I0 J-0.1802
G3 X1.2551 Y1.3077 I0.069 J-0.1666
G3 X1.216 Y1.2491 I0.1276 J-0.1276
G1 X1.1578 Y1.2732 F12
G3 X1.1392 Y1.18 I0.225 J-0.0932 F12
G3 X1.1578 Y1.0868 I0.2436 J0
G3 X1.2105 Y1.0079 I0.2249 J0.0931
G3 X1.2895 Y0.9551 I0.1721 J0.172
G3 X1.3825 Y0.9366 I0.0931 J0.2247
G3 X1.4756 Y0.9551 I0 J0.2432
G3 X1.5546 Y1.0079 I-0.0931 J0.2248
G3 X1.6073 Y1.0868 I-0.1722 J0.1721
G3 X1.6258 Y1.18 I-0.225 J0.0932
G3 X1.6073 Y1.2732 I-0.2436 J0
G3 X1.5546 Y1.3522 I-0.2249 J-0.0931
G3 X1.4756 Y1.405 I-0.1721 J-0.172
G3 X1.3825 Y1.4235 I-0.0931 J-0.2247
G3 X1.2895 Y1.405 I0 J-0.2432
G3 X1.2105 Y1.3522 I0.0931 J-0.2248
G3 X1.1578 Y1.2732 I0.1722 J-0.1721
G1 X1.0996 Y1.2973 F12
G3 X1.0762 Y1.18 I0.2832 J-0.1173 F12
G3 X1.0996 Y1.0627 I0.3066 J0
G3 X1.166 Y0.9633 I0.2831 J0.1172
G3 X1.2653 Y0.8969 I0.2166 J0.2166
G3 X1.3825 Y0.8736 I0.1172 J0.2829
G3 X1.4997 Y0.8969 I0 J0.3062
G3 X1.5991 Y0.9633 I-0.1172 J0.283
G3 X1.6655 Y1.0627 I-0.2167 J0.2167
G3 X1.6888 Y1.18 I-0.2832 J0.1173
G3 X1.6655 Y1.2973 I-0.3066 J0
G3 X1.5991 Y1.3967 I-0.2831 J-0.1172
G3 X1.4997 Y1.4631 I-0.2166 J-0.2166
G3 X1.3825 Y1.4865 I-0.1172 J-0.2829
G3 X1.2653 Y1.4631 I0 J-0.3062
G3 X1.166 Y1.3967 I0.1172 J-0.283
G3 X1.0996 Y1.2973 I0.2167 J-0.2167
G1 X1.0414 Y1.3214 F12
G3 X1.0132 Y1.18 I0.3414 J-0.1414 F12
G3 X1.0414 Y1.0386 I0.3696 J0
G3 X1.1214 Y0.9188 I0.3413 J0.1413
G3 X1.2412 Y0.8387 I0.2612 J0.2611
G3 X1.3825 Y0.8106 I0.1413 J0.341
G3 X1.5238 Y0.8387 I0 J0.3692
G3 X1.6437 Y0.9188 I-0.1414 J0.3412
G3 X1.7237 Y1.0386 I-0.2613 J0.2612
G3 X1.7518 Y1.18 I-0.3414 J0.1414
G3 X1.7237 Y1.3214 I-0.3696 J0
G3 X1.6437 Y1.4413 I-0.3413 J-0.1413
G3 X1.5238 Y1.5213 I-0.2612 J-0.2611
G3 X1.3825 Y1.5495 I-0.1413 J-0.341
G3 X1.2412 Y1.5213 I0 J-0.3692
G3 X1.1214 Y1.4413 I0.1414 J-0.3412
G3 X1.0414 Y1.3214 I0.2613 J-0.2612
G1 X0.9832 Y1.3455 F12
G3 X0.9502 Y1.18 I0.3996 J-0.1655 F12
G3 X0.9832 Y1.0145 I0.4326 J0
G3 X1.0769 Y0.8742 I0.3995 J0.1654
G3 X1.2171 Y0.7805 I0.3057 J0.3056
G3 X1.3825 Y0.7476 I0.1654 J0.3992
G3 X1.548 Y0.7805 I0 J0.4322
G3 X1.6882 Y0.8742 I-0.1655 J0.3994
G3 X1.7819 Y1.0145 I-0.3058 J0.3057
G3 X1.8148 Y1.18 I-0.3996 J0.1655
G3 X1.7819 Y1.3455 I-0.4326 J0
G3 X1.6882 Y1.4858 I-0.3995 J-0.1654
G3 X1.548 Y1.5795 I-0.3057 J-0.3056
G3 X1.3825 Y1.6124 I-0.1654 J-0.3992
G3 X1.2171 Y1.5795 I0 J-0.4322
G3 X1.0769 Y1.4858 I0.1655 J-0.3994
G3 X0.9832 Y1.3455 I0.3058 J-0.3057
G0 Z0.125
G0 X0.3886 Y1.18
G1 Z-0.1 F4
G3 X0.3893 Y1.1764 I0.0096 J0 F12
G3 X0.3913 Y1.1733 I0.0088 J0.0036
G3 X0.3944 Y1.1712 I0.0067 J0.0067
G3 X0.398 Y1.1705 I0.0036 J0.0087
G3 X0.4016 Y1.1712 I0 J0.0094
G3 X0.4047 Y1.1733 I-0.0036 J0.0088
G3 X0.4068 Y1.1764 I-0.0067 J0.0067
G3 X0.4075 Y1.18 I-0.0089 J0.0037
G3 X0.4068 Y1.1837 I-0.0096 J0
G3 X0.4047 Y1.1868 I-0.0088 J-0.0036
G3 X0.4016 Y1.1888 I-0.0067 J-0.0067
G3 X0.398 Y1.1896 I-0.0036 J-0.0087
G3 X0.3944 Y1.1888 I0 J-0.0094
G3 X0.3913 Y1.1868 I0.0036 J-0.0088
G3 X0.3893 Y1.1837 I0.0067 J-0.0067
G3 X0.3886 Y1.18 I0.0089 J-0.0037
G1 X0.3256 Y1.18 F12
G3 X0.3311 Y1.1523 I0.0726 J0 F12
G3 X0.3468 Y1.1287 I0.067 J0.0277
G3 X0.3703 Y1.113 I0.0513 J0.0512
G3 X0.398 Y1.1075 I0.0277 J0.0669
G3 X0.4258 Y1.113 I0 J0.0724
G3 X0.4493 Y1.1287 I-0.0277 J0.067
G3 X0.465 Y1.1523 I-0.0513 J0.0513
G3 X0.4705 Y1.18 I-0.0671 J0.0278
G3 X0.465 Y1.2078 I-0.0726 J0
G3 X0.4493 Y1.2313 I-0.067 J-0.0277
G3 X0.4258 Y1.247 I-0.0513 J-0.0512
G3 X0.398 Y1.2526 I-0.0277 J-0.0669
G3 X0.3703 Y1.247 I0 J-0.0724
G3 X0.3468 Y1.2313 I0.0277 J-0.067
G3 X0.3311 Y1.2078 I0.0513 J-0.0513
G3 X0.3256 Y1.18 I0.0671 J-0.0278
G1 X0.2626 Y1.18 F12
G3 X0.2729 Y1.1282 I0.1356 J0 F12
G3 X0.3023 Y1.0842 I0.1252 J0.0518
G3 X0.3462 Y1.0548 I0.0958 J0.0958
G3 X0.398 Y1.0445 I0.0518 J0.1251
G3 X0.4499 Y1.0548 I0 J0.1354
G3 X0.4938 Y1.0842 I-0.0519 J0.1252
G3 X0.5232 Y1.1282 I-0.0958 J0.0958
G3 X0.5335 Y1.18 I-0.1253 J0.0519
G3 X0.5232 Y1.2319 I-0.1356 J0
G3 X0.4938 Y1.2759 I-0.1252 J-0.0518
G3 X0.4499 Y1.3052 I-0.0958 J-0.0958
G3 X0.398 Y1.3155 I-0.0518 J-0.1251
G3 X0.3462 Y1.3052 I0 J-0.1354
G3 X0.3023 Y1.2759 I0.0519 J-0.1252
G3 X0.2729 Y1.2319 I0.0958 J-0.0958
G3 X0.2626 Y1.18 I0.1253 J-0.0519
G0 Z0.125
G0 X2.3576 Y1.18
G1 Z-0.1 F4
G3 X2.3583 Y1.1764 I0.0096 J0 F12
G3 X2.3603 Y1.1733 I0.0088 J0.0036
G3 X2.3634 Y1.1712 I0.0067 J0.0067
G3 X2.367 Y1.1705 I0.0036 J0.0087
G3 X2.3706 Y1.1712 I0 J0.0094
G3 X2.3737 Y1.1733 I-0.0036 J0.0088
G3 X2.3758 Y1.1764 I-0.0067 J0.0067
G3 X2.3765 Y1.18 I-0.0089 J0.0037
G3 X2.3758 Y1.1837 I-0.0096 J0
G3 X2.3737 Y1.1868 I-0.0088 J-0.0036
G3 X2.3706 Y1.1888 I-0.0067 J-0.0067
G3 X2.367 Y1.1896 I-0.0036 J-0.0087
G3 X2.3634 Y1.1888 I0 J-0.0094
G3 X2.3603 Y1.1868 I0.0036 J-0.0088
G3 X2.3583 Y1.1837 I0.0067 J-0.0067
G3 X2.3576 Y1.18 I0.0089 J-0.0037
G1 X2.2946 Y1.18 F12
G3 X2.3001 Y1.1523 I0.0726 J0 F12
G3 X2.3158 Y1.1287 I0.067 J0.0277
G3 X2.3393 Y1.113 I0.0513 J0.0512
G3 X2.367 Y1.1075 I0.0277 J0.0669
G3 X2.3948 Y1.113 I0 J0.0724
G3 X2.4183 Y1.1287 I-0.0277 J0.067
G3 X2.434 Y1.1523 I-0.0513 J0.0513
G3 X2.4395 Y1.18 I-0.0671 J0.0278
G3 X2.434 Y1.2078 I-0.0726 J0
G3 X2.4183 Y1.2313 I-0.067 J-0.0277
G3 X2.3948 Y1.247 I-0.0513 J-0.0512
G3 X2.367 Y1.2526 I-0.0277 J-0.0669
G3 X2.3393 Y1.247 I0 J-0.0724
G3 X2.3158 Y1.2313 I0.0277 J-0.067
G3 X2.3001 Y1.2078 I0.0513 J-0.0513
G3 X2.2946 Y1.18 I0.0671 J-0.0278
G1 X2.2316 Y1.18 F12
G3 X2.2419 Y1.1282 I0.1356 J0 F12
G3 X2.2713 Y1.0842 I0.1252 J0.0518
G3 X2.3152 Y1.0548 I0.0958 J0.0958
G3 X2.367 Y1.0445 I0.0518 J0.1251
G3 X2.4189 Y1.0548 I0 J0.1354
G3 X2.4628 Y1.0842 I-0.0519 J0.1252
G3 X2.4922 Y1.1282 I-0.0958 J0.0958
G3 X2.5025 Y1.18 I-0.1253 J0.0519
G3 X2.4922 Y1.2319 I-0.1356 J0
G3 X2.4628 Y1.2759 I-0.1252 J-0.0518
G3 X2.4189 Y1.3052 I-0.0958 J-0.0958
G3 X2.367 Y1.3155 I-0.0518 J-0.1251
G3 X2.3152 Y1.3052 I0 J-0.1354
G3 X2.2713 Y1.2759 I0.0519 J-0.1252
G3 X2.2419 Y1.2319 I0.0958 J-0.0958
G3 X2.2316 Y1.18 I0.1253 J-0.0519
G0 Z0.125
G0 X1.3324 Y1.2009
G1 Z-0.2 F4
G3 X1.3282 Y1.18 I0.0504 J-0.0209 F12
G3 X1.3324 Y1.1591 I0.0546 J0
G3 X1.3442 Y1.1415 I0.0503 J0.0208
G3 X1.3618 Y1.1297 I0.0384 J0.0384
G3 X1.3825 Y1.1256 I0.0207 J0.0501
G3 X1.4033 Y1.1297 I0 J0.0542
G3 X1.4209 Y1.1415 I-0.0208 J0.0502
G3 X1.4327 Y1.1591 I-0.0385 J0.0385
G3 X1.4369 Y1.18 I-0.0504 J0.0209
G3 X1.4327 Y1.2009 I-0.0546 J0
G3 X1.4209 Y1.2186 I-0.0503 J-0.0208
G3 X1.4033 Y1.2304 I-0.0384 J-0.0384
G3 X1.3825 Y1.2345 I-0.0207 J-0.0501
G3 X1.3618 Y1.2304 I0 J-0.0542
G3 X1.3442 Y1.2186 I0.0208 J-0.0502
G3 X1.3324 Y1.2009 I0.0385 J-0.0385
G1 X1.2742 Y1.225 F12
G3 X1.2652 Y1.18 I0.1086 J-0.045 F12
G3 X1.2742 Y1.135 I0.1176 J0
G3 X1.2996 Y1.0969 I0.1085 J0.0449
G3 X1.3377 Y1.0715 I0.083 J0.083
G3 X1.3825 Y1.0626 I0.0449 J0.1083
G3 X1.4274 Y1.0715 I0 J0.1172
G3 X1.4655 Y1.0969 I-0.0449 J0.1084
G3 X1.4909 Y1.135 I-0.0831 J0.083
G3 X1.4999 Y1.18 I-0.1086 J0.045
G3 X1.4909 Y1.225 I-0.1176 J0
G3 X1.4655 Y1.2631 I-0.1085 J-0.0449
G3 X1.4274 Y1.2886 I-0.083 J-0.083
G3 X1.3825 Y1.2975 I-0.0449 J-0.1083
G3 X1.3377 Y1.2886 I0 J-0.1172
G3 X1.2996 Y1.2631 I0.0449 J-0.1084
G3 X1.2742 Y1.225 I0.0831 J-0.083
G1 X1.216 Y1.2491 F12
G3 X1.2022 Y1.18 I0.1668 J-0.0691 F12
G3 X1.216 Y1.1109 I0.1806 J0
G3 X1.2551 Y1.0524 I0.1667 J0.069
G3 X1.3136 Y1.0133 I0.1275 J0.1275
G3 X1.3825 Y0.9996 I0.069 J0.1665
G3 X1.4515 Y1.0133 I0 J0.1802
G3 X1.51 Y1.0524 I-0.069 J0.1666
G3 X1.5491 Y1.1109 I-0.1276 J0.1276
G3 X1.5629 Y1.18 I-0.1668 J0.0691
G3 X1.5491 Y1.2491 I-0.1806 J0
G3 X1.51 Y1.3077 I-0.1667 J-0.069
G3 X1.4515 Y1.3468 I-0.1275 J-0.1275
G3 X1.3825 Y1.3605 I-0.069 J-0.1665
G3 X1.3136 Y1.3468 I0 J-0.1802
G3 X1.2551 Y1.3077 I0.069 J-0.1666
G3 X1.216 Y1.2491 I0.1276 J-0.1276
G1 X1.1578 Y1.2732 F12
G3 X1.1392 Y1.18 I0.225 J-0.0932 F12
G3 X1.1578 Y1.0868 I0.2436 J0
G3 X1.2105 Y1.0079 I0.2249 J0.0931
G3 X1.2895 Y0.9551 I0.1721 J0.172
G3 X1.3825 Y0.9366 I0.0931 J0.2247
G3 X1.4756 Y0.9551 I0 J0.2432
G3 X1.5546 Y1.0079 I-0.0931 J0.2248
G3 X1.6073 Y1.0868 I-0.1722 J0.1721
G3 X1.6258 Y1.18 I-0.225 J0.0932
G3 X1.6073 Y1.2732 I-0.2436 J0
G3 X1.5546 Y1.3522 I-0.2249 J-0.0931
G3 X1.4756 Y1.405 I-0.1721 J-0.172
G3 X1.3825 Y1.4235 I-0.0931 J-0.2247
G3 X1.2895 Y1.405 I0 J-0.2432
G3 X1.2105 Y1.3522 I0.0931 J-0.2248
G3 X1.1578 Y1.2732 I0.1722 J-0.1721
G1 X1.0996 Y1.2973 F12
G3 X1.0762 Y1.18 I0.2832 J-0.1173 F12
G3 X1.0996 Y1.0627 I0.3066 J0
G3 X1.166 Y0.9633 I0.2831 J0.1172
G3 X1.2653 Y0.8969 I0.2166 J0.2166
G3 X1.3825 Y0.8736 I0.1172 J0.2829
G3 X1.4997 Y0.8969 I0 J0.3062
G3 X1.5991 Y0.9633 I-0.1172 J0.283
G3 X1.6655 Y1.0627 I-0.2167 J0.2167
G3 X1.6888 Y1.18 I-0.2832 J0.1173
G3 X1.6655 Y1.2973 I-0.3066 J0
G3 X1.5991 Y1.3967 I-0.2831 J-0.1172
G3 X1.4997 Y1.4631 I-0.2166 J-0.2166
G3 X1.3825 Y1.4865 I-0.1172 J-0.2829
G3 X1.2653 Y1.4631 I0 J-0.3062
G3 X1.166 Y1.3967 I0.1172 J-0.283
G3 X1.0996 Y1.2973 I0.2167 J-0.2167
G1 X1.0414 Y1.3214 F12
G3 X1.0132 Y1.18 I0.3414 J-0.1414 F12
G3 X1.0414 Y1.0386 I0.3696 J0
G3 X1.1214 Y0.9188 I0.3413 J0.1413
G3 X1.2412 Y0.8387 I0.2612 J0.2611
G3 X1.3825 Y0.8106 I0.1413 J0.341
G3 X1.5238 Y0.8387 I0 J0.3692
G3 X1.6437 Y0.9188 I-0.1414 J0.3412
G3 X1.7237 Y1.0386 I-0.2613 J0.2612
G3 X1.7518 Y1.18 I-0.3414 J0.1414
G3 X1.7237 Y1.3214 I-0.3696 J0
G3 X1.6437 Y1.4413 I-0.3413 J-0.1413
G3 X1.5238 Y1.5213 I-0.2612 J-0.2611
G3 X1.3825 Y1.5495 I-0.1413 J-0.341
G3 X1.2412 Y1.5213 I0 J-0.3692
G3 X1.1214 Y1.4413 I0.1414 J-0.3412
G3 X1.0414 Y1.3214 I0.2613 J-0.2612
G1 X0.9832 Y1.3455 F12
G3 X0.9502 Y1.18 I0.3996 J-0.1655 F12
G3 X0.9832 Y1.0145 I0.4326 J0
G3 X1.0769 Y0.8742 I0.3995 J0.1654
G3 X1.2171 Y0.7805 I0.3057 J0.3056
G3 X1.3825 Y0.7476 I0.1654 J0.3992
G3 X1.548 Y0.7805 I0 J0.4322
G3 X1.6882 Y0.8742 I-0.1655 J0.3994
G3 X1.7819 Y1.0145 I-0.3058 J0.3057
G3 X1.8148 Y1.18 I-0.3996 J0.1655
G3 X1.7819 Y1.3455 I-0.4326 J0
G3 X1.6882 Y1.4858 I-0.3995 J-0.1654
G3 X1.548 Y1.5795 I-0.3057 J-0.3056
G3 X1.3825 Y1.6124 I-0.1654 J-0.3992
G3 X1.2171 Y1.5795 I0 J-0.4322
G3 X1.0769 Y1.4858 I0.1655 J-0.3994
G3 X0.9832 Y1.3455 I0.3058 J-0.3057
G0 Z0.125
G0 X0.3886 Y1.18
G1 Z-0.2 F4
G3 X0.3893 Y1.1764 I0.0096 J0 F12
G3 X0.3913 Y1.1733 I0.0088 J0.0036
G3 X0.3944 Y1.1712 I0.0067 J0.0067
G3 X0.398 Y1.1705 I0.0036 J0.0087
G3 X0.4016 Y1.1712 I0 J0.0094
G3 X0.4047 Y1.1733 I-0.0036 J0.0088
G3 X0.4068 Y1.1764 I-0.0067 J0.0067
G3 X0.4075 Y1.18 I-0.0089 J0.0037
G3 X0.4068 Y1.1837 I-0.0096 J0
G3 X0.4047 Y1.1868 I-0.0088 J-0.0036
G3 X0.4016 Y1.1888 I-0.0067 J-0.0067
G3 X0.398 Y1.1896 I-0.0036 J-0.0087
G3 X0.3944 Y1.1888 I0 J-0.0094
G3 X0.3913 Y1.1868 I0.0036 J-0.0088
G3 X0.3893 Y1.1837 I0.0067 J-0.0067
G3 X0.3886 Y1.18 I0.0089 J-0.0037
G1 X0.3256 Y1.18 F12
G3 X0.3311 Y1.1523 I0.0726 J0 F12
G3 X0.3468 Y1.1287 I0.067 J0.0277
G3 X0.3703 Y1.113 I0.0513 J0.0512
G3 X0.398 Y1.1075 I0.0277 J0.0669
G3 X0.4258 Y1.113 I0 J0.0724
G3 X0.4493 Y1.1287 I-0.0277 J0.067
G3 X0.465 Y1.1523 I-0.0513 J0.0513
G3 X0.4705 Y1.18 I-0.0671 J0.0278
G3 X0.465 Y1.2078 I-0.0726 J0
G3 X0.4493 Y1.2313 I-0.067 J-0.0277
G3 X0.4258 Y1.247 I-0.0513 J-0.0512
G3 X0.398 Y1.2526 I-0.0277 J-0.0669
G3 X0.3703 Y1.247 I0 J-0.0724
G3 X0.3468 Y1.2313 I0.0277 J-0.067
G3 X0.3311 Y1.2078 I0.0513 J-0.0513
G3 X0.3256 Y1.18 I0.0671 J-0.0278
G1 X0.2626 Y1.18 F12
G3 X0.2729 Y1.1282 I0.1356 J0 F12
G3 X0.3023 Y1.0842 I0.1252 J0.0518
G3 X0.3462 Y1.0548 I0.0958 J0.0958
G3 X0.398 Y1.0445 I0.0518 J0.1251
G3 X0.4499 Y1.0548 I0 J0.1354
G3 X0.4938 Y1.0842 I-0.0519 J0.1252
G3 X0.5232 Y1.1282 I-0.0958 J0.0958
G3 X0.5335 Y1.18 I-0.1253 J0.0519
G3 X0.5232 Y1.2319 I-0.1356 J0
G3 X0.4938 Y1.2759 I-0.1252 J-0.0518
G3 X0.4499 Y1.3052 I-0.0958 J-0.0958
G3 X0.398 Y1.3155 I-0.0518 J-0.1251
G3 X0.3462 Y1.3052 I0 J-0.1354
G3 X0.3023 Y1.2759 I0.0519 J-0.1252
G3 X0.2729 Y1.2319 I0.0958 J-0.0958
G3 X0.2626 Y1.18 I0.1253 J-0.0519
G0 Z0.125
G0 X2.3576 Y1.18
G1 Z-0.2 F4
G3 X2.3583 Y1.1764 I0.0096 J0 F12
G3 X2.3603 Y1.1733 I0.0088 J0.0036
G3 X2.3634 Y1.1712 I0.0067 J0.0067
G3 X2.367 Y1.1705 I0.0036 J0.0087
G3 X2.3706 Y1.1712 I0 J0.0094
G3 X2.3737 Y1.1733 I-0.0036 J0.0088
G3 X2.3758 Y1.1764 I-0.0067 J0.0067
G3 X2.3765 Y1.18 I-0.0089 J0.0037
G3 X2.3758 Y1.1837 I-0.0096 J0
G3 X2.3737 Y1.1868 I-0.0088 J-0.0036
G3 X2.3706 Y1.1888 I-0.0067 J-0.0067
G3 X2.367 Y1.1896 I-0.0036 J-0.0087
G3 X2.3634 Y1.1888 I0 J-0.0094
G3 X2.3603 Y1.1868 I0.0036 J-0.0088
G3 X2.3583 Y1.1837 I0.0067 J-0.0067
G3 X2.3576 Y1.18 I0.0089 J-0.0037
G1 X2.2946 Y1.18 F12
G3 X2.3001 Y1.1523 I0.0726 J0 F12
G3 X2.3158 Y1.1287 I0.067 J0.0277
G3 X2.3393 Y1.113 I0.0513 J0.0512
G3 X2.367 Y1.1075 I0.0277 J0.0669
G3 X2.3948 Y1.113 I0 J0.0724
G3 X2.4183 Y1.1287 I-0.0277 J0.067
G3 X2.434 Y1.1523 I-0.0513 J0.0513
G3 X2.4395 Y1.18 I-0.0671 J0.0278
G3 X2.434 Y1.2078 I-0.0726 J0
G3 X2.4183 Y1.2313 I-0.067 J-0.0277
G3 X2.3948 Y1.247 I-0.0513 J-0.0512
G3 X2.367 Y1.2526 I-0.0277 J-0.0669
G3 X2.3393 Y1.247 I0 J-0.0724
G3 X2.3158 Y1.2313 I0.0277 J-0.067
G3 X2.3001 Y1.2078 I0.0513 J-0.0513
G3 X2.2946 Y1.18 I0.0671 J-0.0278
G1 X2.2316 Y1.18 F12
G3 X2.2419 Y1.1282 I0.1356 J0 F12
G3 X2.2713 Y1.0842 I0.1252 J0.0518
G3 X2.3152 Y1.0548 I0.0958 J0.0958
G3 X2.367 Y1.0445 I0.0518 J0.1251
G3 X2.4189 Y1.0548 I0 J0.1354
G3 X2.4628 Y1.0842 I-0.0519 J0.1252
G3 X2.4922 Y1.1282 I-0.0958 J0.0958
G3 X2.5025 Y1.18 I-0.1253 J0.0519
G3 X2.4922 Y1.2319 I-0.1356 J0
G3 X2.4628 Y1.2759 I-0.1252 J-0.0518
G3 X2.4189 Y1.3052 I-0.0958 J-0.0958
G3 X2.367 Y1.3155 I-0.0518 J-0.1251
G3 X2.3152 Y1.3052 I0 J-0.1354
G3 X2.2713 Y1.2759 I0.0519 J-0.1252
G3 X2.2419 Y1.2319 I0.0958 J-0.0958
G3 X2.2316 Y1.18 I0.1253 J-0.0519
G0 Z0.125
G0 X1.3324 Y1.2009
G1 Z-0.3 F4
G3 X1.3282 Y1.18 I0.0504 J-0.0209 F12
G3 X1.3324 Y1.1591 I0.0546 J0
G3 X1.3442 Y1.1415 I0.0503 J0.0208
G3 X1.3618 Y1.1297 I0.0384 J0.0384
G3 X1.3825 Y1.1256 I0.0207 J0.0501
G3 X1.4033 Y1.1297 I0 J0.0542
G3 X1.4209 Y1.1415 I-0.0208 J0.0502
G3 X1.4327 Y1.1591 I-0.0385 J0.0385
G3 X1.4369 Y1.18 I-0.0504 J0.0209
G3 X1.4327 Y1.2009 I-0.0546 J0
G3 X1.4209 Y1.2186 I-0.0503 J-0.0208
G3 X1.4033 Y1.2304 I-0.0384 J-0.0384
G3 X1.3825 Y1.2345 I-0.0207 J-0.0501
G3 X1.3618 Y1.2304 I0 J-0.0542
G3 X1.3442 Y1.2186 I0.0208 J-0.0502
G3 X1.3324 Y1.2009 I0.0385 J-0.0385
G1 X1.2742 Y1.225 F12
G3 X1.2652 Y1.18 I0.1086 J-0.045 F12
G3 X1.2742 Y1.135 I0.1176 J0
G3 X1.2996 Y1.0969 I0.1085 J0.0449
G3 X1.3377 Y1.0715 I0.083 J0.083
G3 X1.3825 Y1.0626 I0.0449 J0.1083
G3 X1.4274 Y1.0715 I0 J0.1172
G3 X1.4655 Y1.0969 I-0.0449 J0.1084
G3 X1.4909 Y1.135 I-0.0831 J0.083
G3 X1.4999 Y1.18 I-0.1086 J0.045
G3 X1.4909 Y1.225 I-0.1176 J0
G3 X1.4655 Y1.2631 I-0.1085 J-0.0449
G3 X1.4274 Y1.2886 I-0.083 J-0.083
G3 X1.3825 Y1.2975 I-0.0449 J-0.1083
G3 X1.3377 Y1.2886 I0 J-0.1172
G3 X1.2996 Y1.2631 I0.0449 J-0.1084
G3 X1.2742 Y1.225 I0.0831 J-0.083
G1 X1.216 Y1.2491 F12
G3 X1.2022 Y1.18 I0.1668 J-0.0691 F12
G3 X1.216 Y1.1109 I0.1806 J0
G3 X1.2551 Y1.0524 I0.1667 J0.069
G3 X1.3136 Y1.0133 I0.1275 J0.1275
G3 X1.3825 Y0.9996 I0.069 J0.1665
G3 X1.4515 Y1.0133 I0 J0.1802
G3 X1.51 Y1.0524 I-0.069 J0.1666
G3 X1.5491 Y1.1109 I-0.1276 J0.1276
G3 X1.5629 Y1.18 I-0.1668 J0.0691
G3 X1.5491 Y1.2491 I-0.1806 J0
G3 X1.51 Y1.3077 I-0.1667 J-0.069
G3 X1.4515 Y1.3468 I-0.1275 J-0.1275
G3 X1.3825 Y1.3605 I-0.069 J-0.1665
G3 X1.3136 Y1.3468 I0 J-0.1802
G3 X1.2551 Y1.3077 I0.069 J-0.1666
G3 X1.216 Y1.2491 I0.1276 J-0.1276
G1 X1.1578 Y1.2732 F12
G3 X1.1392 Y1.18 I0.225 J-0.0932 F12
G3 X1.1578 Y1.0868 I0.2436 J0
G3 X1.2105 Y1.0079 I0.2249 J0.0931
G3 X1.2895 Y0.9551 I0.1721 J0.172
G3 X1.3825 Y0.9366 I0.0931 J0.2247
G3 X1.4756 Y0.9551 I0 J0.2432
G3 X1.5546 Y1.0079 I-0.0931 J0.2248
G3 X1.6073 Y1.0868 I-0.1722 J0.1721
G3 X1.6258 Y1.18 I-0.225 J0.0932
G3 X1.6073 Y1.2732 I-0.2436 J0
G3 X1.5546 Y1.3522 I-0.2249 J-0.0931
G3 X1.4756 Y1.405 I-0.1721 J-0.172
G3 X1.3825 Y1.4235 I-0.0931 J-0.2247
G3 X1.2895 Y1.405 I0 J-0.2432
G3 X1.2105 Y1.3522 I0.0931 J-0.2248
G3 X1.1578 Y1.2732 I0.1722 J-0.1721
G1 X1.0996 Y1.2973 F12
G3 X1.0762 Y1.18 I0.2832 J-0.1173 F12
G3 X1.0996 Y1.0627 I0.3066 J0
G3 X1.166 Y0.9633 I0.2831 J0.1172
G3 X1.2653 Y0.8969 I0.2166 J0.2166
G3 X1.3825 Y0.8736 I0.1172 J0.2829
G3 X1.4997 Y0.8969 I0 J0.3062
G3 X1.5991 Y0.9633 I-0.1172 J0.283
G3 X1.6655 Y1.0627 I-0.2167 J0.2167
G3 X1.6888 Y1.18 I-0.2832 J0.1173
G3 X1.6655 Y1.2973 I-0.3066 J0
G3 X1.5991 Y1.3967 I-0.2831 J-0.1172
G3 X1.4997 Y1.4631 I-0.2166 J-0.2166
G3 X1.3825 Y1.4865 I-0.1172 J-0.2829
G3 X1.2653 Y1.4631 I0 J-0.3062
G3 X1.166 Y1.3967 I0.1172 J-0.283
G3 X1.0996 Y1.2973 I0.2167 J-0.2167
G1 X1.0414 Y1.3214 F12
G3 X1.0132 Y1.18 I0.3414 J-0.1414 F12
G3 X1.0414 Y1.0386 I0.3696 J0
G3 X1.1214 Y0.9188 I0.3413 J0.1413
G3 X1.2412 Y0.8387 I0.2612 J0.2611
G3 X1.3825 Y0.8106 I0.1413 J0.341
G3 X1.5238 Y0.8387 I0 J0.3692
G3 X1.6437 Y0.9188 I-0.1414 J0.3412
G3 X1.7237 Y1.0386 I-0.2613 J0.2612
G3 X1.7518 Y1.18 I-0.3414 J0.1414
G3 X1.7237 Y1.3214 I-0.3696 J0
G3 X1.6437 Y1.4413 I-0.3413 J-0.1413
G3 X1.5238 Y1.5213 I-0.2612 J-0.2611
G3 X1.3825 Y1.5495 I-0.1413 J-0.341
G3 X1.2412 Y1.5213 I0 J-0.3692
G3 X1.1214 Y1.4413 I0.1414 J-0.3412
G3 X1.0414 Y1.3214 I0.2613 J-0.2612
G1 X0.9832 Y1.3455 F12
G3 X0.9502 Y1.18 I0.3996 J-0.1655 F12
G3 X0.9832 Y1.0145 I0.4326 J0
G3 X1.0769 Y0.8742 I0.3995 J0.1654
G3 X1.2171 Y0.7805 I0.3057 J0.3056
G3 X1.3825 Y0.7476 I0.1654 J0.3992
G3 X1.548 Y0.7805 I0 J0.4322
G3 X1.6882 Y0.8742 I-0.1655 J0.3994
G3 X1.7819 Y1.0145 I-0.3058 J0.3057
G3 X1.8148 Y1.18 I-0.3996 J0.1655
G3 X1.7819 Y1.3455 I-0.4326 J0
G3 X1.6882 Y1.4858 I-0.3995 J-0.1654
G3 X1.548 Y1.5795 I-0.3057 J-0.3056
G3 X1.3825 Y1.6124 I-0.1654 J-0.3992
G3 X1.2171 Y1.5795 I0 J-0.4322
G3 X1.0769 Y1.4858 I0.1655 J-0.3994
G3 X0.9832 Y1.3455 I0.3058 J-0.3057
G0 Z0.125
G0 X0.3886 Y1.18
G1 Z-0.3 F4
G3 X0.3893 Y1.1764 I0.0096 J0 F12
G3 X0.3913 Y1.1733 I0.0088 J0.0036
G3 X0.3944 Y1.1712 I0.0067 J0.0067
G3 X0.398 Y1.1705 I0.0036 J0.0087
G3 X0.4016 Y1.1712 I0 J0.0094
G3 X0.4047 Y1.1733 I-0.0036 J0.0088
G3 X0.4068 Y1.1764 I-0.0067 J0.0067
G3 X0.4075 Y1.18 I-0.0089 J0.0037
G3 X0.4068 Y1.1837 I-0.0096 J0
G3 X0.4047 Y1.1868 I-0.0088 J-0.0036
G3 X0.4016 Y1.1888 I-0.0067 J-0.0067
G3 X0.398 Y1.1896 I-0.0036 J-0.0087
G3 X0.3944 Y1.1888 I0 J-0.0094
G3 X0.3913 Y1.1868 I0.0036 J-0.0088
G3 X0.3893 Y1.1837 I0.0067 J-0.0067
G3 X0.3886 Y1.18 I0.0089 J-0.0037
G1 X0.3256 Y1.18 F12
G3 X0.3311 Y1.1523 I0.0726 J0 F12
G3 X0.3468 Y1.1287 I0.067 J0.0277
G3 X0.3703 Y1.113 I0.0513 J0.0512
G3 X0.398 Y1.1075 I0.0277 J0.0669
G3 X0.4258 Y1.113 I0 J0.0724
G3 X0.4493 Y1.1287 I-0.0277 J0.067
G3 X0.465 Y1.1523 I-0.0513 J0.0513
G3 X0.4705 Y1.18 I-0.0671 J0.0278
G3 X0.465 Y1.2078 I-0.0726 J0
G3 X0.4493 Y1.2313 I-0.067 J-0.0277
G3 X0.4258 Y1.247 I-0.0513 J-0.0512
G3 X0.398 Y1.2526 I-0.0277 J-0.0669
G3 X0.3703 Y1.247 I0 J-0.0724
G3 X0.3468 Y1.2313 I0.0277 J-0.067
G3 X0.3311 Y1.2078 I0.0513 J-0.0513
G3 X0.3256 Y1.18 I0.0671 J-0.0278
G1 X0.2626 Y1.18 F12
G3 X0.2729 Y1.1282 I0.1356 J0 F12
G3 X0.3023 Y1.0842 I0.1252 J0.0518
G3 X0.3462 Y1.0548 I0.0958 J0.0958
G3 X0.398 Y1.0445 I0.0518 J0.1251
G3 X0.4499 Y1.0548 I0 J0.1354
G3 X0.4938 Y1.0842 I-0.0519 J0.1252
G3 X0.5232 Y1.1282 I-0.0958 J0.0958
G3 X0.5335 Y1.18 I-0.1253 J0.0519
G3 X0.5232 Y1.2319 I-0.1356 J0
G3 X0.4938 Y1.2759 I-0.1252 J-0.0518
G3 X0.4499 Y1.3052 I-0.0958 J-0.0958
G3 X0.398 Y1.3155 I-0.0518 J-0.1251
G3 X0.3462 Y1.3052 I0 J-0.1354
G3 X0.3023 Y1.2759 I0.0519 J-0.1252
G3 X0.2729 Y1.2319 I0.0958 J-0.0958
G3 X0.2626 Y1.18 I0.1253 J-0.0519
G0 Z0.125
G0 X2.3576 Y1.18
G1 Z-0.3 F4
G3 X2.3583 Y1.1764 I0.0096 J0 F12
G3 X2.3603 Y1.1733 I0.0088 J0.0036
G3 X2.3634 Y1.1712 I0.0067 J0.0067
G3 X2.367 Y1.1705 I0.0036 J0.0087
G3 X2.3706 Y1.1712 I0 J0.0094
G3 X2.3737 Y1.1733 I-0.0036 J0.0088
G3 X2.3758 Y1.1764 I-0.0067 J0.0067
G3 X2.3765 Y1.18 I-0.0089 J0.0037
G3 X2.3758 Y1.1837 I-0.0096 J0
G3 X2.3737 Y1.1868 I-0.0088 J-0.0036
G3 X2.3706 Y1.1888 I-0.0067 J-0.0067
G3 X2.367 Y1.1896 I-0.0036 J-0.0087
G3 X2.3634 Y1.1888 I0 J-0.0094
G3 X2.3603 Y1.1868 I0.0036 J-0.0088
G3 X2.3583 Y1.1837 I0.0067 J-0.0067
G3 X2.3576 Y1.18 I0.0089 J-0.0037
G1 X2.2946 Y1.18 F12
G3 X2.3001 Y1.1523 I0.0726 J0 F12
G3 X2.3158 Y1.1287 I0.067 J0.0277
G3 X2.3393 Y1.113 I0.0513 J0.0512
G3 X2.367 Y1.1075 I0.0277 J0.0669
G3 X2.3948 Y1.113 I0 J0.0724
G3 X2.4183 Y1.1287 I-0.0277 J0.067
G3 X2.434 Y1.1523 I-0.0513 J0.0513
G3 X2.4395 Y1.18 I-0.0671 J0.0278
G3 X2.434 Y1.2078 I-0.0726 J0
G3 X2.4183 Y1.2313 I-0.067 J-0.0277
G3 X2.3948 Y1.247 I-0.0513 J-0.0512
G3 X2.367 Y1.2526 I-0.0277 J-0.0669
G3 X2.3393 Y1.247 I0 J-0.0724
G3 X2.3158 Y1.2313 I0.0277 J-0.067
G3 X2.3001 Y1.2078 I0.0513 J-0.0513
G3 X2.2946 Y1.18 I0.0671 J-0.0278
G1 X2.2316 Y1.18 F12
G3 X2.2419 Y1.1282 I0.1356 J0 F12
G3 X2.2713 Y1.0842 I0.1252 J0.0518
G3 X2.3152 Y1.0548 I0.0958 J0.0958
G3 X2.367 Y1.0445 I0.0518 J0.1251
G3 X2.4189 Y1.0548 I0 J0.1354
G3 X2.4628 Y1.0842 I-0.0519 J0.1252
G3 X2.4922 Y1.1282 I-0.0958 J0.0958
G3 X2.5025 Y1.18 I-0.1253 J0.0519
G3 X2.4922 Y1.2319 I-0.1356 J0
G3 X2.4628 Y1.2759 I-0.1252 J-0.0518
G3 X2.4189 Y1.3052 I-0.0958 J-0.0958
G3 X2.367 Y1.3155 I-0.0518 J-0.1251
G3 X2.3152 Y1.3052 I0 J-0.1354
G3 X2.2713 Y1.2759 I0.0519 J-0.1252
G3 X2.2419 Y1.2319 I0.0958 J-0.0958
G3 X2.2316 Y1.18 I0.1253 J-0.0519
G0 Z0.125
G0 X1.3324 Y1.2009
G1 Z-0.364 F4
G3 X1.3282 Y1.18 I0.0504 J-0.0209 F12
G3 X1.3324 Y1.1591 I0.0546 J0
G3 X1.3442 Y1.1415 I0.0503 J0.0208
G3 X1.3618 Y1.1297 I0.0384 J0.0384
G3 X1.3825 Y1.1256 I0.0207 J0.0501
G3 X1.4033 Y1.1297 I0 J0.0542
G3 X1.4209 Y1.1415 I-0.0208 J0.0502
G3 X1.4327 Y1.1591 I-0.0385 J0.0385
G3 X1.4369 Y1.18 I-0.0504 J0.0209
G3 X1.4327 Y1.2009 I-0.0546 J0
G3 X1.4209 Y1.2186 I-0.0503 J-0.0208
G3 X1.4033 Y1.2304 I-0.0384 J-0.0384
G3 X1.3825 Y1.2345 I-0.0207 J-0.0501
G3 X1.3618 Y1.2304 I0 J-0.0542
G3 X1.3442 Y1.2186 I0.0208 J-0.0502
G3 X1.3324 Y1.2009 I0.0385 J-0.0385
G1 X1.2742 Y1.225 F12
G3 X1.2652 Y1.18 I0.1086 J-0.045 F12
G3 X1.2742 Y1.135 I0.1176 J0
G3 X1.2996 Y1.0969 I0.1085 J0.0449
G3 X1.3377 Y1.0715 I0.083 J0.083
G3 X1.3825 Y1.0626 I0.0449 J0.1083
G3 X1.4274 Y1.0715 I0 J0.1172
G3 X1.4655 Y1.0969 I-0.0449 J0.1084
G3 X1.4909 Y1.135 I-0.0831 J0.083
G3 X1.4999 Y1.18 I-0.1086 J0.045
G3 X1.4909 Y1.225 I-0.1176 J0
G3 X1.4655 Y1.2631 I-0.1085 J-0.0449
G3 X1.4274 Y1.2886 I-0.083 J-0.083
G3 X1.3825 Y1.2975 I-0.0449 J-0.1083
G3 X1.3377 Y1.2886 I0 J-0.1172
G3 X1.2996 Y1.2631 I0.0449 J-0.1084
G3 X1.2742 Y1.225 I0.0831 J-0.083
G1 X1.216 Y1.2491 F12
G3 X1.2022 Y1.18 I0.1668 J-0.0691 F12
G3 X1.216 Y1.1109 I0.1806 J0
G3 X1.2551 Y1.0524 I0.1667 J0.069
G3 X1.3136 Y1.0133 I0.1275 J0.1275
G3 X1.3825 Y0.9996 I0.069 J0.1665
G3 X1.4515 Y1.0133 I0 J0.1802
G3 X1.51 Y1.0524 I-0.069 J0.1666
G3 X1.5491 Y1.1109 I-0.1276 J0.1276
G3 X1.5629 Y1.18 I-0.1668 J0.0691
G3 X1.5491 Y1.2491 I-0.1806 J0
G3 X1.51 Y1.3077 I-0.1667 J-0.069
G3 X1.4515 Y1.3468 I-0.1275 J-0.1275
G3 X1.3825 Y1.3605 I-0.069 J-0.1665
G3 X1.3136 Y1.3468 I0 J-0.1802
G3 X1.2551 Y1.3077 I0.069 J-0.1666
G3 X1.216 Y1.2491 I0.1276 J-0.1276
G1 X1.1578 Y1.2732 F12
G3 X1.1392 Y1.18 I0.225 J-0.0932 F12
G3 X1.1578 Y1.0868 I0.2436 J0
G3 X1.2105 Y1.0079 I0.2249 J0.0931
G3 X1.2895 Y0.9551 I0.1721 J0.172
G3 X1.3825 Y0.9366 I0.0931 J0.2247
G3 X1.4756 Y0.9551 I0 J0.2432
G3 X1.5546 Y1.0079 I-0.0931 J0.2248
G3 X1.6073 Y1.0868 I-0.1722 J0.1721
G3 X1.6258 Y1.18 I-0.225 J0.0932
G3 X1.6073 Y1.2732 I-0.2436 J0
G3 X1.5546 Y1.3522 I-0.2249 J-0.0931
G3 X1.4756 Y1.405 I-0.1721 J-0.172
G3 X1.3825 Y1.4235 I-0.0931 J-0.2247
G3 X1.2895 Y1.405 I0 J-0.2432
G3 X1.2105 Y1.3522 I0.0931 J-0.2248
G3 X1.1578 Y1.2732 I0.1722 J-0.1721
G1 X1.0996 Y1.2973 F12
G3 X1.0762 Y1.18 I0.2832 J-0.1173 F12
G3 X1.0996 Y1.0627 I0.3066 J0
G3 X1.166 Y0.9633 I0.2831 J0.1172
G3 X1.2653 Y0.8969 I0.2166 J0.2166
G3 X1.3825 Y0.8736 I0.1172 J0.2829
G3 X1.4997 Y0.8969 I0 J0.3062
G3 X1.5991 Y0.9633 I-0.1172 J0.283
G3 X1.6655 Y1.0627 I-0.2167 J0.2167
G3 X1.6888 Y1.18 I-0.2832 J0.1173
G3 X1.6655 Y1.2973 I-0.3066 J0
G3 X1.5991 Y1.3967 I-0.2831 J-0.1172
G3 X1.4997 Y1.4631 I-0.2166 J-0.2166
G3 X1.3825 Y1.4865 I-0.1172 J-0.2829
G3 X1.2653 Y1.4631 I0 J-0.3062
G3 X1.166 Y1.3967 I0.1172 J-0.283
G3 X1.0996 Y1.2973 I0.2167 J-0.2167
G1 X1.0414 Y1.3214 F12
G3 X1.0132 Y1.18 I0.3414 J-0.1414 F12
G3 X1.0414 Y1.0386 I0.3696 J0
G3 X1.1214 Y0.9188 I0.3413 J0.1413
G3 X1.2412 Y0.8387 I0.2612 J0.2611
G3 X1.3825 Y0.8106 I0.1413 J0.341
G3 X1.5238 Y0.8387 I0 J0.3692
G3 X1.6437 Y0.9188 I-0.1414 J0.3412
G3 X1.7237 Y1.0386 I-0.2613 J0.2612
G3 X1.7518 Y1.18 I-0.3414 J0.1414
G3 X1.7237 Y1.3214 I-0.3696 J0
G3 X1.6437 Y1.4413 I-0.3413 J-0.1413
G3 X1.5238 Y1.5213 I-0.2612 J-0.2611
G3 X1.3825 Y1.5495 I-0.1413 J-0.341
G3 X1.2412 Y1.5213 I0 J-0.3692
G3 X1.1214 Y1.4413 I0.1414 J-0.3412
G3 X1.0414 Y1.3214 I0.2613 J-0.2612
G1 X0.9832 Y1.3455 F12
G3 X0.9502 Y1.18 I0.3996 J-0.1655 F12
G3 X0.9832 Y1.0145 I0.4326 J0
G3 X1.0769 Y0.8742 I0.3995 J0.1654
G3 X1.2171 Y0.7805 I0.3057 J0.3056
G3 X1.3825 Y0.7476 I0.1654 J0.3992
G3 X1.548 Y0.7805 I0 J0.4322
G3 X1.6882 Y0.8742 I-0.1655 J0.3994
G3 X1.7819 Y1.0145 I-0.3058 J0.3057
G3 X1.8148 Y1.18 I-0.3996 J0.1655
G3 X1.7819 Y1.3455 I-0.4326 J0
G3 X1.6882 Y1.4858 I-0.3995 J-0.1654
G3 X1.548 Y1.5795 I-0.3057 J-0.3056
G3 X1.3825 Y1.6124 I-0.1654 J-0.3992
G3 X1.2171 Y1.5795 I0 J-0.4322
G3 X1.0769 Y1.4858 I0.1655 J-0.3994
G3 X0.9832 Y1.3455 I0.3058 J-0.3057
G0 Z0.125
G0 X0.3886 Y1.18
G1 Z-0.364 F4
G3 X0.3893 Y1.1764 I0.0096 J0 F12
G3 X0.3913 Y1.1733 I0.0088 J0.0036
G3 X0.3944 Y1.1712 I0.0067 J0.0067
G3 X0.398 Y1.1705 I0.0036 J0.0087
G3 X0.4016 Y1.1712 I0 J0.0094
G3 X0.4047 Y1.1733 I-0.0036 J0.0088
G3 X0.4068 Y1.1764 I-0.0067 J0.0067
G3 X0.4075 Y1.18 I-0.0089 J0.0037
G3 X0.4068 Y1.1837 I-0.0096 J0
G3 X0.4047 Y1.1868 I-0.0088 J-0.0036
G3 X0.4016 Y1.1888 I-0.0067 J-0.0067
G3 X0.398 Y1.1896 I-0.0036 J-0.0087
G3 X0.3944 Y1.1888 I0 J-0.0094
G3 X0.3913 Y1.1868 I0.0036 J-0.0088
G3 X0.3893 Y1.1837 I0.0067 J-0.0067
G3 X0.3886 Y1.18 I0.0089 J-0.0037
G1 X0.3256 Y1.18 F12
G3 X0.3311 Y1.1523 I0.0726 J0 F12
G3 X0.3468 Y1.1287 I0.067 J0.0277
G3 X0.3703 Y1.113 I0.0513 J0.0512
G3 X0.398 Y1.1075 I0.0277 J0.0669
G3 X0.4258 Y1.113 I0 J0.0724
G3 X0.4493 Y1.1287 I-0.0277 J0.067
G3 X0.465 Y1.1523 I-0.0513 J0.0513
G3 X0.4705 Y1.18 I-0.0671 J0.0278
G3 X0.465 Y1.2078 I-0.0726 J0
G3 X0.4493 Y1.2313 I-0.067 J-0.0277
G3 X0.4258 Y1.247 I-0.0513 J-0.0512
G3 X0.398 Y1.2526 I-0.0277 J-0.0669
G3 X0.3703 Y1.247 I0 J-0.0724
G3 X0.3468 Y1.2313 I0.0277 J-0.067
G3 X0.3311 Y1.2078 I0.0513 J-0.0513
G3 X0.3256 Y1.18 I0.0671 J-0.0278
G1 X0.2626 Y1.18 F12
G3 X0.2729 Y1.1282 I0.1356 J0 F12
G3 X0.3023 Y1.0842 I0.1252 J0.0518
G3 X0.3462 Y1.0548 I0.0958 J0.0958
G3 X0.398 Y1.0445 I0.0518 J0.1251
G3 X0.4499 Y1.0548 I0 J0.1354
G3 X0.4938 Y1.0842 I-0.0519 J0.1252
G3 X0.5232 Y1.1282 I-0.0958 J0.0958
G3 X0.5335 Y1.18 I-0.1253 J0.0519
G3 X0.5232 Y1.2319 I-0.1356 J0
G3 X0.4938 Y1.2759 I-0.1252 J-0.0518
G3 X0.4499 Y1.3052 I-0.0958 J-0.0958
G3 X0.398 Y1.3155 I-0.0518 J-0.1251
G3 X0.3462 Y1.3052 I0 J-0.1354
G3 X0.3023 Y1.2759 I0.0519 J-0.1252
G3 X0.2729 Y1.2319 I0.0958 J-0.0958
G3 X0.2626 Y1.18 I0.1253 J-0.0519
G0 Z0.125
G0 X2.3576 Y1.18
G1 Z-0.364 F4
G3 X2.3583 Y1.1764 I0.0096 J0 F12
G3 X2.3603 Y1.1733 I0.0088 J0.0036
G3 X2.3634 Y1.1712 I0.0067 J0.0067
G3 X2.367 Y1.1705 I0.0036 J0.0087
G3 X2.3706 Y1.1712 I0 J0.0094
G3 X2.3737 Y1.1733 I-0.0036 J0.0088
G3 X2.3758 Y1.1764 I-0.0067 J0.0067
G3 X2.3765 Y1.18 I-0.0089 J0.0037
G3 X2.3758 Y1.1837 I-0.0096 J0
G3 X2.3737 Y1.1868 I-0.0088 J-0.0036
G3 X2.3706 Y1.1888 I-0.0067 J-0.0067
G3 X2.367 Y1.1896 I-0.0036 J-0.0087
G3 X2.3634 Y1.1888 I0 J-0.0094
G3 X2.3603 Y1.1868 I0.0036 J-0.0088
G3 X2.3583 Y1.1837 I0.0067 J-0.0067
G3 X2.3576 Y1.18 I0.0089 J-0.0037
G1 X2.2946 Y1.18 F12
G3 X2.3001 Y1.1523 I0.0726 J0 F12
G3 X2.3158 Y1.1287 I0.067 J0.0277
G3 X2.3393 Y1.113 I0.0513 J0.0512
G3 X2.367 Y1.1075 I0.0277 J0.0669
G3 X2.3948 Y1.113 I0 J0.0724
G3 X2.4183 Y1.1287 I-0.0277 J0.067
G3 X2.434 Y1.1523 I-0.0513 J0.0513
G3 X2.4395 Y1.18 I-0.0671 J0.0278
G3 X2.434 Y1.2078 I-0.0726 J0
G3 X2.4183 Y1.2313 I-0.067 J-0.0277
G3 X2.3948 Y1.247 I-0.0513 J-0.0512
G3 X2.367 Y1.2526 I-0.0277 J-0.0669
G3 X2.3393 Y1.247 I0 J-0.0724
G3 X2.3158 Y1.2313 I0.0277 J-0.067
G3 X2.3001 Y1.2078 I0.0513 J-0.0513
G3 X2.2946 Y1.18 I0.0671 J-0.0278
G1 X2.2316 Y1.18 F12
G3 X2.2419 Y1.1282 I0.1356 J0 F12
G3 X2.2713 Y1.0842 I0.1252 J0.0518
G3 X2.3152 Y1.0548 I0.0958 J0.0958
G3 X2.367 Y1.0445 I0.0518 J0.1251
G3 X2.4189 Y1.0548 I0 J0.1354
G3 X2.4628 Y1.0842 I-0.0519 J0.1252
G3 X2.4922 Y1.1282 I-0.0958 J0.0958
G3 X2.5025 Y1.18 I-0.1253 J0.0519
G3 X2.4922 Y1.2319 I-0.1356 J0
G3 X2.4628 Y1.2759 I-0.1252 J-0.0518
G3 X2.4189 Y1.3052 I-0.0958 J-0.0958
G3 X2.367 Y1.3155 I-0.0518 J-0.1251
G3 X2.3152 Y1.3052 I0 J-0.1354
G3 X2.2713 Y1.2759 I0.0519 J-0.1252
G3 X2.2419 Y1.2319 I0.0958 J-0.0958
G3 X2.2316 Y1.18 I0.1253 J-0.0519
G0 Z0.125
M5
M30
