(Generated by PartKam Version 0.05)

G20 G90 G40

(drill 6)
G0 Z0.5
T0 M6
G17
M3
G0 X0.4555 Y0.253
T0 M6
G1 Z0 F5
G0 Z0.5
G0 X2.3095 Y2.107
T0 M6
G1 Z0 F5
G0 Z0.5
G0 X2.3095 Y0.253
T0 M6
G1 Z0 F5
G0 Z0.5
G0 X0.4555 Y2.107
T0 M6
G1 Z0 F5
G0 Z0.5
G0 X0.398 Y1.18
T0 M6
G1 Z0 F5
G0 Z0.5
G0 X2.367 Y1.18
T0 M6
G1 Z0 F5
G0 Z0.5
M5
M30
