(Generated by PartKam Version 0.05)

G20 G90 G40

(pocket 4)
G0 Z0.5
T0 M6
G17
M3
G0 X1.84 Y1.4287
G1 Z-0.05 F4
G3 X1.8492 Y1.475 I-0.112 J0.0464 F8
G3 X1.84 Y1.5214 I-0.1212 J0
G3 X1.8137 Y1.5607 I-0.1119 J-0.0463
G3 X1.7745 Y1.5869 I-0.0856 J-0.0856
G3 X1.7282 Y1.5962 I-0.0463 J-0.1117
G3 X1.6819 Y1.5869 I0 J-0.1209
G3 X1.6426 Y1.5607 I0.0463 J-0.1118
G3 X1.6164 Y1.5214 I0.0857 J-0.0856
G3 X1.6071 Y1.475 I0.112 J-0.0464
G3 X1.6164 Y1.4287 I0.1212 J0
G3 X1.6426 Y1.3894 I0.1119 J0.0463
G3 X1.6819 Y1.3631 I0.0856 J0.0856
G3 X1.7282 Y1.3539 I0.0463 J0.1117
G3 X1.7745 Y1.3631 I0 J0.1209
G3 X1.8137 Y1.3894 I-0.0463 J0.1118
G3 X1.84 Y1.4287 I-0.0857 J0.0856
G0 Z0.5
G0 X1.84 Y1.4287
G1 Z-0.1 F4
G3 X1.8492 Y1.475 I-0.112 J0.0464 F8
G3 X1.84 Y1.5214 I-0.1212 J0
G3 X1.8137 Y1.5607 I-0.1119 J-0.0463
G3 X1.7745 Y1.5869 I-0.0856 J-0.0856
G3 X1.7282 Y1.5962 I-0.0463 J-0.1117
G3 X1.6819 Y1.5869 I0 J-0.1209
G3 X1.6426 Y1.5607 I0.0463 J-0.1118
G3 X1.6164 Y1.5214 I0.0857 J-0.0856
G3 X1.6071 Y1.475 I0.112 J-0.0464
G3 X1.6164 Y1.4287 I0.1212 J0
G3 X1.6426 Y1.3894 I0.1119 J0.0463
G3 X1.6819 Y1.3631 I0.0856 J0.0856
G3 X1.7282 Y1.3539 I0.0463 J0.1117
G3 X1.7745 Y1.3631 I0 J0.1209
G3 X1.8137 Y1.3894 I-0.0463 J0.1118
G3 X1.84 Y1.4287 I-0.0857 J0.0856
G0 Z0.5
G0 X1.84 Y1.4287
G1 Z-0.15 F4
G3 X1.8492 Y1.475 I-0.112 J0.0464 F8
G3 X1.84 Y1.5214 I-0.1212 J0
G3 X1.8137 Y1.5607 I-0.1119 J-0.0463
G3 X1.7745 Y1.5869 I-0.0856 J-0.0856
G3 X1.7282 Y1.5962 I-0.0463 J-0.1117
G3 X1.6819 Y1.5869 I0 J-0.1209
G3 X1.6426 Y1.5607 I0.0463 J-0.1118
G3 X1.6164 Y1.5214 I0.0857 J-0.0856
G3 X1.6071 Y1.475 I0.112 J-0.0464
G3 X1.6164 Y1.4287 I0.1212 J0
G3 X1.6426 Y1.3894 I0.1119 J0.0463
G3 X1.6819 Y1.3631 I0.0856 J0.0856
G3 X1.7282 Y1.3539 I0.0463 J0.1117
G3 X1.7745 Y1.3631 I0 J0.1209
G3 X1.8137 Y1.3894 I-0.0463 J0.1118
G3 X1.84 Y1.4287 I-0.0857 J0.0856
G0 Z0.5
G0 X1.84 Y1.4287
G1 Z-0.2 F4
G3 X1.8492 Y1.475 I-0.112 J0.0464 F8
G3 X1.84 Y1.5214 I-0.1212 J0
G3 X1.8137 Y1.5607 I-0.1119 J-0.0463
G3 X1.7745 Y1.5869 I-0.0856 J-0.0856
G3 X1.7282 Y1.5962 I-0.0463 J-0.1117
G3 X1.6819 Y1.5869 I0 J-0.1209
G3 X1.6426 Y1.5607 I0.0463 J-0.1118
G3 X1.6164 Y1.5214 I0.0857 J-0.0856
G3 X1.6071 Y1.475 I0.112 J-0.0464
G3 X1.6164 Y1.4287 I0.1212 J0
G3 X1.6426 Y1.3894 I0.1119 J0.0463
G3 X1.6819 Y1.3631 I0.0856 J0.0856
G3 X1.7282 Y1.3539 I0.0463 J0.1117
G3 X1.7745 Y1.3631 I0 J0.1209
G3 X1.8137 Y1.3894 I-0.0463 J0.1118
G3 X1.84 Y1.4287 I-0.0857 J0.0856
G0 Z0.5
G0 X1.84 Y1.4287
G1 Z-0.25 F4
G3 X1.8492 Y1.475 I-0.112 J0.0464 F8
G3 X1.84 Y1.5214 I-0.1212 J0
G3 X1.8137 Y1.5607 I-0.1119 J-0.0463
G3 X1.7745 Y1.5869 I-0.0856 J-0.0856
G3 X1.7282 Y1.5962 I-0.0463 J-0.1117
G3 X1.6819 Y1.5869 I0 J-0.1209
G3 X1.6426 Y1.5607 I0.0463 J-0.1118
G3 X1.6164 Y1.5214 I0.0857 J-0.0856
G3 X1.6071 Y1.475 I0.112 J-0.0464
G3 X1.6164 Y1.4287 I0.1212 J0
G3 X1.6426 Y1.3894 I0.1119 J0.0463
G3 X1.6819 Y1.3631 I0.0856 J0.0856
G3 X1.7282 Y1.3539 I0.0463 J0.1117
G3 X1.7745 Y1.3631 I0 J0.1209
G3 X1.8137 Y1.3894 I-0.0463 J0.1118
G3 X1.84 Y1.4287 I-0.0857 J0.0856
G0 Z0.5
G0 X1.84 Y1.4287
G1 Z-0.3 F4
G3 X1.8492 Y1.475 I-0.112 J0.0464 F8
G3 X1.84 Y1.5214 I-0.1212 J0
G3 X1.8137 Y1.5607 I-0.1119 J-0.0463
G3 X1.7745 Y1.5869 I-0.0856 J-0.0856
G3 X1.7282 Y1.5962 I-0.0463 J-0.1117
G3 X1.6819 Y1.5869 I0 J-0.1209
G3 X1.6426 Y1.5607 I0.0463 J-0.1118
G3 X1.6164 Y1.5214 I0.0857 J-0.0856
G3 X1.6071 Y1.475 I0.112 J-0.0464
G3 X1.6164 Y1.4287 I0.1212 J0
G3 X1.6426 Y1.3894 I0.1119 J0.0463
G3 X1.6819 Y1.3631 I0.0856 J0.0856
G3 X1.7282 Y1.3539 I0.0463 J0.1117
G3 X1.7745 Y1.3631 I0 J0.1209
G3 X1.8137 Y1.3894 I-0.0463 J0.1118
G3 X1.84 Y1.4287 I-0.0857 J0.0856
G0 Z0.5
G0 X1.84 Y1.4287
G1 Z-0.35 F4
G3 X1.8492 Y1.475 I-0.112 J0.0464 F8
G3 X1.84 Y1.5214 I-0.1212 J0
G3 X1.8137 Y1.5607 I-0.1119 J-0.0463
G3 X1.7745 Y1.5869 I-0.0856 J-0.0856
G3 X1.7282 Y1.5962 I-0.0463 J-0.1117
G3 X1.6819 Y1.5869 I0 J-0.1209
G3 X1.6426 Y1.5607 I0.0463 J-0.1118
G3 X1.6164 Y1.5214 I0.0857 J-0.0856
G3 X1.6071 Y1.475 I0.112 J-0.0464
G3 X1.6164 Y1.4287 I0.1212 J0
G3 X1.6426 Y1.3894 I0.1119 J0.0463
G3 X1.6819 Y1.3631 I0.0856 J0.0856
G3 X1.7282 Y1.3539 I0.0463 J0.1117
G3 X1.7745 Y1.3631 I0 J0.1209
G3 X1.8137 Y1.3894 I-0.0463 J0.1118
G3 X1.84 Y1.4287 I-0.0857 J0.0856
G0 Z0.5
G0 X1.84 Y1.4287
G1 Z-0.4 F4
G3 X1.8492 Y1.475 I-0.112 J0.0464 F8
G3 X1.84 Y1.5214 I-0.1212 J0
G3 X1.8137 Y1.5607 I-0.1119 J-0.0463
G3 X1.7745 Y1.5869 I-0.0856 J-0.0856
G3 X1.7282 Y1.5962 I-0.0463 J-0.1117
G3 X1.6819 Y1.5869 I0 J-0.1209
G3 X1.6426 Y1.5607 I0.0463 J-0.1118
G3 X1.6164 Y1.5214 I0.0857 J-0.0856
G3 X1.6071 Y1.475 I0.112 J-0.0464
G3 X1.6164 Y1.4287 I0.1212 J0
G3 X1.6426 Y1.3894 I0.1119 J0.0463
G3 X1.6819 Y1.3631 I0.0856 J0.0856
G3 X1.7282 Y1.3539 I0.0463 J0.1117
G3 X1.7745 Y1.3631 I0 J0.1209
G3 X1.8137 Y1.3894 I-0.0463 J0.1118
G3 X1.84 Y1.4287 I-0.0857 J0.0856
G0 Z0.5
G0 X1.84 Y1.4287
G1 Z-0.45 F4
G3 X1.8492 Y1.475 I-0.112 J0.0464 F8
G3 X1.84 Y1.5214 I-0.1212 J0
G3 X1.8137 Y1.5607 I-0.1119 J-0.0463
G3 X1.7745 Y1.5869 I-0.0856 J-0.0856
G3 X1.7282 Y1.5962 I-0.0463 J-0.1117
G3 X1.6819 Y1.5869 I0 J-0.1209
G3 X1.6426 Y1.5607 I0.0463 J-0.1118
G3 X1.6164 Y1.5214 I0.0857 J-0.0856
G3 X1.6071 Y1.475 I0.112 J-0.0464
G3 X1.6164 Y1.4287 I0.1212 J0
G3 X1.6426 Y1.3894 I0.1119 J0.0463
G3 X1.6819 Y1.3631 I0.0856 J0.0856
G3 X1.7282 Y1.3539 I0.0463 J0.1117
G3 X1.7745 Y1.3631 I0 J0.1209
G3 X1.8137 Y1.3894 I-0.0463 J0.1118
G3 X1.84 Y1.4287 I-0.0857 J0.0856
G0 Z0.5
G0 X1.84 Y1.4287
G1 Z-0.5 F4
G3 X1.8492 Y1.475 I-0.112 J0.0464 F8
G3 X1.84 Y1.5214 I-0.1212 J0
G3 X1.8137 Y1.5607 I-0.1119 J-0.0463
G3 X1.7745 Y1.5869 I-0.0856 J-0.0856
G3 X1.7282 Y1.5962 I-0.0463 J-0.1117
G3 X1.6819 Y1.5869 I0 J-0.1209
G3 X1.6426 Y1.5607 I0.0463 J-0.1118
G3 X1.6164 Y1.5214 I0.0857 J-0.0856
G3 X1.6071 Y1.475 I0.112 J-0.0464
G3 X1.6164 Y1.4287 I0.1212 J0
G3 X1.6426 Y1.3894 I0.1119 J0.0463
G3 X1.6819 Y1.3631 I0.0856 J0.0856
G3 X1.7282 Y1.3539 I0.0463 J0.1117
G3 X1.7745 Y1.3631 I0 J0.1209
G3 X1.8137 Y1.3894 I-0.0463 J0.1118
G3 X1.84 Y1.4287 I-0.0857 J0.0856
G0 Z0.5
G0 X1.84 Y1.4287
G1 Z-0.55 F4
G3 X1.8492 Y1.475 I-0.112 J0.0464 F8
G3 X1.84 Y1.5214 I-0.1212 J0
G3 X1.8137 Y1.5607 I-0.1119 J-0.0463
G3 X1.7745 Y1.5869 I-0.0856 J-0.0856
G3 X1.7282 Y1.5962 I-0.0463 J-0.1117
G3 X1.6819 Y1.5869 I0 J-0.1209
G3 X1.6426 Y1.5607 I0.0463 J-0.1118
G3 X1.6164 Y1.5214 I0.0857 J-0.0856
G3 X1.6071 Y1.475 I0.112 J-0.0464
G3 X1.6164 Y1.4287 I0.1212 J0
G3 X1.6426 Y1.3894 I0.1119 J0.0463
G3 X1.6819 Y1.3631 I0.0856 J0.0856
G3 X1.7282 Y1.3539 I0.0463 J0.1117
G3 X1.7745 Y1.3631 I0 J0.1209
G3 X1.8137 Y1.3894 I-0.0463 J0.1118
G3 X1.84 Y1.4287 I-0.0857 J0.0856
G0 Z0.5
G0 X1.84 Y1.4287
G1 Z-0.6 F4
G3 X1.8492 Y1.475 I-0.112 J0.0464 F8
G3 X1.84 Y1.5214 I-0.1212 J0
G3 X1.8137 Y1.5607 I-0.1119 J-0.0463
G3 X1.7745 Y1.5869 I-0.0856 J-0.0856
G3 X1.7282 Y1.5962 I-0.0463 J-0.1117
G3 X1.6819 Y1.5869 I0 J-0.1209
G3 X1.6426 Y1.5607 I0.0463 J-0.1118
G3 X1.6164 Y1.5214 I0.0857 J-0.0856
G3 X1.6071 Y1.475 I0.112 J-0.0464
G3 X1.6164 Y1.4287 I0.1212 J0
G3 X1.6426 Y1.3894 I0.1119 J0.0463
G3 X1.6819 Y1.3631 I0.0856 J0.0856
G3 X1.7282 Y1.3539 I0.0463 J0.1117
G3 X1.7745 Y1.3631 I0 J0.1209
G3 X1.8137 Y1.3894 I-0.0463 J0.1118
G3 X1.84 Y1.4287 I-0.0857 J0.0856
G0 Z0.5
G0 X1.84 Y1.4287
G1 Z-0.65 F4
G3 X1.8492 Y1.475 I-0.112 J0.0464 F8
G3 X1.84 Y1.5214 I-0.1212 J0
G3 X1.8137 Y1.5607 I-0.1119 J-0.0463
G3 X1.7745 Y1.5869 I-0.0856 J-0.0856
G3 X1.7282 Y1.5962 I-0.0463 J-0.1117
G3 X1.6819 Y1.5869 I0 J-0.1209
G3 X1.6426 Y1.5607 I0.0463 J-0.1118
G3 X1.6164 Y1.5214 I0.0857 J-0.0856
G3 X1.6071 Y1.475 I0.112 J-0.0464
G3 X1.6164 Y1.4287 I0.1212 J0
G3 X1.6426 Y1.3894 I0.1119 J0.0463
G3 X1.6819 Y1.3631 I0.0856 J0.0856
G3 X1.7282 Y1.3539 I0.0463 J0.1117
G3 X1.7745 Y1.3631 I0 J0.1209
G3 X1.8137 Y1.3894 I-0.0463 J0.1118
G3 X1.84 Y1.4287 I-0.0857 J0.0856
G0 Z0.5
G0 X1.84 Y1.4287
G1 Z-0.7 F4
G3 X1.8492 Y1.475 I-0.112 J0.0464 F8
G3 X1.84 Y1.5214 I-0.1212 J0
G3 X1.8137 Y1.5607 I-0.1119 J-0.0463
G3 X1.7745 Y1.5869 I-0.0856 J-0.0856
G3 X1.7282 Y1.5962 I-0.0463 J-0.1117
G3 X1.6819 Y1.5869 I0 J-0.1209
G3 X1.6426 Y1.5607 I0.0463 J-0.1118
G3 X1.6164 Y1.5214 I0.0857 J-0.0856
G3 X1.6071 Y1.475 I0.112 J-0.0464
G3 X1.6164 Y1.4287 I0.1212 J0
G3 X1.6426 Y1.3894 I0.1119 J0.0463
G3 X1.6819 Y1.3631 I0.0856 J0.0856
G3 X1.7282 Y1.3539 I0.0463 J0.1117
G3 X1.7745 Y1.3631 I0 J0.1209
G3 X1.8137 Y1.3894 I-0.0463 J0.1118
G3 X1.84 Y1.4287 I-0.0857 J0.0856
G0 Z0.5
G0 X1.84 Y1.4287
G1 Z-0.75 F4
G3 X1.8492 Y1.475 I-0.112 J0.0464 F8
G3 X1.84 Y1.5214 I-0.1212 J0
G3 X1.8137 Y1.5607 I-0.1119 J-0.0463
G3 X1.7745 Y1.5869 I-0.0856 J-0.0856
G3 X1.7282 Y1.5962 I-0.0463 J-0.1117
G3 X1.6819 Y1.5869 I0 J-0.1209
G3 X1.6426 Y1.5607 I0.0463 J-0.1118
G3 X1.6164 Y1.5214 I0.0857 J-0.0856
G3 X1.6071 Y1.475 I0.112 J-0.0464
G3 X1.6164 Y1.4287 I0.1212 J0
G3 X1.6426 Y1.3894 I0.1119 J0.0463
G3 X1.6819 Y1.3631 I0.0856 J0.0856
G3 X1.7282 Y1.3539 I0.0463 J0.1117
G3 X1.7745 Y1.3631 I0 J0.1209
G3 X1.8137 Y1.3894 I-0.0463 J0.1118
G3 X1.84 Y1.4287 I-0.0857 J0.0856
G0 Z0.5
G0 X1.84 Y1.4287
G1 Z-0.8 F4
G3 X1.8492 Y1.475 I-0.112 J0.0464 F8
G3 X1.84 Y1.5214 I-0.1212 J0
G3 X1.8137 Y1.5607 I-0.1119 J-0.0463
G3 X1.7745 Y1.5869 I-0.0856 J-0.0856
G3 X1.7282 Y1.5962 I-0.0463 J-0.1117
G3 X1.6819 Y1.5869 I0 J-0.1209
G3 X1.6426 Y1.5607 I0.0463 J-0.1118
G3 X1.6164 Y1.5214 I0.0857 J-0.0856
G3 X1.6071 Y1.475 I0.112 J-0.0464
G3 X1.6164 Y1.4287 I0.1212 J0
G3 X1.6426 Y1.3894 I0.1119 J0.0463
G3 X1.6819 Y1.3631 I0.0856 J0.0856
G3 X1.7282 Y1.3539 I0.0463 J0.1117
G3 X1.7745 Y1.3631 I0 J0.1209
G3 X1.8137 Y1.3894 I-0.0463 J0.1118
G3 X1.84 Y1.4287 I-0.0857 J0.0856
G0 Z0.5
G0 X1.84 Y1.4287
G1 Z-0.85 F4
G3 X1.8492 Y1.475 I-0.112 J0.0464 F8
G3 X1.84 Y1.5214 I-0.1212 J0
G3 X1.8137 Y1.5607 I-0.1119 J-0.0463
G3 X1.7745 Y1.5869 I-0.0856 J-0.0856
G3 X1.7282 Y1.5962 I-0.0463 J-0.1117
G3 X1.6819 Y1.5869 I0 J-0.1209
G3 X1.6426 Y1.5607 I0.0463 J-0.1118
G3 X1.6164 Y1.5214 I0.0857 J-0.0856
G3 X1.6071 Y1.475 I0.112 J-0.0464
G3 X1.6164 Y1.4287 I0.1212 J0
G3 X1.6426 Y1.3894 I0.1119 J0.0463
G3 X1.6819 Y1.3631 I0.0856 J0.0856
G3 X1.7282 Y1.3539 I0.0463 J0.1117
G3 X1.7745 Y1.3631 I0 J0.1209
G3 X1.8137 Y1.3894 I-0.0463 J0.1118
G3 X1.84 Y1.4287 I-0.0857 J0.0856
G0 Z0.5
G0 X1.84 Y1.4287
G1 Z-0.9 F4
G3 X1.8492 Y1.475 I-0.112 J0.0464 F8
G3 X1.84 Y1.5214 I-0.1212 J0
G3 X1.8137 Y1.5607 I-0.1119 J-0.0463
G3 X1.7745 Y1.5869 I-0.0856 J-0.0856
G3 X1.7282 Y1.5962 I-0.0463 J-0.1117
G3 X1.6819 Y1.5869 I0 J-0.1209
G3 X1.6426 Y1.5607 I0.0463 J-0.1118
G3 X1.6164 Y1.5214 I0.0857 J-0.0856
G3 X1.6071 Y1.475 I0.112 J-0.0464
G3 X1.6164 Y1.4287 I0.1212 J0
G3 X1.6426 Y1.3894 I0.1119 J0.0463
G3 X1.6819 Y1.3631 I0.0856 J0.0856
G3 X1.7282 Y1.3539 I0.0463 J0.1117
G3 X1.7745 Y1.3631 I0 J0.1209
G3 X1.8137 Y1.3894 I-0.0463 J0.1118
G3 X1.84 Y1.4287 I-0.0857 J0.0856
G0 Z0.5
G0 X1.84 Y1.4287
G1 Z-0.95 F4
G3 X1.8492 Y1.475 I-0.112 J0.0464 F8
G3 X1.84 Y1.5214 I-0.1212 J0
G3 X1.8137 Y1.5607 I-0.1119 J-0.0463
G3 X1.7745 Y1.5869 I-0.0856 J-0.0856
G3 X1.7282 Y1.5962 I-0.0463 J-0.1117
G3 X1.6819 Y1.5869 I0 J-0.1209
G3 X1.6426 Y1.5607 I0.0463 J-0.1118
G3 X1.6164 Y1.5214 I0.0857 J-0.0856
G3 X1.6071 Y1.475 I0.112 J-0.0464
G3 X1.6164 Y1.4287 I0.1212 J0
G3 X1.6426 Y1.3894 I0.1119 J0.0463
G3 X1.6819 Y1.3631 I0.0856 J0.0856
G3 X1.7282 Y1.3539 I0.0463 J0.1117
G3 X1.7745 Y1.3631 I0 J0.1209
G3 X1.8137 Y1.3894 I-0.0463 J0.1118
G3 X1.84 Y1.4287 I-0.0857 J0.0856
G0 Z0.5
G0 X1.84 Y1.4287
G1 Z-1 F4
G3 X1.8492 Y1.475 I-0.112 J0.0464 F8
G3 X1.84 Y1.5214 I-0.1212 J0
G3 X1.8137 Y1.5607 I-0.1119 J-0.0463
G3 X1.7745 Y1.5869 I-0.0856 J-0.0856
G3 X1.7282 Y1.5962 I-0.0463 J-0.1117
G3 X1.6819 Y1.5869 I0 J-0.1209
G3 X1.6426 Y1.5607 I0.0463 J-0.1118
G3 X1.6164 Y1.5214 I0.0857 J-0.0856
G3 X1.6071 Y1.475 I0.112 J-0.0464
G3 X1.6164 Y1.4287 I0.1212 J0
G3 X1.6426 Y1.3894 I0.1119 J0.0463
G3 X1.6819 Y1.3631 I0.0856 J0.0856
G3 X1.7282 Y1.3539 I0.0463 J0.1117
G3 X1.7745 Y1.3631 I0 J0.1209
G3 X1.8137 Y1.3894 I-0.0463 J0.1118
G3 X1.84 Y1.4287 I-0.0857 J0.0856
G0 Z0.5
G0 X1.84 Y1.4287
G1 Z-1.05 F4
G3 X1.8492 Y1.475 I-0.112 J0.0464 F8
G3 X1.84 Y1.5214 I-0.1212 J0
G3 X1.8137 Y1.5607 I-0.1119 J-0.0463
G3 X1.7745 Y1.5869 I-0.0856 J-0.0856
G3 X1.7282 Y1.5962 I-0.0463 J-0.1117
G3 X1.6819 Y1.5869 I0 J-0.1209
G3 X1.6426 Y1.5607 I0.0463 J-0.1118
G3 X1.6164 Y1.5214 I0.0857 J-0.0856
G3 X1.6071 Y1.475 I0.112 J-0.0464
G3 X1.6164 Y1.4287 I0.1212 J0
G3 X1.6426 Y1.3894 I0.1119 J0.0463
G3 X1.6819 Y1.3631 I0.0856 J0.0856
G3 X1.7282 Y1.3539 I0.0463 J0.1117
G3 X1.7745 Y1.3631 I0 J0.1209
G3 X1.8137 Y1.3894 I-0.0463 J0.1118
G3 X1.84 Y1.4287 I-0.0857 J0.0856
G0 Z0.5
G0 X1.84 Y1.4287
G1 Z-1.1 F4
G3 X1.8492 Y1.475 I-0.112 J0.0464 F8
G3 X1.84 Y1.5214 I-0.1212 J0
G3 X1.8137 Y1.5607 I-0.1119 J-0.0463
G3 X1.7745 Y1.5869 I-0.0856 J-0.0856
G3 X1.7282 Y1.5962 I-0.0463 J-0.1117
G3 X1.6819 Y1.5869 I0 J-0.1209
G3 X1.6426 Y1.5607 I0.0463 J-0.1118
G3 X1.6164 Y1.5214 I0.0857 J-0.0856
G3 X1.6071 Y1.475 I0.112 J-0.0464
G3 X1.6164 Y1.4287 I0.1212 J0
G3 X1.6426 Y1.3894 I0.1119 J0.0463
G3 X1.6819 Y1.3631 I0.0856 J0.0856
G3 X1.7282 Y1.3539 I0.0463 J0.1117
G3 X1.7745 Y1.3631 I0 J0.1209
G3 X1.8137 Y1.3894 I-0.0463 J0.1118
G3 X1.84 Y1.4287 I-0.0857 J0.0856
G0 Z0.5
G0 X1.84 Y1.4287
G1 Z-1.15 F4
G3 X1.8492 Y1.475 I-0.112 J0.0464 F8
G3 X1.84 Y1.5214 I-0.1212 J0
G3 X1.8137 Y1.5607 I-0.1119 J-0.0463
G3 X1.7745 Y1.5869 I-0.0856 J-0.0856
G3 X1.7282 Y1.5962 I-0.0463 J-0.1117
G3 X1.6819 Y1.5869 I0 J-0.1209
G3 X1.6426 Y1.5607 I0.0463 J-0.1118
G3 X1.6164 Y1.5214 I0.0857 J-0.0856
G3 X1.6071 Y1.475 I0.112 J-0.0464
G3 X1.6164 Y1.4287 I0.1212 J0
G3 X1.6426 Y1.3894 I0.1119 J0.0463
G3 X1.6819 Y1.3631 I0.0856 J0.0856
G3 X1.7282 Y1.3539 I0.0463 J0.1117
G3 X1.7745 Y1.3631 I0 J0.1209
G3 X1.8137 Y1.3894 I-0.0463 J0.1118
G3 X1.84 Y1.4287 I-0.0857 J0.0856
G0 Z0.5
G0 X1.84 Y1.4287
G1 Z-1.2 F4
G3 X1.8492 Y1.475 I-0.112 J0.0464 F8
G3 X1.84 Y1.5214 I-0.1212 J0
G3 X1.8137 Y1.5607 I-0.1119 J-0.0463
G3 X1.7745 Y1.5869 I-0.0856 J-0.0856
G3 X1.7282 Y1.5962 I-0.0463 J-0.1117
G3 X1.6819 Y1.5869 I0 J-0.1209
G3 X1.6426 Y1.5607 I0.0463 J-0.1118
G3 X1.6164 Y1.5214 I0.0857 J-0.0856
G3 X1.6071 Y1.475 I0.112 J-0.0464
G3 X1.6164 Y1.4287 I0.1212 J0
G3 X1.6426 Y1.3894 I0.1119 J0.0463
G3 X1.6819 Y1.3631 I0.0856 J0.0856
G3 X1.7282 Y1.3539 I0.0463 J0.1117
G3 X1.7745 Y1.3631 I0 J0.1209
G3 X1.8137 Y1.3894 I-0.0463 J0.1118
G3 X1.84 Y1.4287 I-0.0857 J0.0856
G0 Z0.5
G0 X1.84 Y1.4287
G1 Z-1.25 F4
G3 X1.8492 Y1.475 I-0.112 J0.0464 F8
G3 X1.84 Y1.5214 I-0.1212 J0
G3 X1.8137 Y1.5607 I-0.1119 J-0.0463
G3 X1.7745 Y1.5869 I-0.0856 J-0.0856
G3 X1.7282 Y1.5962 I-0.0463 J-0.1117
G3 X1.6819 Y1.5869 I0 J-0.1209
G3 X1.6426 Y1.5607 I0.0463 J-0.1118
G3 X1.6164 Y1.5214 I0.0857 J-0.0856
G3 X1.6071 Y1.475 I0.112 J-0.0464
G3 X1.6164 Y1.4287 I0.1212 J0
G3 X1.6426 Y1.3894 I0.1119 J0.0463
G3 X1.6819 Y1.3631 I0.0856 J0.0856
G3 X1.7282 Y1.3539 I0.0463 J0.1117
G3 X1.7745 Y1.3631 I0 J0.1209
G3 X1.8137 Y1.3894 I-0.0463 J0.1118
G3 X1.84 Y1.4287 I-0.0857 J0.0856
G0 Z0.5
G0 X1.84 Y1.4287
G1 Z-1.3 F4
G3 X1.8492 Y1.475 I-0.112 J0.0464 F8
G3 X1.84 Y1.5214 I-0.1212 J0
G3 X1.8137 Y1.5607 I-0.1119 J-0.0463
G3 X1.7745 Y1.5869 I-0.0856 J-0.0856
G3 X1.7282 Y1.5962 I-0.0463 J-0.1117
G3 X1.6819 Y1.5869 I0 J-0.1209
G3 X1.6426 Y1.5607 I0.0463 J-0.1118
G3 X1.6164 Y1.5214 I0.0857 J-0.0856
G3 X1.6071 Y1.475 I0.112 J-0.0464
G3 X1.6164 Y1.4287 I0.1212 J0
G3 X1.6426 Y1.3894 I0.1119 J0.0463
G3 X1.6819 Y1.3631 I0.0856 J0.0856
G3 X1.7282 Y1.3539 I0.0463 J0.1117
G3 X1.7745 Y1.3631 I0 J0.1209
G3 X1.8137 Y1.3894 I-0.0463 J0.1118
G3 X1.84 Y1.4287 I-0.0857 J0.0856
G0 Z0.5
G0 X1.84 Y1.4287
G1 Z-1.35 F4
G3 X1.8492 Y1.475 I-0.112 J0.0464 F8
G3 X1.84 Y1.5214 I-0.1212 J0
G3 X1.8137 Y1.5607 I-0.1119 J-0.0463
G3 X1.7745 Y1.5869 I-0.0856 J-0.0856
G3 X1.7282 Y1.5962 I-0.0463 J-0.1117
G3 X1.6819 Y1.5869 I0 J-0.1209
G3 X1.6426 Y1.5607 I0.0463 J-0.1118
G3 X1.6164 Y1.5214 I0.0857 J-0.0856
G3 X1.6071 Y1.475 I0.112 J-0.0464
G3 X1.6164 Y1.4287 I0.1212 J0
G3 X1.6426 Y1.3894 I0.1119 J0.0463
G3 X1.6819 Y1.3631 I0.0856 J0.0856
G3 X1.7282 Y1.3539 I0.0463 J0.1117
G3 X1.7745 Y1.3631 I0 J0.1209
G3 X1.8137 Y1.3894 I-0.0463 J0.1118
G3 X1.84 Y1.4287 I-0.0857 J0.0856
G0 Z0.5
G0 X1.84 Y1.4287
G1 Z-1.4 F4
G3 X1.8492 Y1.475 I-0.112 J0.0464 F8
G3 X1.84 Y1.5214 I-0.1212 J0
G3 X1.8137 Y1.5607 I-0.1119 J-0.0463
G3 X1.7745 Y1.5869 I-0.0856 J-0.0856
G3 X1.7282 Y1.5962 I-0.0463 J-0.1117
G3 X1.6819 Y1.5869 I0 J-0.1209
G3 X1.6426 Y1.5607 I0.0463 J-0.1118
G3 X1.6164 Y1.5214 I0.0857 J-0.0856
G3 X1.6071 Y1.475 I0.112 J-0.0464
G3 X1.6164 Y1.4287 I0.1212 J0
G3 X1.6426 Y1.3894 I0.1119 J0.0463
G3 X1.6819 Y1.3631 I0.0856 J0.0856
G3 X1.7282 Y1.3539 I0.0463 J0.1117
G3 X1.7745 Y1.3631 I0 J0.1209
G3 X1.8137 Y1.3894 I-0.0463 J0.1118
G3 X1.84 Y1.4287 I-0.0857 J0.0856
G0 Z0.5
M5
M30
