(Generated by PartKam Version 0.05)

G20 G90 G40

(motor_pocket)
G0 Z0.25
T0 M6
G17
M3
G0 X2.8708 Y2.6338
G1 Z-0.05 F4
G3 X2.872 Y2.6275 I0.0163 J0 F8
G3 X2.8755 Y2.6223 I0.015 J0.0062
G3 X2.8808 Y2.6188 I0.0114 J0.0114
G3 X2.8869 Y2.6175 I0.0062 J0.0149
G3 X2.8931 Y2.6188 I0 J0.0161
G3 X2.8983 Y2.6223 I-0.0062 J0.0149
G3 X2.9018 Y2.6275 I-0.0115 J0.0115
G3 X2.9031 Y2.6338 I-0.0151 J0.0062
G3 X2.9018 Y2.64 I-0.0163 J0
G3 X2.8983 Y2.6453 I-0.015 J-0.0062
G3 X2.8931 Y2.6488 I-0.0114 J-0.0114
G3 X2.8869 Y2.65 I-0.0062 J-0.0149
G3 X2.8808 Y2.6488 I0 J-0.0161
G3 X2.8755 Y2.6453 I0.0062 J-0.0149
G3 X2.872 Y2.64 I0.0115 J-0.0115
G3 X2.8708 Y2.6338 I0.0151 J-0.0062
G1 X2.7708 Y2.6338 F8
G3 X2.7796 Y2.5893 I0.1163 J0 F8
G3 X2.8048 Y2.5516 I0.1074 J0.0445
G3 X2.8425 Y2.5264 I0.0822 J0.0821
G3 X2.8869 Y2.5175 I0.0444 J0.1073
G3 X2.9314 Y2.5264 I0 J0.1161
G3 X2.969 Y2.5516 I-0.0445 J0.1073
G3 X2.9942 Y2.5893 I-0.0822 J0.0822
G3 X3.0031 Y2.6338 I-0.1074 J0.0445
G3 X2.9942 Y2.6783 I-0.1163 J0
G3 X2.969 Y2.716 I-0.1074 J-0.0445
G3 X2.9314 Y2.7412 I-0.0822 J-0.0821
G3 X2.8869 Y2.75 I-0.0444 J-0.1073
G3 X2.8425 Y2.7412 I0 J-0.1161
G3 X2.8048 Y2.716 I0.0445 J-0.1073
G3 X2.7796 Y2.6783 I0.0822 J-0.0822
G3 X2.7708 Y2.6338 I0.1074 J-0.0445
G0 Z0.25
G0 X0.5843 Y2.6275
G1 Z-0.05 F4
G3 X0.5856 Y2.6338 I-0.0151 J0.0062 F8
G3 X0.5843 Y2.64 I-0.0163 J0
G3 X0.5808 Y2.6453 I-0.015 J-0.0062
G3 X0.5756 Y2.6488 I-0.0114 J-0.0114
G3 X0.5694 Y2.65 I-0.0062 J-0.0149
G3 X0.5633 Y2.6488 I0 J-0.0161
G3 X0.558 Y2.6453 I0.0062 J-0.0149
G3 X0.5545 Y2.64 I0.0115 J-0.0115
G3 X0.5533 Y2.6338 I0.0151 J-0.0062
G3 X0.5545 Y2.6275 I0.0163 J0
G3 X0.558 Y2.6223 I0.015 J0.0062
G3 X0.5633 Y2.6188 I0.0114 J0.0114
G3 X0.5694 Y2.6175 I0.0062 J0.0149
G3 X0.5756 Y2.6188 I0 J0.0161
G3 X0.5808 Y2.6223 I-0.0062 J0.0149
G3 X0.5843 Y2.6275 I-0.0115 J0.0115
G1 X0.6767 Y2.5893 F8
G3 X0.6856 Y2.6338 I-0.1074 J0.0445 F8
G3 X0.6767 Y2.6783 I-0.1163 J0
G3 X0.6516 Y2.716 I-0.1074 J-0.0445
G3 X0.6139 Y2.7412 I-0.0822 J-0.0821
G3 X0.5694 Y2.75 I-0.0444 J-0.1073
G3 X0.525 Y2.7412 I0 J-0.1161
G3 X0.4873 Y2.716 I0.0445 J-0.1073
G3 X0.4621 Y2.6783 I0.0822 J-0.0822
G3 X0.4533 Y2.6338 I0.1074 J-0.0445
G3 X0.4621 Y2.5893 I0.1163 J0
G3 X0.4873 Y2.5516 I0.1074 J0.0445
G3 X0.525 Y2.5264 I0.0822 J0.0821
G3 X0.5694 Y2.5175 I0.0444 J0.1073
G3 X0.6139 Y2.5264 I0 J0.1161
G3 X0.6515 Y2.5516 I-0.0445 J0.1073
G3 X0.6767 Y2.5893 I-0.0822 J0.0822
G0 Z0.25
G0 X2.8708 Y2.6338
G1 Z-0.1 F4
G3 X2.872 Y2.6275 I0.0163 J0 F8
G3 X2.8755 Y2.6223 I0.015 J0.0062
G3 X2.8808 Y2.6188 I0.0114 J0.0114
G3 X2.8869 Y2.6175 I0.0062 J0.0149
G3 X2.8931 Y2.6188 I0 J0.0161
G3 X2.8983 Y2.6223 I-0.0062 J0.0149
G3 X2.9018 Y2.6275 I-0.0115 J0.0115
G3 X2.9031 Y2.6338 I-0.0151 J0.0062
G3 X2.9018 Y2.64 I-0.0163 J0
G3 X2.8983 Y2.6453 I-0.015 J-0.0062
G3 X2.8931 Y2.6488 I-0.0114 J-0.0114
G3 X2.8869 Y2.65 I-0.0062 J-0.0149
G3 X2.8808 Y2.6488 I0 J-0.0161
G3 X2.8755 Y2.6453 I0.0062 J-0.0149
G3 X2.872 Y2.64 I0.0115 J-0.0115
G3 X2.8708 Y2.6338 I0.0151 J-0.0062
G1 X2.7708 Y2.6338 F8
G3 X2.7796 Y2.5893 I0.1163 J0 F8
G3 X2.8048 Y2.5516 I0.1074 J0.0445
G3 X2.8425 Y2.5264 I0.0822 J0.0821
G3 X2.8869 Y2.5175 I0.0444 J0.1073
G3 X2.9314 Y2.5264 I0 J0.1161
G3 X2.969 Y2.5516 I-0.0445 J0.1073
G3 X2.9942 Y2.5893 I-0.0822 J0.0822
G3 X3.0031 Y2.6338 I-0.1074 J0.0445
G3 X2.9942 Y2.6783 I-0.1163 J0
G3 X2.969 Y2.716 I-0.1074 J-0.0445
G3 X2.9314 Y2.7412 I-0.0822 J-0.0821
G3 X2.8869 Y2.75 I-0.0444 J-0.1073
G3 X2.8425 Y2.7412 I0 J-0.1161
G3 X2.8048 Y2.716 I0.0445 J-0.1073
G3 X2.7796 Y2.6783 I0.0822 J-0.0822
G3 X2.7708 Y2.6338 I0.1074 J-0.0445
G0 Z0.25
G0 X0.5843 Y2.6275
G1 Z-0.1 F4
G3 X0.5856 Y2.6338 I-0.0151 J0.0062 F8
G3 X0.5843 Y2.64 I-0.0163 J0
G3 X0.5808 Y2.6453 I-0.015 J-0.0062
G3 X0.5756 Y2.6488 I-0.0114 J-0.0114
G3 X0.5694 Y2.65 I-0.0062 J-0.0149
G3 X0.5633 Y2.6488 I0 J-0.0161
G3 X0.558 Y2.6453 I0.0062 J-0.0149
G3 X0.5545 Y2.64 I0.0115 J-0.0115
G3 X0.5533 Y2.6338 I0.0151 J-0.0062
G3 X0.5545 Y2.6275 I0.0163 J0
G3 X0.558 Y2.6223 I0.015 J0.0062
G3 X0.5633 Y2.6188 I0.0114 J0.0114
G3 X0.5694 Y2.6175 I0.0062 J0.0149
G3 X0.5756 Y2.6188 I0 J0.0161
G3 X0.5808 Y2.6223 I-0.0062 J0.0149
G3 X0.5843 Y2.6275 I-0.0115 J0.0115
G1 X0.6767 Y2.5893 F8
G3 X0.6856 Y2.6338 I-0.1074 J0.0445 F8
G3 X0.6767 Y2.6783 I-0.1163 J0
G3 X0.6516 Y2.716 I-0.1074 J-0.0445
G3 X0.6139 Y2.7412 I-0.0822 J-0.0821
G3 X0.5694 Y2.75 I-0.0444 J-0.1073
G3 X0.525 Y2.7412 I0 J-0.1161
G3 X0.4873 Y2.716 I0.0445 J-0.1073
G3 X0.4621 Y2.6783 I0.0822 J-0.0822
G3 X0.4533 Y2.6338 I0.1074 J-0.0445
G3 X0.4621 Y2.5893 I0.1163 J0
G3 X0.4873 Y2.5516 I0.1074 J0.0445
G3 X0.525 Y2.5264 I0.0822 J0.0821
G3 X0.5694 Y2.5175 I0.0444 J0.1073
G3 X0.6139 Y2.5264 I0 J0.1161
G3 X0.6515 Y2.5516 I-0.0445 J0.1073
G3 X0.6767 Y2.5893 I-0.0822 J0.0822
G0 Z0.25
G0 X2.8708 Y2.6338
G1 Z-0.15 F4
G3 X2.872 Y2.6275 I0.0163 J0 F8
G3 X2.8755 Y2.6223 I0.015 J0.0062
G3 X2.8808 Y2.6188 I0.0114 J0.0114
G3 X2.8869 Y2.6175 I0.0062 J0.0149
G3 X2.8931 Y2.6188 I0 J0.0161
G3 X2.8983 Y2.6223 I-0.0062 J0.0149
G3 X2.9018 Y2.6275 I-0.0115 J0.0115
G3 X2.9031 Y2.6338 I-0.0151 J0.0062
G3 X2.9018 Y2.64 I-0.0163 J0
G3 X2.8983 Y2.6453 I-0.015 J-0.0062
G3 X2.8931 Y2.6488 I-0.0114 J-0.0114
G3 X2.8869 Y2.65 I-0.0062 J-0.0149
G3 X2.8808 Y2.6488 I0 J-0.0161
G3 X2.8755 Y2.6453 I0.0062 J-0.0149
G3 X2.872 Y2.64 I0.0115 J-0.0115
G3 X2.8708 Y2.6338 I0.0151 J-0.0062
G1 X2.7708 Y2.6338 F8
G3 X2.7796 Y2.5893 I0.1163 J0 F8
G3 X2.8048 Y2.5516 I0.1074 J0.0445
G3 X2.8425 Y2.5264 I0.0822 J0.0821
G3 X2.8869 Y2.5175 I0.0444 J0.1073
G3 X2.9314 Y2.5264 I0 J0.1161
G3 X2.969 Y2.5516 I-0.0445 J0.1073
G3 X2.9942 Y2.5893 I-0.0822 J0.0822
G3 X3.0031 Y2.6338 I-0.1074 J0.0445
G3 X2.9942 Y2.6783 I-0.1163 J0
G3 X2.969 Y2.716 I-0.1074 J-0.0445
G3 X2.9314 Y2.7412 I-0.0822 J-0.0821
G3 X2.8869 Y2.75 I-0.0444 J-0.1073
G3 X2.8425 Y2.7412 I0 J-0.1161
G3 X2.8048 Y2.716 I0.0445 J-0.1073
G3 X2.7796 Y2.6783 I0.0822 J-0.0822
G3 X2.7708 Y2.6338 I0.1074 J-0.0445
G0 Z0.25
G0 X0.5843 Y2.6275
G1 Z-0.15 F4
G3 X0.5856 Y2.6338 I-0.0151 J0.0062 F8
G3 X0.5843 Y2.64 I-0.0163 J0
G3 X0.5808 Y2.6453 I-0.015 J-0.0062
G3 X0.5756 Y2.6488 I-0.0114 J-0.0114
G3 X0.5694 Y2.65 I-0.0062 J-0.0149
G3 X0.5633 Y2.6488 I0 J-0.0161
G3 X0.558 Y2.6453 I0.0062 J-0.0149
G3 X0.5545 Y2.64 I0.0115 J-0.0115
G3 X0.5533 Y2.6338 I0.0151 J-0.0062
G3 X0.5545 Y2.6275 I0.0163 J0
G3 X0.558 Y2.6223 I0.015 J0.0062
G3 X0.5633 Y2.6188 I0.0114 J0.0114
G3 X0.5694 Y2.6175 I0.0062 J0.0149
G3 X0.5756 Y2.6188 I0 J0.0161
G3 X0.5808 Y2.6223 I-0.0062 J0.0149
G3 X0.5843 Y2.6275 I-0.0115 J0.0115
G1 X0.6767 Y2.5893 F8
G3 X0.6856 Y2.6338 I-0.1074 J0.0445 F8
G3 X0.6767 Y2.6783 I-0.1163 J0
G3 X0.6516 Y2.716 I-0.1074 J-0.0445
G3 X0.6139 Y2.7412 I-0.0822 J-0.0821
G3 X0.5694 Y2.75 I-0.0444 J-0.1073
G3 X0.525 Y2.7412 I0 J-0.1161
G3 X0.4873 Y2.716 I0.0445 J-0.1073
G3 X0.4621 Y2.6783 I0.0822 J-0.0822
G3 X0.4533 Y2.6338 I0.1074 J-0.0445
G3 X0.4621 Y2.5893 I0.1163 J0
G3 X0.4873 Y2.5516 I0.1074 J0.0445
G3 X0.525 Y2.5264 I0.0822 J0.0821
G3 X0.5694 Y2.5175 I0.0444 J0.1073
G3 X0.6139 Y2.5264 I0 J0.1161
G3 X0.6515 Y2.5516 I-0.0445 J0.1073
G3 X0.6767 Y2.5893 I-0.0822 J0.0822
G0 Z0.25
G0 X2.8708 Y2.6338
G1 Z-0.2 F4
G3 X2.872 Y2.6275 I0.0163 J0 F8
G3 X2.8755 Y2.6223 I0.015 J0.0062
G3 X2.8808 Y2.6188 I0.0114 J0.0114
G3 X2.8869 Y2.6175 I0.0062 J0.0149
G3 X2.8931 Y2.6188 I0 J0.0161
G3 X2.8983 Y2.6223 I-0.0062 J0.0149
G3 X2.9018 Y2.6275 I-0.0115 J0.0115
G3 X2.9031 Y2.6338 I-0.0151 J0.0062
G3 X2.9018 Y2.64 I-0.0163 J0
G3 X2.8983 Y2.6453 I-0.015 J-0.0062
G3 X2.8931 Y2.6488 I-0.0114 J-0.0114
G3 X2.8869 Y2.65 I-0.0062 J-0.0149
G3 X2.8808 Y2.6488 I0 J-0.0161
G3 X2.8755 Y2.6453 I0.0062 J-0.0149
G3 X2.872 Y2.64 I0.0115 J-0.0115
G3 X2.8708 Y2.6338 I0.0151 J-0.0062
G1 X2.7708 Y2.6338 F8
G3 X2.7796 Y2.5893 I0.1163 J0 F8
G3 X2.8048 Y2.5516 I0.1074 J0.0445
G3 X2.8425 Y2.5264 I0.0822 J0.0821
G3 X2.8869 Y2.5175 I0.0444 J0.1073
G3 X2.9314 Y2.5264 I0 J0.1161
G3 X2.969 Y2.5516 I-0.0445 J0.1073
G3 X2.9942 Y2.5893 I-0.0822 J0.0822
G3 X3.0031 Y2.6338 I-0.1074 J0.0445
G3 X2.9942 Y2.6783 I-0.1163 J0
G3 X2.969 Y2.716 I-0.1074 J-0.0445
G3 X2.9314 Y2.7412 I-0.0822 J-0.0821
G3 X2.8869 Y2.75 I-0.0444 J-0.1073
G3 X2.8425 Y2.7412 I0 J-0.1161
G3 X2.8048 Y2.716 I0.0445 J-0.1073
G3 X2.7796 Y2.6783 I0.0822 J-0.0822
G3 X2.7708 Y2.6338 I0.1074 J-0.0445
G0 Z0.25
G0 X0.5843 Y2.6275
G1 Z-0.2 F4
G3 X0.5856 Y2.6338 I-0.0151 J0.0062 F8
G3 X0.5843 Y2.64 I-0.0163 J0
G3 X0.5808 Y2.6453 I-0.015 J-0.0062
G3 X0.5756 Y2.6488 I-0.0114 J-0.0114
G3 X0.5694 Y2.65 I-0.0062 J-0.0149
G3 X0.5633 Y2.6488 I0 J-0.0161
G3 X0.558 Y2.6453 I0.0062 J-0.0149
G3 X0.5545 Y2.64 I0.0115 J-0.0115
G3 X0.5533 Y2.6338 I0.0151 J-0.0062
G3 X0.5545 Y2.6275 I0.0163 J0
G3 X0.558 Y2.6223 I0.015 J0.0062
G3 X0.5633 Y2.6188 I0.0114 J0.0114
G3 X0.5694 Y2.6175 I0.0062 J0.0149
G3 X0.5756 Y2.6188 I0 J0.0161
G3 X0.5808 Y2.6223 I-0.0062 J0.0149
G3 X0.5843 Y2.6275 I-0.0115 J0.0115
G1 X0.6767 Y2.5893 F8
G3 X0.6856 Y2.6338 I-0.1074 J0.0445 F8
G3 X0.6767 Y2.6783 I-0.1163 J0
G3 X0.6516 Y2.716 I-0.1074 J-0.0445
G3 X0.6139 Y2.7412 I-0.0822 J-0.0821
G3 X0.5694 Y2.75 I-0.0444 J-0.1073
G3 X0.525 Y2.7412 I0 J-0.1161
G3 X0.4873 Y2.716 I0.0445 J-0.1073
G3 X0.4621 Y2.6783 I0.0822 J-0.0822
G3 X0.4533 Y2.6338 I0.1074 J-0.0445
G3 X0.4621 Y2.5893 I0.1163 J0
G3 X0.4873 Y2.5516 I0.1074 J0.0445
G3 X0.525 Y2.5264 I0.0822 J0.0821
G3 X0.5694 Y2.5175 I0.0444 J0.1073
G3 X0.6139 Y2.5264 I0 J0.1161
G3 X0.6515 Y2.5516 I-0.0445 J0.1073
G3 X0.6767 Y2.5893 I-0.0822 J0.0822
G0 Z0.25
G0 X2.8708 Y2.6338
G1 Z-0.25 F4
G3 X2.872 Y2.6275 I0.0163 J0 F8
G3 X2.8755 Y2.6223 I0.015 J0.0062
G3 X2.8808 Y2.6188 I0.0114 J0.0114
G3 X2.8869 Y2.6175 I0.0062 J0.0149
G3 X2.8931 Y2.6188 I0 J0.0161
G3 X2.8983 Y2.6223 I-0.0062 J0.0149
G3 X2.9018 Y2.6275 I-0.0115 J0.0115
G3 X2.9031 Y2.6338 I-0.0151 J0.0062
G3 X2.9018 Y2.64 I-0.0163 J0
G3 X2.8983 Y2.6453 I-0.015 J-0.0062
G3 X2.8931 Y2.6488 I-0.0114 J-0.0114
G3 X2.8869 Y2.65 I-0.0062 J-0.0149
G3 X2.8808 Y2.6488 I0 J-0.0161
G3 X2.8755 Y2.6453 I0.0062 J-0.0149
G3 X2.872 Y2.64 I0.0115 J-0.0115
G3 X2.8708 Y2.6338 I0.0151 J-0.0062
G1 X2.7708 Y2.6338 F8
G3 X2.7796 Y2.5893 I0.1163 J0 F8
G3 X2.8048 Y2.5516 I0.1074 J0.0445
G3 X2.8425 Y2.5264 I0.0822 J0.0821
G3 X2.8869 Y2.5175 I0.0444 J0.1073
G3 X2.9314 Y2.5264 I0 J0.1161
G3 X2.969 Y2.5516 I-0.0445 J0.1073
G3 X2.9942 Y2.5893 I-0.0822 J0.0822
G3 X3.0031 Y2.6338 I-0.1074 J0.0445
G3 X2.9942 Y2.6783 I-0.1163 J0
G3 X2.969 Y2.716 I-0.1074 J-0.0445
G3 X2.9314 Y2.7412 I-0.0822 J-0.0821
G3 X2.8869 Y2.75 I-0.0444 J-0.1073
G3 X2.8425 Y2.7412 I0 J-0.1161
G3 X2.8048 Y2.716 I0.0445 J-0.1073
G3 X2.7796 Y2.6783 I0.0822 J-0.0822
G3 X2.7708 Y2.6338 I0.1074 J-0.0445
G0 Z0.25
G0 X0.5843 Y2.6275
G1 Z-0.25 F4
G3 X0.5856 Y2.6338 I-0.0151 J0.0062 F8
G3 X0.5843 Y2.64 I-0.0163 J0
G3 X0.5808 Y2.6453 I-0.015 J-0.0062
G3 X0.5756 Y2.6488 I-0.0114 J-0.0114
G3 X0.5694 Y2.65 I-0.0062 J-0.0149
G3 X0.5633 Y2.6488 I0 J-0.0161
G3 X0.558 Y2.6453 I0.0062 J-0.0149
G3 X0.5545 Y2.64 I0.0115 J-0.0115
G3 X0.5533 Y2.6338 I0.0151 J-0.0062
G3 X0.5545 Y2.6275 I0.0163 J0
G3 X0.558 Y2.6223 I0.015 J0.0062
G3 X0.5633 Y2.6188 I0.0114 J0.0114
G3 X0.5694 Y2.6175 I0.0062 J0.0149
G3 X0.5756 Y2.6188 I0 J0.0161
G3 X0.5808 Y2.6223 I-0.0062 J0.0149
G3 X0.5843 Y2.6275 I-0.0115 J0.0115
G1 X0.6767 Y2.5893 F8
G3 X0.6856 Y2.6338 I-0.1074 J0.0445 F8
G3 X0.6767 Y2.6783 I-0.1163 J0
G3 X0.6516 Y2.716 I-0.1074 J-0.0445
G3 X0.6139 Y2.7412 I-0.0822 J-0.0821
G3 X0.5694 Y2.75 I-0.0444 J-0.1073
G3 X0.525 Y2.7412 I0 J-0.1161
G3 X0.4873 Y2.716 I0.0445 J-0.1073
G3 X0.4621 Y2.6783 I0.0822 J-0.0822
G3 X0.4533 Y2.6338 I0.1074 J-0.0445
G3 X0.4621 Y2.5893 I0.1163 J0
G3 X0.4873 Y2.5516 I0.1074 J0.0445
G3 X0.525 Y2.5264 I0.0822 J0.0821
G3 X0.5694 Y2.5175 I0.0444 J0.1073
G3 X0.6139 Y2.5264 I0 J0.1161
G3 X0.6515 Y2.5516 I-0.0445 J0.1073
G3 X0.6767 Y2.5893 I-0.0822 J0.0822
G0 Z0.25
G0 X2.8708 Y2.6338
G1 Z-0.3 F4
G3 X2.872 Y2.6275 I0.0163 J0 F8
G3 X2.8755 Y2.6223 I0.015 J0.0062
G3 X2.8808 Y2.6188 I0.0114 J0.0114
G3 X2.8869 Y2.6175 I0.0062 J0.0149
G3 X2.8931 Y2.6188 I0 J0.0161
G3 X2.8983 Y2.6223 I-0.0062 J0.0149
G3 X2.9018 Y2.6275 I-0.0115 J0.0115
G3 X2.9031 Y2.6338 I-0.0151 J0.0062
G3 X2.9018 Y2.64 I-0.0163 J0
G3 X2.8983 Y2.6453 I-0.015 J-0.0062
G3 X2.8931 Y2.6488 I-0.0114 J-0.0114
G3 X2.8869 Y2.65 I-0.0062 J-0.0149
G3 X2.8808 Y2.6488 I0 J-0.0161
G3 X2.8755 Y2.6453 I0.0062 J-0.0149
G3 X2.872 Y2.64 I0.0115 J-0.0115
G3 X2.8708 Y2.6338 I0.0151 J-0.0062
G1 X2.7708 Y2.6338 F8
G3 X2.7796 Y2.5893 I0.1163 J0 F8
G3 X2.8048 Y2.5516 I0.1074 J0.0445
G3 X2.8425 Y2.5264 I0.0822 J0.0821
G3 X2.8869 Y2.5175 I0.0444 J0.1073
G3 X2.9314 Y2.5264 I0 J0.1161
G3 X2.969 Y2.5516 I-0.0445 J0.1073
G3 X2.9942 Y2.5893 I-0.0822 J0.0822
G3 X3.0031 Y2.6338 I-0.1074 J0.0445
G3 X2.9942 Y2.6783 I-0.1163 J0
G3 X2.969 Y2.716 I-0.1074 J-0.0445
G3 X2.9314 Y2.7412 I-0.0822 J-0.0821
G3 X2.8869 Y2.75 I-0.0444 J-0.1073
G3 X2.8425 Y2.7412 I0 J-0.1161
G3 X2.8048 Y2.716 I0.0445 J-0.1073
G3 X2.7796 Y2.6783 I0.0822 J-0.0822
G3 X2.7708 Y2.6338 I0.1074 J-0.0445
G0 Z0.25
G0 X0.5843 Y2.6275
G1 Z-0.3 F4
G3 X0.5856 Y2.6338 I-0.0151 J0.0062 F8
G3 X0.5843 Y2.64 I-0.0163 J0
G3 X0.5808 Y2.6453 I-0.015 J-0.0062
G3 X0.5756 Y2.6488 I-0.0114 J-0.0114
G3 X0.5694 Y2.65 I-0.0062 J-0.0149
G3 X0.5633 Y2.6488 I0 J-0.0161
G3 X0.558 Y2.6453 I0.0062 J-0.0149
G3 X0.5545 Y2.64 I0.0115 J-0.0115
G3 X0.5533 Y2.6338 I0.0151 J-0.0062
G3 X0.5545 Y2.6275 I0.0163 J0
G3 X0.558 Y2.6223 I0.015 J0.0062
G3 X0.5633 Y2.6188 I0.0114 J0.0114
G3 X0.5694 Y2.6175 I0.0062 J0.0149
G3 X0.5756 Y2.6188 I0 J0.0161
G3 X0.5808 Y2.6223 I-0.0062 J0.0149
G3 X0.5843 Y2.6275 I-0.0115 J0.0115
G1 X0.6767 Y2.5893 F8
G3 X0.6856 Y2.6338 I-0.1074 J0.0445 F8
G3 X0.6767 Y2.6783 I-0.1163 J0
G3 X0.6516 Y2.716 I-0.1074 J-0.0445
G3 X0.6139 Y2.7412 I-0.0822 J-0.0821
G3 X0.5694 Y2.75 I-0.0444 J-0.1073
G3 X0.525 Y2.7412 I0 J-0.1161
G3 X0.4873 Y2.716 I0.0445 J-0.1073
G3 X0.4621 Y2.6783 I0.0822 J-0.0822
G3 X0.4533 Y2.6338 I0.1074 J-0.0445
G3 X0.4621 Y2.5893 I0.1163 J0
G3 X0.4873 Y2.5516 I0.1074 J0.0445
G3 X0.525 Y2.5264 I0.0822 J0.0821
G3 X0.5694 Y2.5175 I0.0444 J0.1073
G3 X0.6139 Y2.5264 I0 J0.1161
G3 X0.6515 Y2.5516 I-0.0445 J0.1073
G3 X0.6767 Y2.5893 I-0.0822 J0.0822
G0 Z0.25
G0 X2.8708 Y2.6338
G1 Z-0.35 F4
G3 X2.872 Y2.6275 I0.0163 J0 F8
G3 X2.8755 Y2.6223 I0.015 J0.0062
G3 X2.8808 Y2.6188 I0.0114 J0.0114
G3 X2.8869 Y2.6175 I0.0062 J0.0149
G3 X2.8931 Y2.6188 I0 J0.0161
G3 X2.8983 Y2.6223 I-0.0062 J0.0149
G3 X2.9018 Y2.6275 I-0.0115 J0.0115
G3 X2.9031 Y2.6338 I-0.0151 J0.0062
G3 X2.9018 Y2.64 I-0.0163 J0
G3 X2.8983 Y2.6453 I-0.015 J-0.0062
G3 X2.8931 Y2.6488 I-0.0114 J-0.0114
G3 X2.8869 Y2.65 I-0.0062 J-0.0149
G3 X2.8808 Y2.6488 I0 J-0.0161
G3 X2.8755 Y2.6453 I0.0062 J-0.0149
G3 X2.872 Y2.64 I0.0115 J-0.0115
G3 X2.8708 Y2.6338 I0.0151 J-0.0062
G1 X2.7708 Y2.6338 F8
G3 X2.7796 Y2.5893 I0.1163 J0 F8
G3 X2.8048 Y2.5516 I0.1074 J0.0445
G3 X2.8425 Y2.5264 I0.0822 J0.0821
G3 X2.8869 Y2.5175 I0.0444 J0.1073
G3 X2.9314 Y2.5264 I0 J0.1161
G3 X2.969 Y2.5516 I-0.0445 J0.1073
G3 X2.9942 Y2.5893 I-0.0822 J0.0822
G3 X3.0031 Y2.6338 I-0.1074 J0.0445
G3 X2.9942 Y2.6783 I-0.1163 J0
G3 X2.969 Y2.716 I-0.1074 J-0.0445
G3 X2.9314 Y2.7412 I-0.0822 J-0.0821
G3 X2.8869 Y2.75 I-0.0444 J-0.1073
G3 X2.8425 Y2.7412 I0 J-0.1161
G3 X2.8048 Y2.716 I0.0445 J-0.1073
G3 X2.7796 Y2.6783 I0.0822 J-0.0822
G3 X2.7708 Y2.6338 I0.1074 J-0.0445
G0 Z0.25
G0 X0.5843 Y2.6275
G1 Z-0.35 F4
G3 X0.5856 Y2.6338 I-0.0151 J0.0062 F8
G3 X0.5843 Y2.64 I-0.0163 J0
G3 X0.5808 Y2.6453 I-0.015 J-0.0062
G3 X0.5756 Y2.6488 I-0.0114 J-0.0114
G3 X0.5694 Y2.65 I-0.0062 J-0.0149
G3 X0.5633 Y2.6488 I0 J-0.0161
G3 X0.558 Y2.6453 I0.0062 J-0.0149
G3 X0.5545 Y2.64 I0.0115 J-0.0115
G3 X0.5533 Y2.6338 I0.0151 J-0.0062
G3 X0.5545 Y2.6275 I0.0163 J0
G3 X0.558 Y2.6223 I0.015 J0.0062
G3 X0.5633 Y2.6188 I0.0114 J0.0114
G3 X0.5694 Y2.6175 I0.0062 J0.0149
G3 X0.5756 Y2.6188 I0 J0.0161
G3 X0.5808 Y2.6223 I-0.0062 J0.0149
G3 X0.5843 Y2.6275 I-0.0115 J0.0115
G1 X0.6767 Y2.5893 F8
G3 X0.6856 Y2.6338 I-0.1074 J0.0445 F8
G3 X0.6767 Y2.6783 I-0.1163 J0
G3 X0.6516 Y2.716 I-0.1074 J-0.0445
G3 X0.6139 Y2.7412 I-0.0822 J-0.0821
G3 X0.5694 Y2.75 I-0.0444 J-0.1073
G3 X0.525 Y2.7412 I0 J-0.1161
G3 X0.4873 Y2.716 I0.0445 J-0.1073
G3 X0.4621 Y2.6783 I0.0822 J-0.0822
G3 X0.4533 Y2.6338 I0.1074 J-0.0445
G3 X0.4621 Y2.5893 I0.1163 J0
G3 X0.4873 Y2.5516 I0.1074 J0.0445
G3 X0.525 Y2.5264 I0.0822 J0.0821
G3 X0.5694 Y2.5175 I0.0444 J0.1073
G3 X0.6139 Y2.5264 I0 J0.1161
G3 X0.6515 Y2.5516 I-0.0445 J0.1073
G3 X0.6767 Y2.5893 I-0.0822 J0.0822
G0 Z0.25
G0 X2.8708 Y2.6338
G1 Z-0.364 F4
G3 X2.872 Y2.6275 I0.0163 J0 F8
G3 X2.8755 Y2.6223 I0.015 J0.0062
G3 X2.8808 Y2.6188 I0.0114 J0.0114
G3 X2.8869 Y2.6175 I0.0062 J0.0149
G3 X2.8931 Y2.6188 I0 J0.0161
G3 X2.8983 Y2.6223 I-0.0062 J0.0149
G3 X2.9018 Y2.6275 I-0.0115 J0.0115
G3 X2.9031 Y2.6338 I-0.0151 J0.0062
G3 X2.9018 Y2.64 I-0.0163 J0
G3 X2.8983 Y2.6453 I-0.015 J-0.0062
G3 X2.8931 Y2.6488 I-0.0114 J-0.0114
G3 X2.8869 Y2.65 I-0.0062 J-0.0149
G3 X2.8808 Y2.6488 I0 J-0.0161
G3 X2.8755 Y2.6453 I0.0062 J-0.0149
G3 X2.872 Y2.64 I0.0115 J-0.0115
G3 X2.8708 Y2.6338 I0.0151 J-0.0062
G1 X2.7708 Y2.6338 F8
G3 X2.7796 Y2.5893 I0.1163 J0 F8
G3 X2.8048 Y2.5516 I0.1074 J0.0445
G3 X2.8425 Y2.5264 I0.0822 J0.0821
G3 X2.8869 Y2.5175 I0.0444 J0.1073
G3 X2.9314 Y2.5264 I0 J0.1161
G3 X2.969 Y2.5516 I-0.0445 J0.1073
G3 X2.9942 Y2.5893 I-0.0822 J0.0822
G3 X3.0031 Y2.6338 I-0.1074 J0.0445
G3 X2.9942 Y2.6783 I-0.1163 J0
G3 X2.969 Y2.716 I-0.1074 J-0.0445
G3 X2.9314 Y2.7412 I-0.0822 J-0.0821
G3 X2.8869 Y2.75 I-0.0444 J-0.1073
G3 X2.8425 Y2.7412 I0 J-0.1161
G3 X2.8048 Y2.716 I0.0445 J-0.1073
G3 X2.7796 Y2.6783 I0.0822 J-0.0822
G3 X2.7708 Y2.6338 I0.1074 J-0.0445
G0 Z0.25
G0 X0.5843 Y2.6275
G1 Z-0.364 F4
G3 X0.5856 Y2.6338 I-0.0151 J0.0062 F8
G3 X0.5843 Y2.64 I-0.0163 J0
G3 X0.5808 Y2.6453 I-0.015 J-0.0062
G3 X0.5756 Y2.6488 I-0.0114 J-0.0114
G3 X0.5694 Y2.65 I-0.0062 J-0.0149
G3 X0.5633 Y2.6488 I0 J-0.0161
G3 X0.558 Y2.6453 I0.0062 J-0.0149
G3 X0.5545 Y2.64 I0.0115 J-0.0115
G3 X0.5533 Y2.6338 I0.0151 J-0.0062
G3 X0.5545 Y2.6275 I0.0163 J0
G3 X0.558 Y2.6223 I0.015 J0.0062
G3 X0.5633 Y2.6188 I0.0114 J0.0114
G3 X0.5694 Y2.6175 I0.0062 J0.0149
G3 X0.5756 Y2.6188 I0 J0.0161
G3 X0.5808 Y2.6223 I-0.0062 J0.0149
G3 X0.5843 Y2.6275 I-0.0115 J0.0115
G1 X0.6767 Y2.5893 F8
G3 X0.6856 Y2.6338 I-0.1074 J0.0445 F8
G3 X0.6767 Y2.6783 I-0.1163 J0
G3 X0.6516 Y2.716 I-0.1074 J-0.0445
G3 X0.6139 Y2.7412 I-0.0822 J-0.0821
G3 X0.5694 Y2.75 I-0.0444 J-0.1073
G3 X0.525 Y2.7412 I0 J-0.1161
G3 X0.4873 Y2.716 I0.0445 J-0.1073
G3 X0.4621 Y2.6783 I0.0822 J-0.0822
G3 X0.4533 Y2.6338 I0.1074 J-0.0445
G3 X0.4621 Y2.5893 I0.1163 J0
G3 X0.4873 Y2.5516 I0.1074 J0.0445
G3 X0.525 Y2.5264 I0.0822 J0.0821
G3 X0.5694 Y2.5175 I0.0444 J0.1073
G3 X0.6139 Y2.5264 I0 J0.1161
G3 X0.6515 Y2.5516 I-0.0445 J0.1073
G3 X0.6767 Y2.5893 I-0.0822 J0.0822
G0 Z0.25
M5
M30
