(Generated by PartKam Version 0.05)

G20 G90 G40

(top_high_pockets)
G0 Z0.125
T0 M6
G17
M3
G0 X2.2583 Y2.107
G1 Z-0.1 F4
G3 X2.2622 Y2.0874 I0.0513 J0 F12
G3 X2.2733 Y2.0708 I0.0474 J0.0196
G3 X2.29 Y2.0597 I0.0362 J0.0362
G3 X2.3095 Y2.0558 I0.0196 J0.0473
G3 X2.3291 Y2.0597 I0 J0.0512
G3 X2.3457 Y2.0708 I-0.0196 J0.0473
G3 X2.3568 Y2.0874 I-0.0362 J0.0362
G3 X2.3607 Y2.107 I-0.0474 J0.0196
G3 X2.3568 Y2.1267 I-0.0513 J0
G3 X2.3457 Y2.1433 I-0.0474 J-0.0196
G3 X2.3291 Y2.1544 I-0.0362 J-0.0362
G3 X2.3095 Y2.1583 I-0.0196 J-0.0473
G3 X2.29 Y2.1544 I0 J-0.0512
G3 X2.2733 Y2.1433 I0.0196 J-0.0473
G3 X2.2622 Y2.1267 I0.0362 J-0.0362
G3 X2.2583 Y2.107 I0.0474 J-0.0196
G1 X2.1953 Y2.107 F12
G3 X2.204 Y2.0633 I0.1143 J0 F12
G3 X2.2288 Y2.0262 I0.1055 J0.0437
G3 X2.2658 Y2.0015 I0.0808 J0.0807
G3 X2.3095 Y1.9928 I0.0437 J0.1055
G3 X2.3532 Y2.0015 I0 J0.1141
G3 X2.3903 Y2.0262 I-0.0437 J0.1055
G3 X2.415 Y2.0633 I-0.0808 J0.0808
G3 X2.4237 Y2.107 I-0.1056 J0.0437
G3 X2.415 Y2.1508 I-0.1143 J0
G3 X2.3903 Y2.1878 I-0.1055 J-0.0437
G3 X2.3532 Y2.2126 I-0.0808 J-0.0807
G3 X2.3095 Y2.2213 I-0.0437 J-0.1055
G3 X2.2658 Y2.2126 I0 J-0.1141
G3 X2.2288 Y2.1878 I0.0437 J-0.1055
G3 X2.204 Y2.1508 I0.0808 J-0.0808
G3 X2.1953 Y2.107 I0.1056 J-0.0437
G0 Z0.125
G0 X0.5028 Y2.0874
G1 Z-0.1 F4
G3 X0.5067 Y2.107 I-0.0474 J0.0196 F12
G3 X0.5028 Y2.1267 I-0.0513 J0
G3 X0.4917 Y2.1433 I-0.0474 J-0.0196
G3 X0.4751 Y2.1544 I-0.0362 J-0.0362
G3 X0.4555 Y2.1583 I-0.0196 J-0.0473
G3 X0.436 Y2.1544 I0 J-0.0512
G3 X0.4193 Y2.1433 I0.0196 J-0.0473
G3 X0.4082 Y2.1267 I0.0362 J-0.0362
G3 X0.4043 Y2.107 I0.0474 J-0.0196
G3 X0.4082 Y2.0874 I0.0513 J0
G3 X0.4193 Y2.0708 I0.0474 J0.0196
G3 X0.436 Y2.0597 I0.0362 J0.0362
G3 X0.4555 Y2.0558 I0.0196 J0.0473
G3 X0.4751 Y2.0597 I0 J0.0512
G3 X0.4917 Y2.0708 I-0.0196 J0.0473
G3 X0.5028 Y2.0874 I-0.0362 J0.0362
G1 X0.561 Y2.0633 F12
G3 X0.5697 Y2.107 I-0.1056 J0.0437 F12
G3 X0.561 Y2.1508 I-0.1143 J0
G3 X0.5363 Y2.1878 I-0.1055 J-0.0437
G3 X0.4992 Y2.2126 I-0.0808 J-0.0807
G3 X0.4555 Y2.2213 I-0.0437 J-0.1055
G3 X0.4118 Y2.2126 I0 J-0.1141
G3 X0.3748 Y2.1878 I0.0437 J-0.1055
G3 X0.35 Y2.1508 I0.0808 J-0.0808
G3 X0.3413 Y2.107 I0.1056 J-0.0437
G3 X0.35 Y2.0633 I0.1143 J0
G3 X0.3748 Y2.0262 I0.1055 J0.0437
G3 X0.4118 Y2.0015 I0.0808 J0.0807
G3 X0.4555 Y1.9928 I0.0437 J0.1055
G3 X0.4992 Y2.0015 I0 J0.1141
G3 X0.5363 Y2.0262 I-0.0437 J0.1055
G3 X0.561 Y2.0633 I-0.0808 J0.0808
G0 Z0.125
G0 X2.2583 Y2.107
G1 Z-0.2 F4
G3 X2.2622 Y2.0874 I0.0513 J0 F12
G3 X2.2733 Y2.0708 I0.0474 J0.0196
G3 X2.29 Y2.0597 I0.0362 J0.0362
G3 X2.3095 Y2.0558 I0.0196 J0.0473
G3 X2.3291 Y2.0597 I0 J0.0512
G3 X2.3457 Y2.0708 I-0.0196 J0.0473
G3 X2.3568 Y2.0874 I-0.0362 J0.0362
G3 X2.3607 Y2.107 I-0.0474 J0.0196
G3 X2.3568 Y2.1267 I-0.0513 J0
G3 X2.3457 Y2.1433 I-0.0474 J-0.0196
G3 X2.3291 Y2.1544 I-0.0362 J-0.0362
G3 X2.3095 Y2.1583 I-0.0196 J-0.0473
G3 X2.29 Y2.1544 I0 J-0.0512
G3 X2.2733 Y2.1433 I0.0196 J-0.0473
G3 X2.2622 Y2.1267 I0.0362 J-0.0362
G3 X2.2583 Y2.107 I0.0474 J-0.0196
G1 X2.1953 Y2.107 F12
G3 X2.204 Y2.0633 I0.1143 J0 F12
G3 X2.2288 Y2.0262 I0.1055 J0.0437
G3 X2.2658 Y2.0015 I0.0808 J0.0807
G3 X2.3095 Y1.9928 I0.0437 J0.1055
G3 X2.3532 Y2.0015 I0 J0.1141
G3 X2.3903 Y2.0262 I-0.0437 J0.1055
G3 X2.415 Y2.0633 I-0.0808 J0.0808
G3 X2.4237 Y2.107 I-0.1056 J0.0437
G3 X2.415 Y2.1508 I-0.1143 J0
G3 X2.3903 Y2.1878 I-0.1055 J-0.0437
G3 X2.3532 Y2.2126 I-0.0808 J-0.0807
G3 X2.3095 Y2.2213 I-0.0437 J-0.1055
G3 X2.2658 Y2.2126 I0 J-0.1141
G3 X2.2288 Y2.1878 I0.0437 J-0.1055
G3 X2.204 Y2.1508 I0.0808 J-0.0808
G3 X2.1953 Y2.107 I0.1056 J-0.0437
G0 Z0.125
G0 X0.5028 Y2.0874
G1 Z-0.2 F4
G3 X0.5067 Y2.107 I-0.0474 J0.0196 F12
G3 X0.5028 Y2.1267 I-0.0513 J0
G3 X0.4917 Y2.1433 I-0.0474 J-0.0196
G3 X0.4751 Y2.1544 I-0.0362 J-0.0362
G3 X0.4555 Y2.1583 I-0.0196 J-0.0473
G3 X0.436 Y2.1544 I0 J-0.0512
G3 X0.4193 Y2.1433 I0.0196 J-0.0473
G3 X0.4082 Y2.1267 I0.0362 J-0.0362
G3 X0.4043 Y2.107 I0.0474 J-0.0196
G3 X0.4082 Y2.0874 I0.0513 J0
G3 X0.4193 Y2.0708 I0.0474 J0.0196
G3 X0.436 Y2.0597 I0.0362 J0.0362
G3 X0.4555 Y2.0558 I0.0196 J0.0473
G3 X0.4751 Y2.0597 I0 J0.0512
G3 X0.4917 Y2.0708 I-0.0196 J0.0473
G3 X0.5028 Y2.0874 I-0.0362 J0.0362
G1 X0.561 Y2.0633 F12
G3 X0.5697 Y2.107 I-0.1056 J0.0437 F12
G3 X0.561 Y2.1508 I-0.1143 J0
G3 X0.5363 Y2.1878 I-0.1055 J-0.0437
G3 X0.4992 Y2.2126 I-0.0808 J-0.0807
G3 X0.4555 Y2.2213 I-0.0437 J-0.1055
G3 X0.4118 Y2.2126 I0 J-0.1141
G3 X0.3748 Y2.1878 I0.0437 J-0.1055
G3 X0.35 Y2.1508 I0.0808 J-0.0808
G3 X0.3413 Y2.107 I0.1056 J-0.0437
G3 X0.35 Y2.0633 I0.1143 J0
G3 X0.3748 Y2.0262 I0.1055 J0.0437
G3 X0.4118 Y2.0015 I0.0808 J0.0807
G3 X0.4555 Y1.9928 I0.0437 J0.1055
G3 X0.4992 Y2.0015 I0 J0.1141
G3 X0.5363 Y2.0262 I-0.0437 J0.1055
G3 X0.561 Y2.0633 I-0.0808 J0.0808
G0 Z0.125
G0 X2.2583 Y2.107
G1 Z-0.3 F4
G3 X2.2622 Y2.0874 I0.0513 J0 F12
G3 X2.2733 Y2.0708 I0.0474 J0.0196
G3 X2.29 Y2.0597 I0.0362 J0.0362
G3 X2.3095 Y2.0558 I0.0196 J0.0473
G3 X2.3291 Y2.0597 I0 J0.0512
G3 X2.3457 Y2.0708 I-0.0196 J0.0473
G3 X2.3568 Y2.0874 I-0.0362 J0.0362
G3 X2.3607 Y2.107 I-0.0474 J0.0196
G3 X2.3568 Y2.1267 I-0.0513 J0
G3 X2.3457 Y2.1433 I-0.0474 J-0.0196
G3 X2.3291 Y2.1544 I-0.0362 J-0.0362
G3 X2.3095 Y2.1583 I-0.0196 J-0.0473
G3 X2.29 Y2.1544 I0 J-0.0512
G3 X2.2733 Y2.1433 I0.0196 J-0.0473
G3 X2.2622 Y2.1267 I0.0362 J-0.0362
G3 X2.2583 Y2.107 I0.0474 J-0.0196
G1 X2.1953 Y2.107 F12
G3 X2.204 Y2.0633 I0.1143 J0 F12
G3 X2.2288 Y2.0262 I0.1055 J0.0437
G3 X2.2658 Y2.0015 I0.0808 J0.0807
G3 X2.3095 Y1.9928 I0.0437 J0.1055
G3 X2.3532 Y2.0015 I0 J0.1141
G3 X2.3903 Y2.0262 I-0.0437 J0.1055
G3 X2.415 Y2.0633 I-0.0808 J0.0808
G3 X2.4237 Y2.107 I-0.1056 J0.0437
G3 X2.415 Y2.1508 I-0.1143 J0
G3 X2.3903 Y2.1878 I-0.1055 J-0.0437
G3 X2.3532 Y2.2126 I-0.0808 J-0.0807
G3 X2.3095 Y2.2213 I-0.0437 J-0.1055
G3 X2.2658 Y2.2126 I0 J-0.1141
G3 X2.2288 Y2.1878 I0.0437 J-0.1055
G3 X2.204 Y2.1508 I0.0808 J-0.0808
G3 X2.1953 Y2.107 I0.1056 J-0.0437
G0 Z0.125
G0 X0.5028 Y2.0874
G1 Z-0.3 F4
G3 X0.5067 Y2.107 I-0.0474 J0.0196 F12
G3 X0.5028 Y2.1267 I-0.0513 J0
G3 X0.4917 Y2.1433 I-0.0474 J-0.0196
G3 X0.4751 Y2.1544 I-0.0362 J-0.0362
G3 X0.4555 Y2.1583 I-0.0196 J-0.0473
G3 X0.436 Y2.1544 I0 J-0.0512
G3 X0.4193 Y2.1433 I0.0196 J-0.0473
G3 X0.4082 Y2.1267 I0.0362 J-0.0362
G3 X0.4043 Y2.107 I0.0474 J-0.0196
G3 X0.4082 Y2.0874 I0.0513 J0
G3 X0.4193 Y2.0708 I0.0474 J0.0196
G3 X0.436 Y2.0597 I0.0362 J0.0362
G3 X0.4555 Y2.0558 I0.0196 J0.0473
G3 X0.4751 Y2.0597 I0 J0.0512
G3 X0.4917 Y2.0708 I-0.0196 J0.0473
G3 X0.5028 Y2.0874 I-0.0362 J0.0362
G1 X0.561 Y2.0633 F12
G3 X0.5697 Y2.107 I-0.1056 J0.0437 F12
G3 X0.561 Y2.1508 I-0.1143 J0
G3 X0.5363 Y2.1878 I-0.1055 J-0.0437
G3 X0.4992 Y2.2126 I-0.0808 J-0.0807
G3 X0.4555 Y2.2213 I-0.0437 J-0.1055
G3 X0.4118 Y2.2126 I0 J-0.1141
G3 X0.3748 Y2.1878 I0.0437 J-0.1055
G3 X0.35 Y2.1508 I0.0808 J-0.0808
G3 X0.3413 Y2.107 I0.1056 J-0.0437
G3 X0.35 Y2.0633 I0.1143 J0
G3 X0.3748 Y2.0262 I0.1055 J0.0437
G3 X0.4118 Y2.0015 I0.0808 J0.0807
G3 X0.4555 Y1.9928 I0.0437 J0.1055
G3 X0.4992 Y2.0015 I0 J0.1141
G3 X0.5363 Y2.0262 I-0.0437 J0.1055
G3 X0.561 Y2.0633 I-0.0808 J0.0808
G0 Z0.125
G0 X2.2583 Y2.107
G1 Z-0.35 F4
G3 X2.2622 Y2.0874 I0.0513 J0 F12
G3 X2.2733 Y2.0708 I0.0474 J0.0196
G3 X2.29 Y2.0597 I0.0362 J0.0362
G3 X2.3095 Y2.0558 I0.0196 J0.0473
G3 X2.3291 Y2.0597 I0 J0.0512
G3 X2.3457 Y2.0708 I-0.0196 J0.0473
G3 X2.3568 Y2.0874 I-0.0362 J0.0362
G3 X2.3607 Y2.107 I-0.0474 J0.0196
G3 X2.3568 Y2.1267 I-0.0513 J0
G3 X2.3457 Y2.1433 I-0.0474 J-0.0196
G3 X2.3291 Y2.1544 I-0.0362 J-0.0362
G3 X2.3095 Y2.1583 I-0.0196 J-0.0473
G3 X2.29 Y2.1544 I0 J-0.0512
G3 X2.2733 Y2.1433 I0.0196 J-0.0473
G3 X2.2622 Y2.1267 I0.0362 J-0.0362
G3 X2.2583 Y2.107 I0.0474 J-0.0196
G1 X2.1953 Y2.107 F12
G3 X2.204 Y2.0633 I0.1143 J0 F12
G3 X2.2288 Y2.0262 I0.1055 J0.0437
G3 X2.2658 Y2.0015 I0.0808 J0.0807
G3 X2.3095 Y1.9928 I0.0437 J0.1055
G3 X2.3532 Y2.0015 I0 J0.1141
G3 X2.3903 Y2.0262 I-0.0437 J0.1055
G3 X2.415 Y2.0633 I-0.0808 J0.0808
G3 X2.4237 Y2.107 I-0.1056 J0.0437
G3 X2.415 Y2.1508 I-0.1143 J0
G3 X2.3903 Y2.1878 I-0.1055 J-0.0437
G3 X2.3532 Y2.2126 I-0.0808 J-0.0807
G3 X2.3095 Y2.2213 I-0.0437 J-0.1055
G3 X2.2658 Y2.2126 I0 J-0.1141
G3 X2.2288 Y2.1878 I0.0437 J-0.1055
G3 X2.204 Y2.1508 I0.0808 J-0.0808
G3 X2.1953 Y2.107 I0.1056 J-0.0437
G0 Z0.125
G0 X0.5028 Y2.0874
G1 Z-0.35 F4
G3 X0.5067 Y2.107 I-0.0474 J0.0196 F12
G3 X0.5028 Y2.1267 I-0.0513 J0
G3 X0.4917 Y2.1433 I-0.0474 J-0.0196
G3 X0.4751 Y2.1544 I-0.0362 J-0.0362
G3 X0.4555 Y2.1583 I-0.0196 J-0.0473
G3 X0.436 Y2.1544 I0 J-0.0512
G3 X0.4193 Y2.1433 I0.0196 J-0.0473
G3 X0.4082 Y2.1267 I0.0362 J-0.0362
G3 X0.4043 Y2.107 I0.0474 J-0.0196
G3 X0.4082 Y2.0874 I0.0513 J0
G3 X0.4193 Y2.0708 I0.0474 J0.0196
G3 X0.436 Y2.0597 I0.0362 J0.0362
G3 X0.4555 Y2.0558 I0.0196 J0.0473
G3 X0.4751 Y2.0597 I0 J0.0512
G3 X0.4917 Y2.0708 I-0.0196 J0.0473
G3 X0.5028 Y2.0874 I-0.0362 J0.0362
G1 X0.561 Y2.0633 F12
G3 X0.5697 Y2.107 I-0.1056 J0.0437 F12
G3 X0.561 Y2.1508 I-0.1143 J0
G3 X0.5363 Y2.1878 I-0.1055 J-0.0437
G3 X0.4992 Y2.2126 I-0.0808 J-0.0807
G3 X0.4555 Y2.2213 I-0.0437 J-0.1055
G3 X0.4118 Y2.2126 I0 J-0.1141
G3 X0.3748 Y2.1878 I0.0437 J-0.1055
G3 X0.35 Y2.1508 I0.0808 J-0.0808
G3 X0.3413 Y2.107 I0.1056 J-0.0437
G3 X0.35 Y2.0633 I0.1143 J0
G3 X0.3748 Y2.0262 I0.1055 J0.0437
G3 X0.4118 Y2.0015 I0.0808 J0.0807
G3 X0.4555 Y1.9928 I0.0437 J0.1055
G3 X0.4992 Y2.0015 I0 J0.1141
G3 X0.5363 Y2.0262 I-0.0437 J0.1055
G3 X0.561 Y2.0633 I-0.0808 J0.0808
G0 Z0.125
M5
M30
