(Generated by PartKam Version 0.05)

G20 G90 G40

(Center_Pocket)
G0 Z0.25
T0 M6
G17
M3
G0 X1.5538 Y1.5474
G1 Z-0.05 F4
G3 X1.5394 Y1.475 I0.1747 J-0.0724 F8
G3 X1.5538 Y1.4027 I0.1891 J0
G3 X1.5947 Y1.3414 I0.1746 J0.0723
G3 X1.656 Y1.3004 I0.1335 J0.1335
G3 X1.7282 Y1.2861 I0.0722 J0.1743
G3 X1.8004 Y1.3004 I0 J0.1886
G3 X1.8616 Y1.3414 I-0.0723 J0.1744
G3 X1.9026 Y1.4027 I-0.1336 J0.1336
G3 X1.917 Y1.475 I-0.1747 J0.0724
G3 X1.9026 Y1.5474 I-0.1891 J0
G3 X1.8616 Y1.6087 I-0.1746 J-0.0723
G3 X1.8004 Y1.6496 I-0.1335 J-0.1335
G3 X1.7282 Y1.664 I-0.0722 J-0.1743
G3 X1.656 Y1.6496 I0 J-0.1886
G3 X1.5947 Y1.6087 I0.0723 J-0.1744
G3 X1.5538 Y1.5474 I0.1336 J-0.1336
G1 X1.369 Y1.6239 F8
G3 X1.3394 Y1.475 I0.3595 J-0.1489 F8
G3 X1.369 Y1.3262 I0.3891 J0
G3 X1.4533 Y1.2 I0.3594 J0.1488
G3 X1.5794 Y1.1157 I0.275 J0.2749
G3 X1.7282 Y1.0861 I0.1488 J0.359
G3 X1.8769 Y1.1157 I0 J0.3886
G3 X2.0031 Y1.2 I-0.1488 J0.3592
G3 X2.0873 Y1.3262 I-0.2751 J0.275
G3 X2.117 Y1.475 I-0.3595 J0.1489
G3 X2.0873 Y1.6239 I-0.3891 J0
G3 X2.0031 Y1.7501 I-0.3594 J-0.1488
G3 X1.8769 Y1.8344 I-0.275 J-0.2749
G3 X1.7282 Y1.864 I-0.1488 J-0.359
G3 X1.5794 Y1.8344 I0 J-0.3886
G3 X1.4533 Y1.7501 I0.1488 J-0.3592
G3 X1.369 Y1.6239 I0.2751 J-0.275
G0 Z0.25
G0 X1.5538 Y1.5474
G1 Z-0.1 F4
G3 X1.5394 Y1.475 I0.1747 J-0.0724 F8
G3 X1.5538 Y1.4027 I0.1891 J0
G3 X1.5947 Y1.3414 I0.1746 J0.0723
G3 X1.656 Y1.3004 I0.1335 J0.1335
G3 X1.7282 Y1.2861 I0.0722 J0.1743
G3 X1.8004 Y1.3004 I0 J0.1886
G3 X1.8616 Y1.3414 I-0.0723 J0.1744
G3 X1.9026 Y1.4027 I-0.1336 J0.1336
G3 X1.917 Y1.475 I-0.1747 J0.0724
G3 X1.9026 Y1.5474 I-0.1891 J0
G3 X1.8616 Y1.6087 I-0.1746 J-0.0723
G3 X1.8004 Y1.6496 I-0.1335 J-0.1335
G3 X1.7282 Y1.664 I-0.0722 J-0.1743
G3 X1.656 Y1.6496 I0 J-0.1886
G3 X1.5947 Y1.6087 I0.0723 J-0.1744
G3 X1.5538 Y1.5474 I0.1336 J-0.1336
G1 X1.369 Y1.6239 F8
G3 X1.3394 Y1.475 I0.3595 J-0.1489 F8
G3 X1.369 Y1.3262 I0.3891 J0
G3 X1.4533 Y1.2 I0.3594 J0.1488
G3 X1.5794 Y1.1157 I0.275 J0.2749
G3 X1.7282 Y1.0861 I0.1488 J0.359
G3 X1.8769 Y1.1157 I0 J0.3886
G3 X2.0031 Y1.2 I-0.1488 J0.3592
G3 X2.0873 Y1.3262 I-0.2751 J0.275
G3 X2.117 Y1.475 I-0.3595 J0.1489
G3 X2.0873 Y1.6239 I-0.3891 J0
G3 X2.0031 Y1.7501 I-0.3594 J-0.1488
G3 X1.8769 Y1.8344 I-0.275 J-0.2749
G3 X1.7282 Y1.864 I-0.1488 J-0.359
G3 X1.5794 Y1.8344 I0 J-0.3886
G3 X1.4533 Y1.7501 I0.1488 J-0.3592
G3 X1.369 Y1.6239 I0.2751 J-0.275
G0 Z0.25
G0 X1.5538 Y1.5474
G1 Z-0.15 F4
G3 X1.5394 Y1.475 I0.1747 J-0.0724 F8
G3 X1.5538 Y1.4027 I0.1891 J0
G3 X1.5947 Y1.3414 I0.1746 J0.0723
G3 X1.656 Y1.3004 I0.1335 J0.1335
G3 X1.7282 Y1.2861 I0.0722 J0.1743
G3 X1.8004 Y1.3004 I0 J0.1886
G3 X1.8616 Y1.3414 I-0.0723 J0.1744
G3 X1.9026 Y1.4027 I-0.1336 J0.1336
G3 X1.917 Y1.475 I-0.1747 J0.0724
G3 X1.9026 Y1.5474 I-0.1891 J0
G3 X1.8616 Y1.6087 I-0.1746 J-0.0723
G3 X1.8004 Y1.6496 I-0.1335 J-0.1335
G3 X1.7282 Y1.664 I-0.0722 J-0.1743
G3 X1.656 Y1.6496 I0 J-0.1886
G3 X1.5947 Y1.6087 I0.0723 J-0.1744
G3 X1.5538 Y1.5474 I0.1336 J-0.1336
G1 X1.369 Y1.6239 F8
G3 X1.3394 Y1.475 I0.3595 J-0.1489 F8
G3 X1.369 Y1.3262 I0.3891 J0
G3 X1.4533 Y1.2 I0.3594 J0.1488
G3 X1.5794 Y1.1157 I0.275 J0.2749
G3 X1.7282 Y1.0861 I0.1488 J0.359
G3 X1.8769 Y1.1157 I0 J0.3886
G3 X2.0031 Y1.2 I-0.1488 J0.3592
G3 X2.0873 Y1.3262 I-0.2751 J0.275
G3 X2.117 Y1.475 I-0.3595 J0.1489
G3 X2.0873 Y1.6239 I-0.3891 J0
G3 X2.0031 Y1.7501 I-0.3594 J-0.1488
G3 X1.8769 Y1.8344 I-0.275 J-0.2749
G3 X1.7282 Y1.864 I-0.1488 J-0.359
G3 X1.5794 Y1.8344 I0 J-0.3886
G3 X1.4533 Y1.7501 I0.1488 J-0.3592
G3 X1.369 Y1.6239 I0.2751 J-0.275
G0 Z0.25
G0 X1.5538 Y1.5474
G1 Z-0.2 F4
G3 X1.5394 Y1.475 I0.1747 J-0.0724 F8
G3 X1.5538 Y1.4027 I0.1891 J0
G3 X1.5947 Y1.3414 I0.1746 J0.0723
G3 X1.656 Y1.3004 I0.1335 J0.1335
G3 X1.7282 Y1.2861 I0.0722 J0.1743
G3 X1.8004 Y1.3004 I0 J0.1886
G3 X1.8616 Y1.3414 I-0.0723 J0.1744
G3 X1.9026 Y1.4027 I-0.1336 J0.1336
G3 X1.917 Y1.475 I-0.1747 J0.0724
G3 X1.9026 Y1.5474 I-0.1891 J0
G3 X1.8616 Y1.6087 I-0.1746 J-0.0723
G3 X1.8004 Y1.6496 I-0.1335 J-0.1335
G3 X1.7282 Y1.664 I-0.0722 J-0.1743
G3 X1.656 Y1.6496 I0 J-0.1886
G3 X1.5947 Y1.6087 I0.0723 J-0.1744
G3 X1.5538 Y1.5474 I0.1336 J-0.1336
G1 X1.369 Y1.6239 F8
G3 X1.3394 Y1.475 I0.3595 J-0.1489 F8
G3 X1.369 Y1.3262 I0.3891 J0
G3 X1.4533 Y1.2 I0.3594 J0.1488
G3 X1.5794 Y1.1157 I0.275 J0.2749
G3 X1.7282 Y1.0861 I0.1488 J0.359
G3 X1.8769 Y1.1157 I0 J0.3886
G3 X2.0031 Y1.2 I-0.1488 J0.3592
G3 X2.0873 Y1.3262 I-0.2751 J0.275
G3 X2.117 Y1.475 I-0.3595 J0.1489
G3 X2.0873 Y1.6239 I-0.3891 J0
G3 X2.0031 Y1.7501 I-0.3594 J-0.1488
G3 X1.8769 Y1.8344 I-0.275 J-0.2749
G3 X1.7282 Y1.864 I-0.1488 J-0.359
G3 X1.5794 Y1.8344 I0 J-0.3886
G3 X1.4533 Y1.7501 I0.1488 J-0.3592
G3 X1.369 Y1.6239 I0.2751 J-0.275
G0 Z0.25
G0 X1.5538 Y1.5474
G1 Z-0.25 F4
G3 X1.5394 Y1.475 I0.1747 J-0.0724 F8
G3 X1.5538 Y1.4027 I0.1891 J0
G3 X1.5947 Y1.3414 I0.1746 J0.0723
G3 X1.656 Y1.3004 I0.1335 J0.1335
G3 X1.7282 Y1.2861 I0.0722 J0.1743
G3 X1.8004 Y1.3004 I0 J0.1886
G3 X1.8616 Y1.3414 I-0.0723 J0.1744
G3 X1.9026 Y1.4027 I-0.1336 J0.1336
G3 X1.917 Y1.475 I-0.1747 J0.0724
G3 X1.9026 Y1.5474 I-0.1891 J0
G3 X1.8616 Y1.6087 I-0.1746 J-0.0723
G3 X1.8004 Y1.6496 I-0.1335 J-0.1335
G3 X1.7282 Y1.664 I-0.0722 J-0.1743
G3 X1.656 Y1.6496 I0 J-0.1886
G3 X1.5947 Y1.6087 I0.0723 J-0.1744
G3 X1.5538 Y1.5474 I0.1336 J-0.1336
G1 X1.369 Y1.6239 F8
G3 X1.3394 Y1.475 I0.3595 J-0.1489 F8
G3 X1.369 Y1.3262 I0.3891 J0
G3 X1.4533 Y1.2 I0.3594 J0.1488
G3 X1.5794 Y1.1157 I0.275 J0.2749
G3 X1.7282 Y1.0861 I0.1488 J0.359
G3 X1.8769 Y1.1157 I0 J0.3886
G3 X2.0031 Y1.2 I-0.1488 J0.3592
G3 X2.0873 Y1.3262 I-0.2751 J0.275
G3 X2.117 Y1.475 I-0.3595 J0.1489
G3 X2.0873 Y1.6239 I-0.3891 J0
G3 X2.0031 Y1.7501 I-0.3594 J-0.1488
G3 X1.8769 Y1.8344 I-0.275 J-0.2749
G3 X1.7282 Y1.864 I-0.1488 J-0.359
G3 X1.5794 Y1.8344 I0 J-0.3886
G3 X1.4533 Y1.7501 I0.1488 J-0.3592
G3 X1.369 Y1.6239 I0.2751 J-0.275
G0 Z0.25
G0 X1.5538 Y1.5474
G1 Z-0.3 F4
G3 X1.5394 Y1.475 I0.1747 J-0.0724 F8
G3 X1.5538 Y1.4027 I0.1891 J0
G3 X1.5947 Y1.3414 I0.1746 J0.0723
G3 X1.656 Y1.3004 I0.1335 J0.1335
G3 X1.7282 Y1.2861 I0.0722 J0.1743
G3 X1.8004 Y1.3004 I0 J0.1886
G3 X1.8616 Y1.3414 I-0.0723 J0.1744
G3 X1.9026 Y1.4027 I-0.1336 J0.1336
G3 X1.917 Y1.475 I-0.1747 J0.0724
G3 X1.9026 Y1.5474 I-0.1891 J0
G3 X1.8616 Y1.6087 I-0.1746 J-0.0723
G3 X1.8004 Y1.6496 I-0.1335 J-0.1335
G3 X1.7282 Y1.664 I-0.0722 J-0.1743
G3 X1.656 Y1.6496 I0 J-0.1886
G3 X1.5947 Y1.6087 I0.0723 J-0.1744
G3 X1.5538 Y1.5474 I0.1336 J-0.1336
G1 X1.369 Y1.6239 F8
G3 X1.3394 Y1.475 I0.3595 J-0.1489 F8
G3 X1.369 Y1.3262 I0.3891 J0
G3 X1.4533 Y1.2 I0.3594 J0.1488
G3 X1.5794 Y1.1157 I0.275 J0.2749
G3 X1.7282 Y1.0861 I0.1488 J0.359
G3 X1.8769 Y1.1157 I0 J0.3886
G3 X2.0031 Y1.2 I-0.1488 J0.3592
G3 X2.0873 Y1.3262 I-0.2751 J0.275
G3 X2.117 Y1.475 I-0.3595 J0.1489
G3 X2.0873 Y1.6239 I-0.3891 J0
G3 X2.0031 Y1.7501 I-0.3594 J-0.1488
G3 X1.8769 Y1.8344 I-0.275 J-0.2749
G3 X1.7282 Y1.864 I-0.1488 J-0.359
G3 X1.5794 Y1.8344 I0 J-0.3886
G3 X1.4533 Y1.7501 I0.1488 J-0.3592
G3 X1.369 Y1.6239 I0.2751 J-0.275
G0 Z0.25
G0 X1.5538 Y1.5474
G1 Z-0.35 F4
G3 X1.5394 Y1.475 I0.1747 J-0.0724 F8
G3 X1.5538 Y1.4027 I0.1891 J0
G3 X1.5947 Y1.3414 I0.1746 J0.0723
G3 X1.656 Y1.3004 I0.1335 J0.1335
G3 X1.7282 Y1.2861 I0.0722 J0.1743
G3 X1.8004 Y1.3004 I0 J0.1886
G3 X1.8616 Y1.3414 I-0.0723 J0.1744
G3 X1.9026 Y1.4027 I-0.1336 J0.1336
G3 X1.917 Y1.475 I-0.1747 J0.0724
G3 X1.9026 Y1.5474 I-0.1891 J0
G3 X1.8616 Y1.6087 I-0.1746 J-0.0723
G3 X1.8004 Y1.6496 I-0.1335 J-0.1335
G3 X1.7282 Y1.664 I-0.0722 J-0.1743
G3 X1.656 Y1.6496 I0 J-0.1886
G3 X1.5947 Y1.6087 I0.0723 J-0.1744
G3 X1.5538 Y1.5474 I0.1336 J-0.1336
G1 X1.369 Y1.6239 F8
G3 X1.3394 Y1.475 I0.3595 J-0.1489 F8
G3 X1.369 Y1.3262 I0.3891 J0
G3 X1.4533 Y1.2 I0.3594 J0.1488
G3 X1.5794 Y1.1157 I0.275 J0.2749
G3 X1.7282 Y1.0861 I0.1488 J0.359
G3 X1.8769 Y1.1157 I0 J0.3886
G3 X2.0031 Y1.2 I-0.1488 J0.3592
G3 X2.0873 Y1.3262 I-0.2751 J0.275
G3 X2.117 Y1.475 I-0.3595 J0.1489
G3 X2.0873 Y1.6239 I-0.3891 J0
G3 X2.0031 Y1.7501 I-0.3594 J-0.1488
G3 X1.8769 Y1.8344 I-0.275 J-0.2749
G3 X1.7282 Y1.864 I-0.1488 J-0.359
G3 X1.5794 Y1.8344 I0 J-0.3886
G3 X1.4533 Y1.7501 I0.1488 J-0.3592
G3 X1.369 Y1.6239 I0.2751 J-0.275
G0 Z0.25
G0 X1.5538 Y1.5474
G1 Z-0.364 F4
G3 X1.5394 Y1.475 I0.1747 J-0.0724 F8
G3 X1.5538 Y1.4027 I0.1891 J0
G3 X1.5947 Y1.3414 I0.1746 J0.0723
G3 X1.656 Y1.3004 I0.1335 J0.1335
G3 X1.7282 Y1.2861 I0.0722 J0.1743
G3 X1.8004 Y1.3004 I0 J0.1886
G3 X1.8616 Y1.3414 I-0.0723 J0.1744
G3 X1.9026 Y1.4027 I-0.1336 J0.1336
G3 X1.917 Y1.475 I-0.1747 J0.0724
G3 X1.9026 Y1.5474 I-0.1891 J0
G3 X1.8616 Y1.6087 I-0.1746 J-0.0723
G3 X1.8004 Y1.6496 I-0.1335 J-0.1335
G3 X1.7282 Y1.664 I-0.0722 J-0.1743
G3 X1.656 Y1.6496 I0 J-0.1886
G3 X1.5947 Y1.6087 I0.0723 J-0.1744
G3 X1.5538 Y1.5474 I0.1336 J-0.1336
G1 X1.369 Y1.6239 F8
G3 X1.3394 Y1.475 I0.3595 J-0.1489 F8
G3 X1.369 Y1.3262 I0.3891 J0
G3 X1.4533 Y1.2 I0.3594 J0.1488
G3 X1.5794 Y1.1157 I0.275 J0.2749
G3 X1.7282 Y1.0861 I0.1488 J0.359
G3 X1.8769 Y1.1157 I0 J0.3886
G3 X2.0031 Y1.2 I-0.1488 J0.3592
G3 X2.0873 Y1.3262 I-0.2751 J0.275
G3 X2.117 Y1.475 I-0.3595 J0.1489
G3 X2.0873 Y1.6239 I-0.3891 J0
G3 X2.0031 Y1.7501 I-0.3594 J-0.1488
G3 X1.8769 Y1.8344 I-0.275 J-0.2749
G3 X1.7282 Y1.864 I-0.1488 J-0.359
G3 X1.5794 Y1.8344 I0 J-0.3886
G3 X1.4533 Y1.7501 I0.1488 J-0.3592
G3 X1.369 Y1.6239 I0.2751 J-0.275
G0 Z0.25
M5
M30
