(Generated by PartKam Version 0.05)

G20 G90 G40

(pocket 1)
G0 Z0.25
T0 M6
G17
M3
G0 X3.0929 Y0.3754
G1 Z-0.05 F4
G1 X0.3634 Y0.3754 F8
G1 X0.3634 Y0.3634
G1 X3.0929 Y0.3634
G1 X3.0929 Y0.3754
G1 X3.0991 Y0.3816 F8
G1 X0.3571 Y0.3816 F8
G1 X0.3571 Y0.3571
G1 X3.0991 Y0.3571
G1 X3.0991 Y0.3816
G1 X3.1054 Y0.3879 F8
G1 X0.3509 Y0.3879 F8
G1 X0.3509 Y0.3509
G1 X3.1054 Y0.3509
G1 X3.1054 Y0.3879
G1 X3.1116 Y0.3941 F8
G1 X0.3446 Y0.3941 F8
G1 X0.3446 Y0.3446
G1 X3.1116 Y0.3446
G1 X3.1116 Y0.3941
G1 X3.1179 Y0.4004 F8
G1 X0.3384 Y0.4004 F8
G1 X0.3384 Y0.3384
G1 X3.1179 Y0.3384
G1 X3.1179 Y0.4004
G1 X3.1241 Y0.4066 F8
G1 X0.3321 Y0.4066 F8
G1 X0.3321 Y0.3321
G1 X3.1241 Y0.3321
G1 X3.1241 Y0.4066
G1 X3.1304 Y0.4129 F8
G1 X0.3259 Y0.4129 F8
G1 X0.3259 Y0.3259
G1 X3.1304 Y0.3259
G1 X3.1304 Y0.4129
G1 X3.1366 Y0.4191 F8
G1 X0.3196 Y0.4191 F8
G1 X0.3196 Y0.3196
G1 X3.1366 Y0.3196
G1 X3.1366 Y0.4191
G1 X3.1429 Y0.4254 F8
G1 X0.3134 Y0.4254 F8
G1 X0.3134 Y0.3134
G1 X3.1429 Y0.3134
G1 X3.1429 Y0.4254
G0 Z0.25
G0 X3.0929 Y0.3754
G1 Z-0.1 F4
G1 X0.3634 Y0.3754 F8
G1 X0.3634 Y0.3634
G1 X3.0929 Y0.3634
G1 X3.0929 Y0.3754
G1 X3.0991 Y0.3816 F8
G1 X0.3571 Y0.3816 F8
G1 X0.3571 Y0.3571
G1 X3.0991 Y0.3571
G1 X3.0991 Y0.3816
G1 X3.1054 Y0.3879 F8
G1 X0.3509 Y0.3879 F8
G1 X0.3509 Y0.3509
G1 X3.1054 Y0.3509
G1 X3.1054 Y0.3879
G1 X3.1116 Y0.3941 F8
G1 X0.3446 Y0.3941 F8
G1 X0.3446 Y0.3446
G1 X3.1116 Y0.3446
G1 X3.1116 Y0.3941
G1 X3.1179 Y0.4004 F8
G1 X0.3384 Y0.4004 F8
G1 X0.3384 Y0.3384
G1 X3.1179 Y0.3384
G1 X3.1179 Y0.4004
G1 X3.1241 Y0.4066 F8
G1 X0.3321 Y0.4066 F8
G1 X0.3321 Y0.3321
G1 X3.1241 Y0.3321
G1 X3.1241 Y0.4066
G1 X3.1304 Y0.4129 F8
G1 X0.3259 Y0.4129 F8
G1 X0.3259 Y0.3259
G1 X3.1304 Y0.3259
G1 X3.1304 Y0.4129
G1 X3.1366 Y0.4191 F8
G1 X0.3196 Y0.4191 F8
G1 X0.3196 Y0.3196
G1 X3.1366 Y0.3196
G1 X3.1366 Y0.4191
G1 X3.1429 Y0.4254 F8
G1 X0.3134 Y0.4254 F8
G1 X0.3134 Y0.3134
G1 X3.1429 Y0.3134
G1 X3.1429 Y0.4254
G0 Z0.25
G0 X3.0929 Y0.3754
G1 Z-0.15 F4
G1 X0.3634 Y0.3754 F8
G1 X0.3634 Y0.3634
G1 X3.0929 Y0.3634
G1 X3.0929 Y0.3754
G1 X3.0991 Y0.3816 F8
G1 X0.3571 Y0.3816 F8
G1 X0.3571 Y0.3571
G1 X3.0991 Y0.3571
G1 X3.0991 Y0.3816
G1 X3.1054 Y0.3879 F8
G1 X0.3509 Y0.3879 F8
G1 X0.3509 Y0.3509
G1 X3.1054 Y0.3509
G1 X3.1054 Y0.3879
G1 X3.1116 Y0.3941 F8
G1 X0.3446 Y0.3941 F8
G1 X0.3446 Y0.3446
G1 X3.1116 Y0.3446
G1 X3.1116 Y0.3941
G1 X3.1179 Y0.4004 F8
G1 X0.3384 Y0.4004 F8
G1 X0.3384 Y0.3384
G1 X3.1179 Y0.3384
G1 X3.1179 Y0.4004
G1 X3.1241 Y0.4066 F8
G1 X0.3321 Y0.4066 F8
G1 X0.3321 Y0.3321
G1 X3.1241 Y0.3321
G1 X3.1241 Y0.4066
G1 X3.1304 Y0.4129 F8
G1 X0.3259 Y0.4129 F8
G1 X0.3259 Y0.3259
G1 X3.1304 Y0.3259
G1 X3.1304 Y0.4129
G1 X3.1366 Y0.4191 F8
G1 X0.3196 Y0.4191 F8
G1 X0.3196 Y0.3196
G1 X3.1366 Y0.3196
G1 X3.1366 Y0.4191
G1 X3.1429 Y0.4254 F8
G1 X0.3134 Y0.4254 F8
G1 X0.3134 Y0.3134
G1 X3.1429 Y0.3134
G1 X3.1429 Y0.4254
G0 Z0.25
G0 X3.0929 Y0.3754
G1 Z-0.2 F4
G1 X0.3634 Y0.3754 F8
G1 X0.3634 Y0.3634
G1 X3.0929 Y0.3634
G1 X3.0929 Y0.3754
G1 X3.0991 Y0.3816 F8
G1 X0.3571 Y0.3816 F8
G1 X0.3571 Y0.3571
G1 X3.0991 Y0.3571
G1 X3.0991 Y0.3816
G1 X3.1054 Y0.3879 F8
G1 X0.3509 Y0.3879 F8
G1 X0.3509 Y0.3509
G1 X3.1054 Y0.3509
G1 X3.1054 Y0.3879
G1 X3.1116 Y0.3941 F8
G1 X0.3446 Y0.3941 F8
G1 X0.3446 Y0.3446
G1 X3.1116 Y0.3446
G1 X3.1116 Y0.3941
G1 X3.1179 Y0.4004 F8
G1 X0.3384 Y0.4004 F8
G1 X0.3384 Y0.3384
G1 X3.1179 Y0.3384
G1 X3.1179 Y0.4004
G1 X3.1241 Y0.4066 F8
G1 X0.3321 Y0.4066 F8
G1 X0.3321 Y0.3321
G1 X3.1241 Y0.3321
G1 X3.1241 Y0.4066
G1 X3.1304 Y0.4129 F8
G1 X0.3259 Y0.4129 F8
G1 X0.3259 Y0.3259
G1 X3.1304 Y0.3259
G1 X3.1304 Y0.4129
G1 X3.1366 Y0.4191 F8
G1 X0.3196 Y0.4191 F8
G1 X0.3196 Y0.3196
G1 X3.1366 Y0.3196
G1 X3.1366 Y0.4191
G1 X3.1429 Y0.4254 F8
G1 X0.3134 Y0.4254 F8
G1 X0.3134 Y0.3134
G1 X3.1429 Y0.3134
G1 X3.1429 Y0.4254
G0 Z0.25
G0 X3.0929 Y0.3754
G1 Z-0.25 F4
G1 X0.3634 Y0.3754 F8
G1 X0.3634 Y0.3634
G1 X3.0929 Y0.3634
G1 X3.0929 Y0.3754
G1 X3.0991 Y0.3816 F8
G1 X0.3571 Y0.3816 F8
G1 X0.3571 Y0.3571
G1 X3.0991 Y0.3571
G1 X3.0991 Y0.3816
G1 X3.1054 Y0.3879 F8
G1 X0.3509 Y0.3879 F8
G1 X0.3509 Y0.3509
G1 X3.1054 Y0.3509
G1 X3.1054 Y0.3879
G1 X3.1116 Y0.3941 F8
G1 X0.3446 Y0.3941 F8
G1 X0.3446 Y0.3446
G1 X3.1116 Y0.3446
G1 X3.1116 Y0.3941
G1 X3.1179 Y0.4004 F8
G1 X0.3384 Y0.4004 F8
G1 X0.3384 Y0.3384
G1 X3.1179 Y0.3384
G1 X3.1179 Y0.4004
G1 X3.1241 Y0.4066 F8
G1 X0.3321 Y0.4066 F8
G1 X0.3321 Y0.3321
G1 X3.1241 Y0.3321
G1 X3.1241 Y0.4066
G1 X3.1304 Y0.4129 F8
G1 X0.3259 Y0.4129 F8
G1 X0.3259 Y0.3259
G1 X3.1304 Y0.3259
G1 X3.1304 Y0.4129
G1 X3.1366 Y0.4191 F8
G1 X0.3196 Y0.4191 F8
G1 X0.3196 Y0.3196
G1 X3.1366 Y0.3196
G1 X3.1366 Y0.4191
G1 X3.1429 Y0.4254 F8
G1 X0.3134 Y0.4254 F8
G1 X0.3134 Y0.3134
G1 X3.1429 Y0.3134
G1 X3.1429 Y0.4254
G0 Z0.25
G0 X3.0929 Y0.3754
G1 Z-0.3 F4
G1 X0.3634 Y0.3754 F8
G1 X0.3634 Y0.3634
G1 X3.0929 Y0.3634
G1 X3.0929 Y0.3754
G1 X3.0991 Y0.3816 F8
G1 X0.3571 Y0.3816 F8
G1 X0.3571 Y0.3571
G1 X3.0991 Y0.3571
G1 X3.0991 Y0.3816
G1 X3.1054 Y0.3879 F8
G1 X0.3509 Y0.3879 F8
G1 X0.3509 Y0.3509
G1 X3.1054 Y0.3509
G1 X3.1054 Y0.3879
G1 X3.1116 Y0.3941 F8
G1 X0.3446 Y0.3941 F8
G1 X0.3446 Y0.3446
G1 X3.1116 Y0.3446
G1 X3.1116 Y0.3941
G1 X3.1179 Y0.4004 F8
G1 X0.3384 Y0.4004 F8
G1 X0.3384 Y0.3384
G1 X3.1179 Y0.3384
G1 X3.1179 Y0.4004
G1 X3.1241 Y0.4066 F8
G1 X0.3321 Y0.4066 F8
G1 X0.3321 Y0.3321
G1 X3.1241 Y0.3321
G1 X3.1241 Y0.4066
G1 X3.1304 Y0.4129 F8
G1 X0.3259 Y0.4129 F8
G1 X0.3259 Y0.3259
G1 X3.1304 Y0.3259
G1 X3.1304 Y0.4129
G1 X3.1366 Y0.4191 F8
G1 X0.3196 Y0.4191 F8
G1 X0.3196 Y0.3196
G1 X3.1366 Y0.3196
G1 X3.1366 Y0.4191
G1 X3.1429 Y0.4254 F8
G1 X0.3134 Y0.4254 F8
G1 X0.3134 Y0.3134
G1 X3.1429 Y0.3134
G1 X3.1429 Y0.4254
G0 Z0.25
G0 X3.0929 Y0.3754
G1 Z-0.35 F4
G1 X0.3634 Y0.3754 F8
G1 X0.3634 Y0.3634
G1 X3.0929 Y0.3634
G1 X3.0929 Y0.3754
G1 X3.0991 Y0.3816 F8
G1 X0.3571 Y0.3816 F8
G1 X0.3571 Y0.3571
G1 X3.0991 Y0.3571
G1 X3.0991 Y0.3816
G1 X3.1054 Y0.3879 F8
G1 X0.3509 Y0.3879 F8
G1 X0.3509 Y0.3509
G1 X3.1054 Y0.3509
G1 X3.1054 Y0.3879
G1 X3.1116 Y0.3941 F8
G1 X0.3446 Y0.3941 F8
G1 X0.3446 Y0.3446
G1 X3.1116 Y0.3446
G1 X3.1116 Y0.3941
G1 X3.1179 Y0.4004 F8
G1 X0.3384 Y0.4004 F8
G1 X0.3384 Y0.3384
G1 X3.1179 Y0.3384
G1 X3.1179 Y0.4004
G1 X3.1241 Y0.4066 F8
G1 X0.3321 Y0.4066 F8
G1 X0.3321 Y0.3321
G1 X3.1241 Y0.3321
G1 X3.1241 Y0.4066
G1 X3.1304 Y0.4129 F8
G1 X0.3259 Y0.4129 F8
G1 X0.3259 Y0.3259
G1 X3.1304 Y0.3259
G1 X3.1304 Y0.4129
G1 X3.1366 Y0.4191 F8
G1 X0.3196 Y0.4191 F8
G1 X0.3196 Y0.3196
G1 X3.1366 Y0.3196
G1 X3.1366 Y0.4191
G1 X3.1429 Y0.4254 F8
G1 X0.3134 Y0.4254 F8
G1 X0.3134 Y0.3134
G1 X3.1429 Y0.3134
G1 X3.1429 Y0.4254
G0 Z0.25
G0 X3.0929 Y0.3754
G1 Z-0.4 F4
G1 X0.3634 Y0.3754 F8
G1 X0.3634 Y0.3634
G1 X3.0929 Y0.3634
G1 X3.0929 Y0.3754
G1 X3.0991 Y0.3816 F8
G1 X0.3571 Y0.3816 F8
G1 X0.3571 Y0.3571
G1 X3.0991 Y0.3571
G1 X3.0991 Y0.3816
G1 X3.1054 Y0.3879 F8
G1 X0.3509 Y0.3879 F8
G1 X0.3509 Y0.3509
G1 X3.1054 Y0.3509
G1 X3.1054 Y0.3879
G1 X3.1116 Y0.3941 F8
G1 X0.3446 Y0.3941 F8
G1 X0.3446 Y0.3446
G1 X3.1116 Y0.3446
G1 X3.1116 Y0.3941
G1 X3.1179 Y0.4004 F8
G1 X0.3384 Y0.4004 F8
G1 X0.3384 Y0.3384
G1 X3.1179 Y0.3384
G1 X3.1179 Y0.4004
G1 X3.1241 Y0.4066 F8
G1 X0.3321 Y0.4066 F8
G1 X0.3321 Y0.3321
G1 X3.1241 Y0.3321
G1 X3.1241 Y0.4066
G1 X3.1304 Y0.4129 F8
G1 X0.3259 Y0.4129 F8
G1 X0.3259 Y0.3259
G1 X3.1304 Y0.3259
G1 X3.1304 Y0.4129
G1 X3.1366 Y0.4191 F8
G1 X0.3196 Y0.4191 F8
G1 X0.3196 Y0.3196
G1 X3.1366 Y0.3196
G1 X3.1366 Y0.4191
G1 X3.1429 Y0.4254 F8
G1 X0.3134 Y0.4254 F8
G1 X0.3134 Y0.3134
G1 X3.1429 Y0.3134
G1 X3.1429 Y0.4254
G0 Z0.25
G0 X3.0929 Y0.3754
G1 Z-0.45 F4
G1 X0.3634 Y0.3754 F8
G1 X0.3634 Y0.3634
G1 X3.0929 Y0.3634
G1 X3.0929 Y0.3754
G1 X3.0991 Y0.3816 F8
G1 X0.3571 Y0.3816 F8
G1 X0.3571 Y0.3571
G1 X3.0991 Y0.3571
G1 X3.0991 Y0.3816
G1 X3.1054 Y0.3879 F8
G1 X0.3509 Y0.3879 F8
G1 X0.3509 Y0.3509
G1 X3.1054 Y0.3509
G1 X3.1054 Y0.3879
G1 X3.1116 Y0.3941 F8
G1 X0.3446 Y0.3941 F8
G1 X0.3446 Y0.3446
G1 X3.1116 Y0.3446
G1 X3.1116 Y0.3941
G1 X3.1179 Y0.4004 F8
G1 X0.3384 Y0.4004 F8
G1 X0.3384 Y0.3384
G1 X3.1179 Y0.3384
G1 X3.1179 Y0.4004
G1 X3.1241 Y0.4066 F8
G1 X0.3321 Y0.4066 F8
G1 X0.3321 Y0.3321
G1 X3.1241 Y0.3321
G1 X3.1241 Y0.4066
G1 X3.1304 Y0.4129 F8
G1 X0.3259 Y0.4129 F8
G1 X0.3259 Y0.3259
G1 X3.1304 Y0.3259
G1 X3.1304 Y0.4129
G1 X3.1366 Y0.4191 F8
G1 X0.3196 Y0.4191 F8
G1 X0.3196 Y0.3196
G1 X3.1366 Y0.3196
G1 X3.1366 Y0.4191
G1 X3.1429 Y0.4254 F8
G1 X0.3134 Y0.4254 F8
G1 X0.3134 Y0.3134
G1 X3.1429 Y0.3134
G1 X3.1429 Y0.4254
G0 Z0.25
G0 X3.0929 Y0.3754
G1 Z-0.5 F4
G1 X0.3634 Y0.3754 F8
G1 X0.3634 Y0.3634
G1 X3.0929 Y0.3634
G1 X3.0929 Y0.3754
G1 X3.0991 Y0.3816 F8
G1 X0.3571 Y0.3816 F8
G1 X0.3571 Y0.3571
G1 X3.0991 Y0.3571
G1 X3.0991 Y0.3816
G1 X3.1054 Y0.3879 F8
G1 X0.3509 Y0.3879 F8
G1 X0.3509 Y0.3509
G1 X3.1054 Y0.3509
G1 X3.1054 Y0.3879
G1 X3.1116 Y0.3941 F8
G1 X0.3446 Y0.3941 F8
G1 X0.3446 Y0.3446
G1 X3.1116 Y0.3446
G1 X3.1116 Y0.3941
G1 X3.1179 Y0.4004 F8
G1 X0.3384 Y0.4004 F8
G1 X0.3384 Y0.3384
G1 X3.1179 Y0.3384
G1 X3.1179 Y0.4004
G1 X3.1241 Y0.4066 F8
G1 X0.3321 Y0.4066 F8
G1 X0.3321 Y0.3321
G1 X3.1241 Y0.3321
G1 X3.1241 Y0.4066
G1 X3.1304 Y0.4129 F8
G1 X0.3259 Y0.4129 F8
G1 X0.3259 Y0.3259
G1 X3.1304 Y0.3259
G1 X3.1304 Y0.4129
G1 X3.1366 Y0.4191 F8
G1 X0.3196 Y0.4191 F8
G1 X0.3196 Y0.3196
G1 X3.1366 Y0.3196
G1 X3.1366 Y0.4191
G1 X3.1429 Y0.4254 F8
G1 X0.3134 Y0.4254 F8
G1 X0.3134 Y0.3134
G1 X3.1429 Y0.3134
G1 X3.1429 Y0.4254
G0 Z0.25
G0 X3.0929 Y0.3754
G1 Z-0.55 F4
G1 X0.3634 Y0.3754 F8
G1 X0.3634 Y0.3634
G1 X3.0929 Y0.3634
G1 X3.0929 Y0.3754
G1 X3.0991 Y0.3816 F8
G1 X0.3571 Y0.3816 F8
G1 X0.3571 Y0.3571
G1 X3.0991 Y0.3571
G1 X3.0991 Y0.3816
G1 X3.1054 Y0.3879 F8
G1 X0.3509 Y0.3879 F8
G1 X0.3509 Y0.3509
G1 X3.1054 Y0.3509
G1 X3.1054 Y0.3879
G1 X3.1116 Y0.3941 F8
G1 X0.3446 Y0.3941 F8
G1 X0.3446 Y0.3446
G1 X3.1116 Y0.3446
G1 X3.1116 Y0.3941
G1 X3.1179 Y0.4004 F8
G1 X0.3384 Y0.4004 F8
G1 X0.3384 Y0.3384
G1 X3.1179 Y0.3384
G1 X3.1179 Y0.4004
G1 X3.1241 Y0.4066 F8
G1 X0.3321 Y0.4066 F8
G1 X0.3321 Y0.3321
G1 X3.1241 Y0.3321
G1 X3.1241 Y0.4066
G1 X3.1304 Y0.4129 F8
G1 X0.3259 Y0.4129 F8
G1 X0.3259 Y0.3259
G1 X3.1304 Y0.3259
G1 X3.1304 Y0.4129
G1 X3.1366 Y0.4191 F8
G1 X0.3196 Y0.4191 F8
G1 X0.3196 Y0.3196
G1 X3.1366 Y0.3196
G1 X3.1366 Y0.4191
G1 X3.1429 Y0.4254 F8
G1 X0.3134 Y0.4254 F8
G1 X0.3134 Y0.3134
G1 X3.1429 Y0.3134
G1 X3.1429 Y0.4254
G0 Z0.25
G0 X3.0929 Y0.3754
G1 Z-0.6 F4
G1 X0.3634 Y0.3754 F8
G1 X0.3634 Y0.3634
G1 X3.0929 Y0.3634
G1 X3.0929 Y0.3754
G1 X3.0991 Y0.3816 F8
G1 X0.3571 Y0.3816 F8
G1 X0.3571 Y0.3571
G1 X3.0991 Y0.3571
G1 X3.0991 Y0.3816
G1 X3.1054 Y0.3879 F8
G1 X0.3509 Y0.3879 F8
G1 X0.3509 Y0.3509
G1 X3.1054 Y0.3509
G1 X3.1054 Y0.3879
G1 X3.1116 Y0.3941 F8
G1 X0.3446 Y0.3941 F8
G1 X0.3446 Y0.3446
G1 X3.1116 Y0.3446
G1 X3.1116 Y0.3941
G1 X3.1179 Y0.4004 F8
G1 X0.3384 Y0.4004 F8
G1 X0.3384 Y0.3384
G1 X3.1179 Y0.3384
G1 X3.1179 Y0.4004
G1 X3.1241 Y0.4066 F8
G1 X0.3321 Y0.4066 F8
G1 X0.3321 Y0.3321
G1 X3.1241 Y0.3321
G1 X3.1241 Y0.4066
G1 X3.1304 Y0.4129 F8
G1 X0.3259 Y0.4129 F8
G1 X0.3259 Y0.3259
G1 X3.1304 Y0.3259
G1 X3.1304 Y0.4129
G1 X3.1366 Y0.4191 F8
G1 X0.3196 Y0.4191 F8
G1 X0.3196 Y0.3196
G1 X3.1366 Y0.3196
G1 X3.1366 Y0.4191
G1 X3.1429 Y0.4254 F8
G1 X0.3134 Y0.4254 F8
G1 X0.3134 Y0.3134
G1 X3.1429 Y0.3134
G1 X3.1429 Y0.4254
G0 Z0.25
G0 X3.0929 Y0.3754
G1 Z-0.65 F4
G1 X0.3634 Y0.3754 F8
G1 X0.3634 Y0.3634
G1 X3.0929 Y0.3634
G1 X3.0929 Y0.3754
G1 X3.0991 Y0.3816 F8
G1 X0.3571 Y0.3816 F8
G1 X0.3571 Y0.3571
G1 X3.0991 Y0.3571
G1 X3.0991 Y0.3816
G1 X3.1054 Y0.3879 F8
G1 X0.3509 Y0.3879 F8
G1 X0.3509 Y0.3509
G1 X3.1054 Y0.3509
G1 X3.1054 Y0.3879
G1 X3.1116 Y0.3941 F8
G1 X0.3446 Y0.3941 F8
G1 X0.3446 Y0.3446
G1 X3.1116 Y0.3446
G1 X3.1116 Y0.3941
G1 X3.1179 Y0.4004 F8
G1 X0.3384 Y0.4004 F8
G1 X0.3384 Y0.3384
G1 X3.1179 Y0.3384
G1 X3.1179 Y0.4004
G1 X3.1241 Y0.4066 F8
G1 X0.3321 Y0.4066 F8
G1 X0.3321 Y0.3321
G1 X3.1241 Y0.3321
G1 X3.1241 Y0.4066
G1 X3.1304 Y0.4129 F8
G1 X0.3259 Y0.4129 F8
G1 X0.3259 Y0.3259
G1 X3.1304 Y0.3259
G1 X3.1304 Y0.4129
G1 X3.1366 Y0.4191 F8
G1 X0.3196 Y0.4191 F8
G1 X0.3196 Y0.3196
G1 X3.1366 Y0.3196
G1 X3.1366 Y0.4191
G1 X3.1429 Y0.4254 F8
G1 X0.3134 Y0.4254 F8
G1 X0.3134 Y0.3134
G1 X3.1429 Y0.3134
G1 X3.1429 Y0.4254
G0 Z0.25
G0 X3.0929 Y0.3754
G1 Z-0.7 F4
G1 X0.3634 Y0.3754 F8
G1 X0.3634 Y0.3634
G1 X3.0929 Y0.3634
G1 X3.0929 Y0.3754
G1 X3.0991 Y0.3816 F8
G1 X0.3571 Y0.3816 F8
G1 X0.3571 Y0.3571
G1 X3.0991 Y0.3571
G1 X3.0991 Y0.3816
G1 X3.1054 Y0.3879 F8
G1 X0.3509 Y0.3879 F8
G1 X0.3509 Y0.3509
G1 X3.1054 Y0.3509
G1 X3.1054 Y0.3879
G1 X3.1116 Y0.3941 F8
G1 X0.3446 Y0.3941 F8
G1 X0.3446 Y0.3446
G1 X3.1116 Y0.3446
G1 X3.1116 Y0.3941
G1 X3.1179 Y0.4004 F8
G1 X0.3384 Y0.4004 F8
G1 X0.3384 Y0.3384
G1 X3.1179 Y0.3384
G1 X3.1179 Y0.4004
G1 X3.1241 Y0.4066 F8
G1 X0.3321 Y0.4066 F8
G1 X0.3321 Y0.3321
G1 X3.1241 Y0.3321
G1 X3.1241 Y0.4066
G1 X3.1304 Y0.4129 F8
G1 X0.3259 Y0.4129 F8
G1 X0.3259 Y0.3259
G1 X3.1304 Y0.3259
G1 X3.1304 Y0.4129
G1 X3.1366 Y0.4191 F8
G1 X0.3196 Y0.4191 F8
G1 X0.3196 Y0.3196
G1 X3.1366 Y0.3196
G1 X3.1366 Y0.4191
G1 X3.1429 Y0.4254 F8
G1 X0.3134 Y0.4254 F8
G1 X0.3134 Y0.3134
G1 X3.1429 Y0.3134
G1 X3.1429 Y0.4254
G0 Z0.25
G0 X3.0929 Y0.3754
G1 Z-0.75 F4
G1 X0.3634 Y0.3754 F8
G1 X0.3634 Y0.3634
G1 X3.0929 Y0.3634
G1 X3.0929 Y0.3754
G1 X3.0991 Y0.3816 F8
G1 X0.3571 Y0.3816 F8
G1 X0.3571 Y0.3571
G1 X3.0991 Y0.3571
G1 X3.0991 Y0.3816
G1 X3.1054 Y0.3879 F8
G1 X0.3509 Y0.3879 F8
G1 X0.3509 Y0.3509
G1 X3.1054 Y0.3509
G1 X3.1054 Y0.3879
G1 X3.1116 Y0.3941 F8
G1 X0.3446 Y0.3941 F8
G1 X0.3446 Y0.3446
G1 X3.1116 Y0.3446
G1 X3.1116 Y0.3941
G1 X3.1179 Y0.4004 F8
G1 X0.3384 Y0.4004 F8
G1 X0.3384 Y0.3384
G1 X3.1179 Y0.3384
G1 X3.1179 Y0.4004
G1 X3.1241 Y0.4066 F8
G1 X0.3321 Y0.4066 F8
G1 X0.3321 Y0.3321
G1 X3.1241 Y0.3321
G1 X3.1241 Y0.4066
G1 X3.1304 Y0.4129 F8
G1 X0.3259 Y0.4129 F8
G1 X0.3259 Y0.3259
G1 X3.1304 Y0.3259
G1 X3.1304 Y0.4129
G1 X3.1366 Y0.4191 F8
G1 X0.3196 Y0.4191 F8
G1 X0.3196 Y0.3196
G1 X3.1366 Y0.3196
G1 X3.1366 Y0.4191
G1 X3.1429 Y0.4254 F8
G1 X0.3134 Y0.4254 F8
G1 X0.3134 Y0.3134
G1 X3.1429 Y0.3134
G1 X3.1429 Y0.4254
G0 Z0.25
G0 X3.0929 Y0.3754
G1 Z-0.8 F4
G1 X0.3634 Y0.3754 F8
G1 X0.3634 Y0.3634
G1 X3.0929 Y0.3634
G1 X3.0929 Y0.3754
G1 X3.0991 Y0.3816 F8
G1 X0.3571 Y0.3816 F8
G1 X0.3571 Y0.3571
G1 X3.0991 Y0.3571
G1 X3.0991 Y0.3816
G1 X3.1054 Y0.3879 F8
G1 X0.3509 Y0.3879 F8
G1 X0.3509 Y0.3509
G1 X3.1054 Y0.3509
G1 X3.1054 Y0.3879
G1 X3.1116 Y0.3941 F8
G1 X0.3446 Y0.3941 F8
G1 X0.3446 Y0.3446
G1 X3.1116 Y0.3446
G1 X3.1116 Y0.3941
G1 X3.1179 Y0.4004 F8
G1 X0.3384 Y0.4004 F8
G1 X0.3384 Y0.3384
G1 X3.1179 Y0.3384
G1 X3.1179 Y0.4004
G1 X3.1241 Y0.4066 F8
G1 X0.3321 Y0.4066 F8
G1 X0.3321 Y0.3321
G1 X3.1241 Y0.3321
G1 X3.1241 Y0.4066
G1 X3.1304 Y0.4129 F8
G1 X0.3259 Y0.4129 F8
G1 X0.3259 Y0.3259
G1 X3.1304 Y0.3259
G1 X3.1304 Y0.4129
G1 X3.1366 Y0.4191 F8
G1 X0.3196 Y0.4191 F8
G1 X0.3196 Y0.3196
G1 X3.1366 Y0.3196
G1 X3.1366 Y0.4191
G1 X3.1429 Y0.4254 F8
G1 X0.3134 Y0.4254 F8
G1 X0.3134 Y0.3134
G1 X3.1429 Y0.3134
G1 X3.1429 Y0.4254
G0 Z0.25
M5
M30
