(Generated by PartKam Version 0.05)

G20 G90 G40

(top_pocket)
G0 Z0.25
T0 M6
G17
M3
G0 X0.2507 Y0.2507
G1 Z-0.1 F4
G1 X2.5143 Y0.2507 F12
G1 X2.5143 Y0.3403
G1 X0.2507 Y0.3403
G1 X0.2507 Y0.2507
G0 Z0.25
G0 X0.2507 Y0.2507
G1 Z-0.2 F4
G1 X2.5143 Y0.2507 F12
G1 X2.5143 Y0.3403
G1 X0.2507 Y0.3403
G1 X0.2507 Y0.2507
G0 Z0.25
G0 X0.2507 Y0.2507
G1 Z-0.3 F4
G1 X2.5143 Y0.2507 F12
G1 X2.5143 Y0.3403
G1 X0.2507 Y0.3403
G1 X0.2507 Y0.2507
G0 Z0.25
G0 X0.2507 Y0.2507
G1 Z-0.4 F4
G1 X2.5143 Y0.2507 F12
G1 X2.5143 Y0.3403
G1 X0.2507 Y0.3403
G1 X0.2507 Y0.2507
G0 Z0.25
G0 X0.2507 Y0.2507
G1 Z-0.5 F4
G1 X2.5143 Y0.2507 F12
G1 X2.5143 Y0.3403
G1 X0.2507 Y0.3403
G1 X0.2507 Y0.2507
G0 Z0.25
G0 X0.2507 Y0.2507
G1 Z-0.6 F4
G1 X2.5143 Y0.2507 F12
G1 X2.5143 Y0.3403
G1 X0.2507 Y0.3403
G1 X0.2507 Y0.2507
G0 Z0.25
G0 X0.2507 Y0.2507
G1 Z-0.7 F4
G1 X2.5143 Y0.2507 F12
G1 X2.5143 Y0.3403
G1 X0.2507 Y0.3403
G1 X0.2507 Y0.2507
G0 Z0.25
G0 X0.2507 Y0.2507
G1 Z-0.8 F4
G1 X2.5143 Y0.2507 F12
G1 X2.5143 Y0.3403
G1 X0.2507 Y0.3403
G1 X0.2507 Y0.2507
G0 Z0.25
M5
M30
