(Generated by PartKam Version 0.05)

G20 G90 G40

(top_scary_pockets)
G0 Z0.5
T0 M6
G17
M3
G0 X2.2583 Y0.253
G1 Z-0.9 F4
G3 X2.2622 Y0.2334 I0.0513 J0 F12
G3 X2.2733 Y0.2168 I0.0474 J0.0196
G3 X2.29 Y0.2057 I0.0362 J0.0362
G3 X2.3095 Y0.2018 I0.0196 J0.0473
G3 X2.3291 Y0.2057 I0 J0.0512
G3 X2.3457 Y0.2168 I-0.0196 J0.0473
G3 X2.3568 Y0.2334 I-0.0362 J0.0362
G3 X2.3607 Y0.253 I-0.0474 J0.0196
G3 X2.3568 Y0.2727 I-0.0513 J0
G3 X2.3457 Y0.2893 I-0.0474 J-0.0196
G3 X2.3291 Y0.3004 I-0.0362 J-0.0362
G3 X2.3095 Y0.3043 I-0.0196 J-0.0473
G3 X2.29 Y0.3004 I0 J-0.0512
G3 X2.2733 Y0.2893 I0.0196 J-0.0473
G3 X2.2622 Y0.2727 I0.0362 J-0.0362
G3 X2.2583 Y0.253 I0.0474 J-0.0196
G1 X2.1953 Y0.253 F12
G3 X2.204 Y0.2093 I0.1143 J0 F12
G3 X2.2288 Y0.1722 I0.1055 J0.0437
G3 X2.2658 Y0.1475 I0.0808 J0.0807
G3 X2.3095 Y0.1388 I0.0437 J0.1055
G3 X2.3532 Y0.1475 I0 J0.1141
G3 X2.3903 Y0.1722 I-0.0437 J0.1055
G3 X2.415 Y0.2093 I-0.0808 J0.0808
G3 X2.4237 Y0.253 I-0.1056 J0.0437
G3 X2.415 Y0.2968 I-0.1143 J0
G3 X2.3903 Y0.3338 I-0.1055 J-0.0437
G3 X2.3532 Y0.3586 I-0.0808 J-0.0807
G3 X2.3095 Y0.3673 I-0.0437 J-0.1055
G3 X2.2658 Y0.3586 I0 J-0.1141
G3 X2.2288 Y0.3338 I0.0437 J-0.1055
G3 X2.204 Y0.2968 I0.0808 J-0.0808
G3 X2.1953 Y0.253 I0.1056 J-0.0437
G0 Z0.5
G0 X0.5028 Y0.2334
G1 Z-0.9 F4
G3 X0.5067 Y0.253 I-0.0474 J0.0196 F12
G3 X0.5028 Y0.2727 I-0.0513 J0
G3 X0.4917 Y0.2893 I-0.0474 J-0.0196
G3 X0.4751 Y0.3004 I-0.0362 J-0.0362
G3 X0.4555 Y0.3043 I-0.0196 J-0.0473
G3 X0.436 Y0.3004 I0 J-0.0512
G3 X0.4193 Y0.2893 I0.0196 J-0.0473
G3 X0.4082 Y0.2727 I0.0362 J-0.0362
G3 X0.4043 Y0.253 I0.0474 J-0.0196
G3 X0.4082 Y0.2334 I0.0513 J0
G3 X0.4193 Y0.2168 I0.0474 J0.0196
G3 X0.436 Y0.2057 I0.0362 J0.0362
G3 X0.4555 Y0.2018 I0.0196 J0.0473
G3 X0.4751 Y0.2057 I0 J0.0512
G3 X0.4917 Y0.2168 I-0.0196 J0.0473
G3 X0.5028 Y0.2334 I-0.0362 J0.0362
G1 X0.561 Y0.2093 F12
G3 X0.5697 Y0.253 I-0.1056 J0.0437 F12
G3 X0.561 Y0.2968 I-0.1143 J0
G3 X0.5363 Y0.3338 I-0.1055 J-0.0437
G3 X0.4992 Y0.3586 I-0.0808 J-0.0807
G3 X0.4555 Y0.3673 I-0.0437 J-0.1055
G3 X0.4118 Y0.3586 I0 J-0.1141
G3 X0.3748 Y0.3338 I0.0437 J-0.1055
G3 X0.35 Y0.2968 I0.0808 J-0.0808
G3 X0.3413 Y0.253 I0.1056 J-0.0437
G3 X0.35 Y0.2093 I0.1143 J0
G3 X0.3748 Y0.1722 I0.1055 J0.0437
G3 X0.4118 Y0.1475 I0.0808 J0.0807
G3 X0.4555 Y0.1388 I0.0437 J0.1055
G3 X0.4992 Y0.1475 I0 J0.1141
G3 X0.5363 Y0.1722 I-0.0437 J0.1055
G3 X0.561 Y0.2093 I-0.0808 J0.0808
G0 Z0.5
G0 X2.2583 Y0.253
G1 Z-1 F4
G3 X2.2622 Y0.2334 I0.0513 J0 F12
G3 X2.2733 Y0.2168 I0.0474 J0.0196
G3 X2.29 Y0.2057 I0.0362 J0.0362
G3 X2.3095 Y0.2018 I0.0196 J0.0473
G3 X2.3291 Y0.2057 I0 J0.0512
G3 X2.3457 Y0.2168 I-0.0196 J0.0473
G3 X2.3568 Y0.2334 I-0.0362 J0.0362
G3 X2.3607 Y0.253 I-0.0474 J0.0196
G3 X2.3568 Y0.2727 I-0.0513 J0
G3 X2.3457 Y0.2893 I-0.0474 J-0.0196
G3 X2.3291 Y0.3004 I-0.0362 J-0.0362
G3 X2.3095 Y0.3043 I-0.0196 J-0.0473
G3 X2.29 Y0.3004 I0 J-0.0512
G3 X2.2733 Y0.2893 I0.0196 J-0.0473
G3 X2.2622 Y0.2727 I0.0362 J-0.0362
G3 X2.2583 Y0.253 I0.0474 J-0.0196
G1 X2.1953 Y0.253 F12
G3 X2.204 Y0.2093 I0.1143 J0 F12
G3 X2.2288 Y0.1722 I0.1055 J0.0437
G3 X2.2658 Y0.1475 I0.0808 J0.0807
G3 X2.3095 Y0.1388 I0.0437 J0.1055
G3 X2.3532 Y0.1475 I0 J0.1141
G3 X2.3903 Y0.1722 I-0.0437 J0.1055
G3 X2.415 Y0.2093 I-0.0808 J0.0808
G3 X2.4237 Y0.253 I-0.1056 J0.0437
G3 X2.415 Y0.2968 I-0.1143 J0
G3 X2.3903 Y0.3338 I-0.1055 J-0.0437
G3 X2.3532 Y0.3586 I-0.0808 J-0.0807
G3 X2.3095 Y0.3673 I-0.0437 J-0.1055
G3 X2.2658 Y0.3586 I0 J-0.1141
G3 X2.2288 Y0.3338 I0.0437 J-0.1055
G3 X2.204 Y0.2968 I0.0808 J-0.0808
G3 X2.1953 Y0.253 I0.1056 J-0.0437
G0 Z0.5
G0 X0.5028 Y0.2334
G1 Z-1 F4
G3 X0.5067 Y0.253 I-0.0474 J0.0196 F12
G3 X0.5028 Y0.2727 I-0.0513 J0
G3 X0.4917 Y0.2893 I-0.0474 J-0.0196
G3 X0.4751 Y0.3004 I-0.0362 J-0.0362
G3 X0.4555 Y0.3043 I-0.0196 J-0.0473
G3 X0.436 Y0.3004 I0 J-0.0512
G3 X0.4193 Y0.2893 I0.0196 J-0.0473
G3 X0.4082 Y0.2727 I0.0362 J-0.0362
G3 X0.4043 Y0.253 I0.0474 J-0.0196
G3 X0.4082 Y0.2334 I0.0513 J0
G3 X0.4193 Y0.2168 I0.0474 J0.0196
G3 X0.436 Y0.2057 I0.0362 J0.0362
G3 X0.4555 Y0.2018 I0.0196 J0.0473
G3 X0.4751 Y0.2057 I0 J0.0512
G3 X0.4917 Y0.2168 I-0.0196 J0.0473
G3 X0.5028 Y0.2334 I-0.0362 J0.0362
G1 X0.561 Y0.2093 F12
G3 X0.5697 Y0.253 I-0.1056 J0.0437 F12
G3 X0.561 Y0.2968 I-0.1143 J0
G3 X0.5363 Y0.3338 I-0.1055 J-0.0437
G3 X0.4992 Y0.3586 I-0.0808 J-0.0807
G3 X0.4555 Y0.3673 I-0.0437 J-0.1055
G3 X0.4118 Y0.3586 I0 J-0.1141
G3 X0.3748 Y0.3338 I0.0437 J-0.1055
G3 X0.35 Y0.2968 I0.0808 J-0.0808
G3 X0.3413 Y0.253 I0.1056 J-0.0437
G3 X0.35 Y0.2093 I0.1143 J0
G3 X0.3748 Y0.1722 I0.1055 J0.0437
G3 X0.4118 Y0.1475 I0.0808 J0.0807
G3 X0.4555 Y0.1388 I0.0437 J0.1055
G3 X0.4992 Y0.1475 I0 J0.1141
G3 X0.5363 Y0.1722 I-0.0437 J0.1055
G3 X0.561 Y0.2093 I-0.0808 J0.0808
G0 Z0.5
G0 X2.2583 Y0.253
G1 Z-1.1 F4
G3 X2.2622 Y0.2334 I0.0513 J0 F12
G3 X2.2733 Y0.2168 I0.0474 J0.0196
G3 X2.29 Y0.2057 I0.0362 J0.0362
G3 X2.3095 Y0.2018 I0.0196 J0.0473
G3 X2.3291 Y0.2057 I0 J0.0512
G3 X2.3457 Y0.2168 I-0.0196 J0.0473
G3 X2.3568 Y0.2334 I-0.0362 J0.0362
G3 X2.3607 Y0.253 I-0.0474 J0.0196
G3 X2.3568 Y0.2727 I-0.0513 J0
G3 X2.3457 Y0.2893 I-0.0474 J-0.0196
G3 X2.3291 Y0.3004 I-0.0362 J-0.0362
G3 X2.3095 Y0.3043 I-0.0196 J-0.0473
G3 X2.29 Y0.3004 I0 J-0.0512
G3 X2.2733 Y0.2893 I0.0196 J-0.0473
G3 X2.2622 Y0.2727 I0.0362 J-0.0362
G3 X2.2583 Y0.253 I0.0474 J-0.0196
G1 X2.1953 Y0.253 F12
G3 X2.204 Y0.2093 I0.1143 J0 F12
G3 X2.2288 Y0.1722 I0.1055 J0.0437
G3 X2.2658 Y0.1475 I0.0808 J0.0807
G3 X2.3095 Y0.1388 I0.0437 J0.1055
G3 X2.3532 Y0.1475 I0 J0.1141
G3 X2.3903 Y0.1722 I-0.0437 J0.1055
G3 X2.415 Y0.2093 I-0.0808 J0.0808
G3 X2.4237 Y0.253 I-0.1056 J0.0437
G3 X2.415 Y0.2968 I-0.1143 J0
G3 X2.3903 Y0.3338 I-0.1055 J-0.0437
G3 X2.3532 Y0.3586 I-0.0808 J-0.0807
G3 X2.3095 Y0.3673 I-0.0437 J-0.1055
G3 X2.2658 Y0.3586 I0 J-0.1141
G3 X2.2288 Y0.3338 I0.0437 J-0.1055
G3 X2.204 Y0.2968 I0.0808 J-0.0808
G3 X2.1953 Y0.253 I0.1056 J-0.0437
G0 Z0.5
G0 X0.5028 Y0.2334
G1 Z-1.1 F4
G3 X0.5067 Y0.253 I-0.0474 J0.0196 F12
G3 X0.5028 Y0.2727 I-0.0513 J0
G3 X0.4917 Y0.2893 I-0.0474 J-0.0196
G3 X0.4751 Y0.3004 I-0.0362 J-0.0362
G3 X0.4555 Y0.3043 I-0.0196 J-0.0473
G3 X0.436 Y0.3004 I0 J-0.0512
G3 X0.4193 Y0.2893 I0.0196 J-0.0473
G3 X0.4082 Y0.2727 I0.0362 J-0.0362
G3 X0.4043 Y0.253 I0.0474 J-0.0196
G3 X0.4082 Y0.2334 I0.0513 J0
G3 X0.4193 Y0.2168 I0.0474 J0.0196
G3 X0.436 Y0.2057 I0.0362 J0.0362
G3 X0.4555 Y0.2018 I0.0196 J0.0473
G3 X0.4751 Y0.2057 I0 J0.0512
G3 X0.4917 Y0.2168 I-0.0196 J0.0473
G3 X0.5028 Y0.2334 I-0.0362 J0.0362
G1 X0.561 Y0.2093 F12
G3 X0.5697 Y0.253 I-0.1056 J0.0437 F12
G3 X0.561 Y0.2968 I-0.1143 J0
G3 X0.5363 Y0.3338 I-0.1055 J-0.0437
G3 X0.4992 Y0.3586 I-0.0808 J-0.0807
G3 X0.4555 Y0.3673 I-0.0437 J-0.1055
G3 X0.4118 Y0.3586 I0 J-0.1141
G3 X0.3748 Y0.3338 I0.0437 J-0.1055
G3 X0.35 Y0.2968 I0.0808 J-0.0808
G3 X0.3413 Y0.253 I0.1056 J-0.0437
G3 X0.35 Y0.2093 I0.1143 J0
G3 X0.3748 Y0.1722 I0.1055 J0.0437
G3 X0.4118 Y0.1475 I0.0808 J0.0807
G3 X0.4555 Y0.1388 I0.0437 J0.1055
G3 X0.4992 Y0.1475 I0 J0.1141
G3 X0.5363 Y0.1722 I-0.0437 J0.1055
G3 X0.561 Y0.2093 I-0.0808 J0.0808
G0 Z0.5
G0 X2.2583 Y0.253
G1 Z-1.15 F4
G3 X2.2622 Y0.2334 I0.0513 J0 F12
G3 X2.2733 Y0.2168 I0.0474 J0.0196
G3 X2.29 Y0.2057 I0.0362 J0.0362
G3 X2.3095 Y0.2018 I0.0196 J0.0473
G3 X2.3291 Y0.2057 I0 J0.0512
G3 X2.3457 Y0.2168 I-0.0196 J0.0473
G3 X2.3568 Y0.2334 I-0.0362 J0.0362
G3 X2.3607 Y0.253 I-0.0474 J0.0196
G3 X2.3568 Y0.2727 I-0.0513 J0
G3 X2.3457 Y0.2893 I-0.0474 J-0.0196
G3 X2.3291 Y0.3004 I-0.0362 J-0.0362
G3 X2.3095 Y0.3043 I-0.0196 J-0.0473
G3 X2.29 Y0.3004 I0 J-0.0512
G3 X2.2733 Y0.2893 I0.0196 J-0.0473
G3 X2.2622 Y0.2727 I0.0362 J-0.0362
G3 X2.2583 Y0.253 I0.0474 J-0.0196
G1 X2.1953 Y0.253 F12
G3 X2.204 Y0.2093 I0.1143 J0 F12
G3 X2.2288 Y0.1722 I0.1055 J0.0437
G3 X2.2658 Y0.1475 I0.0808 J0.0807
G3 X2.3095 Y0.1388 I0.0437 J0.1055
G3 X2.3532 Y0.1475 I0 J0.1141
G3 X2.3903 Y0.1722 I-0.0437 J0.1055
G3 X2.415 Y0.2093 I-0.0808 J0.0808
G3 X2.4237 Y0.253 I-0.1056 J0.0437
G3 X2.415 Y0.2968 I-0.1143 J0
G3 X2.3903 Y0.3338 I-0.1055 J-0.0437
G3 X2.3532 Y0.3586 I-0.0808 J-0.0807
G3 X2.3095 Y0.3673 I-0.0437 J-0.1055
G3 X2.2658 Y0.3586 I0 J-0.1141
G3 X2.2288 Y0.3338 I0.0437 J-0.1055
G3 X2.204 Y0.2968 I0.0808 J-0.0808
G3 X2.1953 Y0.253 I0.1056 J-0.0437
G0 Z0.5
G0 X0.5028 Y0.2334
G1 Z-1.15 F4
G3 X0.5067 Y0.253 I-0.0474 J0.0196 F12
G3 X0.5028 Y0.2727 I-0.0513 J0
G3 X0.4917 Y0.2893 I-0.0474 J-0.0196
G3 X0.4751 Y0.3004 I-0.0362 J-0.0362
G3 X0.4555 Y0.3043 I-0.0196 J-0.0473
G3 X0.436 Y0.3004 I0 J-0.0512
G3 X0.4193 Y0.2893 I0.0196 J-0.0473
G3 X0.4082 Y0.2727 I0.0362 J-0.0362
G3 X0.4043 Y0.253 I0.0474 J-0.0196
G3 X0.4082 Y0.2334 I0.0513 J0
G3 X0.4193 Y0.2168 I0.0474 J0.0196
G3 X0.436 Y0.2057 I0.0362 J0.0362
G3 X0.4555 Y0.2018 I0.0196 J0.0473
G3 X0.4751 Y0.2057 I0 J0.0512
G3 X0.4917 Y0.2168 I-0.0196 J0.0473
G3 X0.5028 Y0.2334 I-0.0362 J0.0362
G1 X0.561 Y0.2093 F12
G3 X0.5697 Y0.253 I-0.1056 J0.0437 F12
G3 X0.561 Y0.2968 I-0.1143 J0
G3 X0.5363 Y0.3338 I-0.1055 J-0.0437
G3 X0.4992 Y0.3586 I-0.0808 J-0.0807
G3 X0.4555 Y0.3673 I-0.0437 J-0.1055
G3 X0.4118 Y0.3586 I0 J-0.1141
G3 X0.3748 Y0.3338 I0.0437 J-0.1055
G3 X0.35 Y0.2968 I0.0808 J-0.0808
G3 X0.3413 Y0.253 I0.1056 J-0.0437
G3 X0.35 Y0.2093 I0.1143 J0
G3 X0.3748 Y0.1722 I0.1055 J0.0437
G3 X0.4118 Y0.1475 I0.0808 J0.0807
G3 X0.4555 Y0.1388 I0.0437 J0.1055
G3 X0.4992 Y0.1475 I0 J0.1141
G3 X0.5363 Y0.1722 I-0.0437 J0.1055
G3 X0.561 Y0.2093 I-0.0808 J0.0808
G0 Z0.5
M5
M30
