(Generated by PartKam Version 0.05)

G20 G90 G40

(bearing_pocket)
G0 Z0
T0 M6
G17
M3
G0 X1.3262 Y1.2035
G1 Z-0.1 F4
G3 X1.3215 Y1.18 I0.0566 J-0.0235 F12
G3 X1.3262 Y1.1566 I0.0613 J0
G3 X1.3394 Y1.1367 I0.0565 J0.0234
G3 X1.3592 Y1.1235 I0.0432 J0.0432
G3 X1.3825 Y1.1189 I0.0233 J0.0563
G3 X1.4058 Y1.1235 I0 J0.0609
G3 X1.4256 Y1.1367 I-0.0234 J0.0564
G3 X1.4389 Y1.1566 I-0.0432 J0.0432
G3 X1.4436 Y1.18 I-0.0566 J0.0235
G3 X1.4389 Y1.2035 I-0.0613 J0
G3 X1.4256 Y1.2233 I-0.0565 J-0.0234
G3 X1.4058 Y1.2365 I-0.0432 J-0.0432
G3 X1.3825 Y1.2412 I-0.0233 J-0.0563
G3 X1.3592 Y1.2365 I0 J-0.0609
G3 X1.3394 Y1.2233 I0.0234 J-0.0564
G3 X1.3262 Y1.2035 I0.0432 J-0.0432
G1 X1.1414 Y1.28 F12
G3 X1.1215 Y1.18 I0.2414 J-0.1 F12
G3 X1.1414 Y1.0801 I0.2613 J0
G3 X1.198 Y0.9953 I0.2413 J0.0999
G3 X1.2827 Y0.9387 I0.1846 J0.1846
G3 X1.3825 Y0.9189 I0.0999 J0.241
G3 X1.4824 Y0.9387 I0 J0.2609
G3 X1.5671 Y0.9953 I-0.0999 J0.2412
G3 X1.6237 Y1.0801 I-0.1847 J0.1846
G3 X1.6436 Y1.18 I-0.2414 J0.1
G3 X1.6237 Y1.28 I-0.2613 J0
G3 X1.5671 Y1.3647 I-0.2413 J-0.0999
G3 X1.4824 Y1.4213 I-0.1846 J-0.1846
G3 X1.3825 Y1.4412 I-0.0999 J-0.241
G3 X1.2827 Y1.4213 I0 J-0.2609
G3 X1.198 Y1.3647 I0.0999 J-0.2412
G3 X1.1414 Y1.28 I0.1847 J-0.1846
G0 Z0
G0 X1.3262 Y1.2035
G1 Z-0.2 F4
G3 X1.3215 Y1.18 I0.0566 J-0.0235 F12
G3 X1.3262 Y1.1566 I0.0613 J0
G3 X1.3394 Y1.1367 I0.0565 J0.0234
G3 X1.3592 Y1.1235 I0.0432 J0.0432
G3 X1.3825 Y1.1189 I0.0233 J0.0563
G3 X1.4058 Y1.1235 I0 J0.0609
G3 X1.4256 Y1.1367 I-0.0234 J0.0564
G3 X1.4389 Y1.1566 I-0.0432 J0.0432
G3 X1.4436 Y1.18 I-0.0566 J0.0235
G3 X1.4389 Y1.2035 I-0.0613 J0
G3 X1.4256 Y1.2233 I-0.0565 J-0.0234
G3 X1.4058 Y1.2365 I-0.0432 J-0.0432
G3 X1.3825 Y1.2412 I-0.0233 J-0.0563
G3 X1.3592 Y1.2365 I0 J-0.0609
G3 X1.3394 Y1.2233 I0.0234 J-0.0564
G3 X1.3262 Y1.2035 I0.0432 J-0.0432
G1 X1.1414 Y1.28 F12
G3 X1.1215 Y1.18 I0.2414 J-0.1 F12
G3 X1.1414 Y1.0801 I0.2613 J0
G3 X1.198 Y0.9953 I0.2413 J0.0999
G3 X1.2827 Y0.9387 I0.1846 J0.1846
G3 X1.3825 Y0.9189 I0.0999 J0.241
G3 X1.4824 Y0.9387 I0 J0.2609
G3 X1.5671 Y0.9953 I-0.0999 J0.2412
G3 X1.6237 Y1.0801 I-0.1847 J0.1846
G3 X1.6436 Y1.18 I-0.2414 J0.1
G3 X1.6237 Y1.28 I-0.2613 J0
G3 X1.5671 Y1.3647 I-0.2413 J-0.0999
G3 X1.4824 Y1.4213 I-0.1846 J-0.1846
G3 X1.3825 Y1.4412 I-0.0999 J-0.241
G3 X1.2827 Y1.4213 I0 J-0.2609
G3 X1.198 Y1.3647 I0.0999 J-0.2412
G3 X1.1414 Y1.28 I0.1847 J-0.1846
G0 Z0
G0 X1.3262 Y1.2035
G1 Z-0.3 F4
G3 X1.3215 Y1.18 I0.0566 J-0.0235 F12
G3 X1.3262 Y1.1566 I0.0613 J0
G3 X1.3394 Y1.1367 I0.0565 J0.0234
G3 X1.3592 Y1.1235 I0.0432 J0.0432
G3 X1.3825 Y1.1189 I0.0233 J0.0563
G3 X1.4058 Y1.1235 I0 J0.0609
G3 X1.4256 Y1.1367 I-0.0234 J0.0564
G3 X1.4389 Y1.1566 I-0.0432 J0.0432
G3 X1.4436 Y1.18 I-0.0566 J0.0235
G3 X1.4389 Y1.2035 I-0.0613 J0
G3 X1.4256 Y1.2233 I-0.0565 J-0.0234
G3 X1.4058 Y1.2365 I-0.0432 J-0.0432
G3 X1.3825 Y1.2412 I-0.0233 J-0.0563
G3 X1.3592 Y1.2365 I0 J-0.0609
G3 X1.3394 Y1.2233 I0.0234 J-0.0564
G3 X1.3262 Y1.2035 I0.0432 J-0.0432
G1 X1.1414 Y1.28 F12
G3 X1.1215 Y1.18 I0.2414 J-0.1 F12
G3 X1.1414 Y1.0801 I0.2613 J0
G3 X1.198 Y0.9953 I0.2413 J0.0999
G3 X1.2827 Y0.9387 I0.1846 J0.1846
G3 X1.3825 Y0.9189 I0.0999 J0.241
G3 X1.4824 Y0.9387 I0 J0.2609
G3 X1.5671 Y0.9953 I-0.0999 J0.2412
G3 X1.6237 Y1.0801 I-0.1847 J0.1846
G3 X1.6436 Y1.18 I-0.2414 J0.1
G3 X1.6237 Y1.28 I-0.2613 J0
G3 X1.5671 Y1.3647 I-0.2413 J-0.0999
G3 X1.4824 Y1.4213 I-0.1846 J-0.1846
G3 X1.3825 Y1.4412 I-0.0999 J-0.241
G3 X1.2827 Y1.4213 I0 J-0.2609
G3 X1.198 Y1.3647 I0.0999 J-0.2412
G3 X1.1414 Y1.28 I0.1847 J-0.1846
G0 Z0
G0 X1.3262 Y1.2035
G1 Z-0.364 F4
G3 X1.3215 Y1.18 I0.0566 J-0.0235 F12
G3 X1.3262 Y1.1566 I0.0613 J0
G3 X1.3394 Y1.1367 I0.0565 J0.0234
G3 X1.3592 Y1.1235 I0.0432 J0.0432
G3 X1.3825 Y1.1189 I0.0233 J0.0563
G3 X1.4058 Y1.1235 I0 J0.0609
G3 X1.4256 Y1.1367 I-0.0234 J0.0564
G3 X1.4389 Y1.1566 I-0.0432 J0.0432
G3 X1.4436 Y1.18 I-0.0566 J0.0235
G3 X1.4389 Y1.2035 I-0.0613 J0
G3 X1.4256 Y1.2233 I-0.0565 J-0.0234
G3 X1.4058 Y1.2365 I-0.0432 J-0.0432
G3 X1.3825 Y1.2412 I-0.0233 J-0.0563
G3 X1.3592 Y1.2365 I0 J-0.0609
G3 X1.3394 Y1.2233 I0.0234 J-0.0564
G3 X1.3262 Y1.2035 I0.0432 J-0.0432
G1 X1.1414 Y1.28 F12
G3 X1.1215 Y1.18 I0.2414 J-0.1 F12
G3 X1.1414 Y1.0801 I0.2613 J0
G3 X1.198 Y0.9953 I0.2413 J0.0999
G3 X1.2827 Y0.9387 I0.1846 J0.1846
G3 X1.3825 Y0.9189 I0.0999 J0.241
G3 X1.4824 Y0.9387 I0 J0.2609
G3 X1.5671 Y0.9953 I-0.0999 J0.2412
G3 X1.6237 Y1.0801 I-0.1847 J0.1846
G3 X1.6436 Y1.18 I-0.2414 J0.1
G3 X1.6237 Y1.28 I-0.2613 J0
G3 X1.5671 Y1.3647 I-0.2413 J-0.0999
G3 X1.4824 Y1.4213 I-0.1846 J-0.1846
G3 X1.3825 Y1.4412 I-0.0999 J-0.241
G3 X1.2827 Y1.4213 I0 J-0.2609
G3 X1.198 Y1.3647 I0.0999 J-0.2412
G3 X1.1414 Y1.28 I0.1847 J-0.1846

(pocket 3)
G0 Z0
G0 X1.4258 Y1.1621
G1 Z-0.1 F4
G3 X1.4294 Y1.18 I-0.0434 J0.018 F12
G3 X1.4258 Y1.198 I-0.047 J0
G3 X1.4156 Y1.2132 I-0.0433 J-0.0179
G3 X1.4004 Y1.2234 I-0.0331 J-0.0331
G3 X1.3825 Y1.2269 I-0.0179 J-0.0432
G3 X1.3646 Y1.2234 I0 J-0.0467
G3 X1.3495 Y1.2132 I0.0179 J-0.0433
G3 X1.3393 Y1.198 I0.0332 J-0.0332
G3 X1.3357 Y1.18 I0.0434 J-0.018
G3 X1.3393 Y1.1621 I0.047 J0
G3 X1.3495 Y1.1468 I0.0433 J0.0179
G3 X1.3646 Y1.1367 I0.0331 J0.0331
G3 X1.3825 Y1.1331 I0.0179 J0.0432
G3 X1.4004 Y1.1367 I0 J0.0467
G3 X1.4156 Y1.1468 I-0.0179 J0.0433
G3 X1.4258 Y1.1621 I-0.0332 J0.0332
G0 Z0
G0 X1.4258 Y1.1621
G1 Z-0.2 F4
G3 X1.4294 Y1.18 I-0.0434 J0.018 F12
G3 X1.4258 Y1.198 I-0.047 J0
G3 X1.4156 Y1.2132 I-0.0433 J-0.0179
G3 X1.4004 Y1.2234 I-0.0331 J-0.0331
G3 X1.3825 Y1.2269 I-0.0179 J-0.0432
G3 X1.3646 Y1.2234 I0 J-0.0467
G3 X1.3495 Y1.2132 I0.0179 J-0.0433
G3 X1.3393 Y1.198 I0.0332 J-0.0332
G3 X1.3357 Y1.18 I0.0434 J-0.018
G3 X1.3393 Y1.1621 I0.047 J0
G3 X1.3495 Y1.1468 I0.0433 J0.0179
G3 X1.3646 Y1.1367 I0.0331 J0.0331
G3 X1.3825 Y1.1331 I0.0179 J0.0432
G3 X1.4004 Y1.1367 I0 J0.0467
G3 X1.4156 Y1.1468 I-0.0179 J0.0433
G3 X1.4258 Y1.1621 I-0.0332 J0.0332
G0 Z0
G0 X1.4258 Y1.1621
G1 Z-0.3 F4
G3 X1.4294 Y1.18 I-0.0434 J0.018 F12
G3 X1.4258 Y1.198 I-0.047 J0
G3 X1.4156 Y1.2132 I-0.0433 J-0.0179
G3 X1.4004 Y1.2234 I-0.0331 J-0.0331
G3 X1.3825 Y1.2269 I-0.0179 J-0.0432
G3 X1.3646 Y1.2234 I0 J-0.0467
G3 X1.3495 Y1.2132 I0.0179 J-0.0433
G3 X1.3393 Y1.198 I0.0332 J-0.0332
G3 X1.3357 Y1.18 I0.0434 J-0.018
G3 X1.3393 Y1.1621 I0.047 J0
G3 X1.3495 Y1.1468 I0.0433 J0.0179
G3 X1.3646 Y1.1367 I0.0331 J0.0331
G3 X1.3825 Y1.1331 I0.0179 J0.0432
G3 X1.4004 Y1.1367 I0 J0.0467
G3 X1.4156 Y1.1468 I-0.0179 J0.0433
G3 X1.4258 Y1.1621 I-0.0332 J0.0332
G0 Z0
G0 X1.4258 Y1.1621
G1 Z-0.4 F4
G3 X1.4294 Y1.18 I-0.0434 J0.018 F12
G3 X1.4258 Y1.198 I-0.047 J0
G3 X1.4156 Y1.2132 I-0.0433 J-0.0179
G3 X1.4004 Y1.2234 I-0.0331 J-0.0331
G3 X1.3825 Y1.2269 I-0.0179 J-0.0432
G3 X1.3646 Y1.2234 I0 J-0.0467
G3 X1.3495 Y1.2132 I0.0179 J-0.0433
G3 X1.3393 Y1.198 I0.0332 J-0.0332
G3 X1.3357 Y1.18 I0.0434 J-0.018
G3 X1.3393 Y1.1621 I0.047 J0
G3 X1.3495 Y1.1468 I0.0433 J0.0179
G3 X1.3646 Y1.1367 I0.0331 J0.0331
G3 X1.3825 Y1.1331 I0.0179 J0.0432
G3 X1.4004 Y1.1367 I0 J0.0467
G3 X1.4156 Y1.1468 I-0.0179 J0.0433
G3 X1.4258 Y1.1621 I-0.0332 J0.0332
G0 Z0
G0 X1.4258 Y1.1621
G1 Z-0.5 F4
G3 X1.4294 Y1.18 I-0.0434 J0.018 F12
G3 X1.4258 Y1.198 I-0.047 J0
G3 X1.4156 Y1.2132 I-0.0433 J-0.0179
G3 X1.4004 Y1.2234 I-0.0331 J-0.0331
G3 X1.3825 Y1.2269 I-0.0179 J-0.0432
G3 X1.3646 Y1.2234 I0 J-0.0467
G3 X1.3495 Y1.2132 I0.0179 J-0.0433
G3 X1.3393 Y1.198 I0.0332 J-0.0332
G3 X1.3357 Y1.18 I0.0434 J-0.018
G3 X1.3393 Y1.1621 I0.047 J0
G3 X1.3495 Y1.1468 I0.0433 J0.0179
G3 X1.3646 Y1.1367 I0.0331 J0.0331
G3 X1.3825 Y1.1331 I0.0179 J0.0432
G3 X1.4004 Y1.1367 I0 J0.0467
G3 X1.4156 Y1.1468 I-0.0179 J0.0433
G3 X1.4258 Y1.1621 I-0.0332 J0.0332
G0 Z0
G0 X1.4258 Y1.1621
G1 Z-0.6 F4
G3 X1.4294 Y1.18 I-0.0434 J0.018 F12
G3 X1.4258 Y1.198 I-0.047 J0
G3 X1.4156 Y1.2132 I-0.0433 J-0.0179
G3 X1.4004 Y1.2234 I-0.0331 J-0.0331
G3 X1.3825 Y1.2269 I-0.0179 J-0.0432
G3 X1.3646 Y1.2234 I0 J-0.0467
G3 X1.3495 Y1.2132 I0.0179 J-0.0433
G3 X1.3393 Y1.198 I0.0332 J-0.0332
G3 X1.3357 Y1.18 I0.0434 J-0.018
G3 X1.3393 Y1.1621 I0.047 J0
G3 X1.3495 Y1.1468 I0.0433 J0.0179
G3 X1.3646 Y1.1367 I0.0331 J0.0331
G3 X1.3825 Y1.1331 I0.0179 J0.0432
G3 X1.4004 Y1.1367 I0 J0.0467
G3 X1.4156 Y1.1468 I-0.0179 J0.0433
G3 X1.4258 Y1.1621 I-0.0332 J0.0332
G0 Z0
G0 X1.4258 Y1.1621
G1 Z-0.7 F4
G3 X1.4294 Y1.18 I-0.0434 J0.018 F12
G3 X1.4258 Y1.198 I-0.047 J0
G3 X1.4156 Y1.2132 I-0.0433 J-0.0179
G3 X1.4004 Y1.2234 I-0.0331 J-0.0331
G3 X1.3825 Y1.2269 I-0.0179 J-0.0432
G3 X1.3646 Y1.2234 I0 J-0.0467
G3 X1.3495 Y1.2132 I0.0179 J-0.0433
G3 X1.3393 Y1.198 I0.0332 J-0.0332
G3 X1.3357 Y1.18 I0.0434 J-0.018
G3 X1.3393 Y1.1621 I0.047 J0
G3 X1.3495 Y1.1468 I0.0433 J0.0179
G3 X1.3646 Y1.1367 I0.0331 J0.0331
G3 X1.3825 Y1.1331 I0.0179 J0.0432
G3 X1.4004 Y1.1367 I0 J0.0467
G3 X1.4156 Y1.1468 I-0.0179 J0.0433
G3 X1.4258 Y1.1621 I-0.0332 J0.0332
G0 Z0
G0 X1.4258 Y1.1621
G1 Z-0.8 F4
G3 X1.4294 Y1.18 I-0.0434 J0.018 F12
G3 X1.4258 Y1.198 I-0.047 J0
G3 X1.4156 Y1.2132 I-0.0433 J-0.0179
G3 X1.4004 Y1.2234 I-0.0331 J-0.0331
G3 X1.3825 Y1.2269 I-0.0179 J-0.0432
G3 X1.3646 Y1.2234 I0 J-0.0467
G3 X1.3495 Y1.2132 I0.0179 J-0.0433
G3 X1.3393 Y1.198 I0.0332 J-0.0332
G3 X1.3357 Y1.18 I0.0434 J-0.018
G3 X1.3393 Y1.1621 I0.047 J0
G3 X1.3495 Y1.1468 I0.0433 J0.0179
G3 X1.3646 Y1.1367 I0.0331 J0.0331
G3 X1.3825 Y1.1331 I0.0179 J0.0432
G3 X1.4004 Y1.1367 I0 J0.0467
G3 X1.4156 Y1.1468 I-0.0179 J0.0433
G3 X1.4258 Y1.1621 I-0.0332 J0.0332
G0 Z0
G0 X1.4258 Y1.1621
G1 Z-0.9 F4
G3 X1.4294 Y1.18 I-0.0434 J0.018 F12
G3 X1.4258 Y1.198 I-0.047 J0
G3 X1.4156 Y1.2132 I-0.0433 J-0.0179
G3 X1.4004 Y1.2234 I-0.0331 J-0.0331
G3 X1.3825 Y1.2269 I-0.0179 J-0.0432
G3 X1.3646 Y1.2234 I0 J-0.0467
G3 X1.3495 Y1.2132 I0.0179 J-0.0433
G3 X1.3393 Y1.198 I0.0332 J-0.0332
G3 X1.3357 Y1.18 I0.0434 J-0.018
G3 X1.3393 Y1.1621 I0.047 J0
G3 X1.3495 Y1.1468 I0.0433 J0.0179
G3 X1.3646 Y1.1367 I0.0331 J0.0331
G3 X1.3825 Y1.1331 I0.0179 J0.0432
G3 X1.4004 Y1.1367 I0 J0.0467
G3 X1.4156 Y1.1468 I-0.0179 J0.0433
G3 X1.4258 Y1.1621 I-0.0332 J0.0332
G0 Z0
G0 X1.4258 Y1.1621
G1 Z-1 F4
G3 X1.4294 Y1.18 I-0.0434 J0.018 F12
G3 X1.4258 Y1.198 I-0.047 J0
G3 X1.4156 Y1.2132 I-0.0433 J-0.0179
G3 X1.4004 Y1.2234 I-0.0331 J-0.0331
G3 X1.3825 Y1.2269 I-0.0179 J-0.0432
G3 X1.3646 Y1.2234 I0 J-0.0467
G3 X1.3495 Y1.2132 I0.0179 J-0.0433
G3 X1.3393 Y1.198 I0.0332 J-0.0332
G3 X1.3357 Y1.18 I0.0434 J-0.018
G3 X1.3393 Y1.1621 I0.047 J0
G3 X1.3495 Y1.1468 I0.0433 J0.0179
G3 X1.3646 Y1.1367 I0.0331 J0.0331
G3 X1.3825 Y1.1331 I0.0179 J0.0432
G3 X1.4004 Y1.1367 I0 J0.0467
G3 X1.4156 Y1.1468 I-0.0179 J0.0433
G3 X1.4258 Y1.1621 I-0.0332 J0.0332
G0 Z0
G0 X1.4258 Y1.1621
G1 Z-1.1 F4
G3 X1.4294 Y1.18 I-0.0434 J0.018 F12
G3 X1.4258 Y1.198 I-0.047 J0
G3 X1.4156 Y1.2132 I-0.0433 J-0.0179
G3 X1.4004 Y1.2234 I-0.0331 J-0.0331
G3 X1.3825 Y1.2269 I-0.0179 J-0.0432
G3 X1.3646 Y1.2234 I0 J-0.0467
G3 X1.3495 Y1.2132 I0.0179 J-0.0433
G3 X1.3393 Y1.198 I0.0332 J-0.0332
G3 X1.3357 Y1.18 I0.0434 J-0.018
G3 X1.3393 Y1.1621 I0.047 J0
G3 X1.3495 Y1.1468 I0.0433 J0.0179
G3 X1.3646 Y1.1367 I0.0331 J0.0331
G3 X1.3825 Y1.1331 I0.0179 J0.0432
G3 X1.4004 Y1.1367 I0 J0.0467
G3 X1.4156 Y1.1468 I-0.0179 J0.0433
G3 X1.4258 Y1.1621 I-0.0332 J0.0332
G0 Z0
G0 X1.4258 Y1.1621
G1 Z-1.2 F4
G3 X1.4294 Y1.18 I-0.0434 J0.018 F12
G3 X1.4258 Y1.198 I-0.047 J0
G3 X1.4156 Y1.2132 I-0.0433 J-0.0179
G3 X1.4004 Y1.2234 I-0.0331 J-0.0331
G3 X1.3825 Y1.2269 I-0.0179 J-0.0432
G3 X1.3646 Y1.2234 I0 J-0.0467
G3 X1.3495 Y1.2132 I0.0179 J-0.0433
G3 X1.3393 Y1.198 I0.0332 J-0.0332
G3 X1.3357 Y1.18 I0.0434 J-0.018
G3 X1.3393 Y1.1621 I0.047 J0
G3 X1.3495 Y1.1468 I0.0433 J0.0179
G3 X1.3646 Y1.1367 I0.0331 J0.0331
G3 X1.3825 Y1.1331 I0.0179 J0.0432
G3 X1.4004 Y1.1367 I0 J0.0467
G3 X1.4156 Y1.1468 I-0.0179 J0.0433
G3 X1.4258 Y1.1621 I-0.0332 J0.0332
G0 Z0
G0 X1.4258 Y1.1621
G1 Z-1.3 F4
G3 X1.4294 Y1.18 I-0.0434 J0.018 F12
G3 X1.4258 Y1.198 I-0.047 J0
G3 X1.4156 Y1.2132 I-0.0433 J-0.0179
G3 X1.4004 Y1.2234 I-0.0331 J-0.0331
G3 X1.3825 Y1.2269 I-0.0179 J-0.0432
G3 X1.3646 Y1.2234 I0 J-0.0467
G3 X1.3495 Y1.2132 I0.0179 J-0.0433
G3 X1.3393 Y1.198 I0.0332 J-0.0332
G3 X1.3357 Y1.18 I0.0434 J-0.018
G3 X1.3393 Y1.1621 I0.047 J0
G3 X1.3495 Y1.1468 I0.0433 J0.0179
G3 X1.3646 Y1.1367 I0.0331 J0.0331
G3 X1.3825 Y1.1331 I0.0179 J0.0432
G3 X1.4004 Y1.1367 I0 J0.0467
G3 X1.4156 Y1.1468 I-0.0179 J0.0433
G3 X1.4258 Y1.1621 I-0.0332 J0.0332
G0 Z0
G0 X1.4258 Y1.1621
G1 Z-1.35 F4
G3 X1.4294 Y1.18 I-0.0434 J0.018 F12
G3 X1.4258 Y1.198 I-0.047 J0
G3 X1.4156 Y1.2132 I-0.0433 J-0.0179
G3 X1.4004 Y1.2234 I-0.0331 J-0.0331
G3 X1.3825 Y1.2269 I-0.0179 J-0.0432
G3 X1.3646 Y1.2234 I0 J-0.0467
G3 X1.3495 Y1.2132 I0.0179 J-0.0433
G3 X1.3393 Y1.198 I0.0332 J-0.0332
G3 X1.3357 Y1.18 I0.0434 J-0.018
G3 X1.3393 Y1.1621 I0.047 J0
G3 X1.3495 Y1.1468 I0.0433 J0.0179
G3 X1.3646 Y1.1367 I0.0331 J0.0331
G3 X1.3825 Y1.1331 I0.0179 J0.0432
G3 X1.4004 Y1.1367 I0 J0.0467
G3 X1.4156 Y1.1468 I-0.0179 J0.0433
G3 X1.4258 Y1.1621 I-0.0332 J0.0332
G0 Z0
M5
M30
