(Generated by PartKam Version 0.05)

G20 G90 G40

(pocket 1)
G0 Z0.25
T0 M6
G17
M3
G0 X0.2509 Y0.2509
G1 Z-0.05 F4
G1 X3.2054 Y0.2509 F8
G1 X3.2054 Y0.4879
G1 X0.2509 Y0.4879
G1 X0.2509 Y0.2509
G0 Z0.25
G0 X0.2509 Y0.2509
G1 Z-0.1 F4
G1 X3.2054 Y0.2509 F8
G1 X3.2054 Y0.4879
G1 X0.2509 Y0.4879
G1 X0.2509 Y0.2509
G0 Z0.25
G0 X0.2509 Y0.2509
G1 Z-0.15 F4
G1 X3.2054 Y0.2509 F8
G1 X3.2054 Y0.4879
G1 X0.2509 Y0.4879
G1 X0.2509 Y0.2509
G0 Z0.25
G0 X0.2509 Y0.2509
G1 Z-0.2 F4
G1 X3.2054 Y0.2509 F8
G1 X3.2054 Y0.4879
G1 X0.2509 Y0.4879
G1 X0.2509 Y0.2509
G0 Z0.25
G0 X0.2509 Y0.2509
G1 Z-0.25 F4
G1 X3.2054 Y0.2509 F8
G1 X3.2054 Y0.4879
G1 X0.2509 Y0.4879
G1 X0.2509 Y0.2509
G0 Z0.25
G0 X0.2509 Y0.2509
G1 Z-0.3 F4
G1 X3.2054 Y0.2509 F8
G1 X3.2054 Y0.4879
G1 X0.2509 Y0.4879
G1 X0.2509 Y0.2509
G0 Z0.25
G0 X0.2509 Y0.2509
G1 Z-0.35 F4
G1 X3.2054 Y0.2509 F8
G1 X3.2054 Y0.4879
G1 X0.2509 Y0.4879
G1 X0.2509 Y0.2509
G0 Z0.25
G0 X0.2509 Y0.2509
G1 Z-0.4 F4
G1 X3.2054 Y0.2509 F8
G1 X3.2054 Y0.4879
G1 X0.2509 Y0.4879
G1 X0.2509 Y0.2509
G0 Z0.25
G0 X0.2509 Y0.2509
G1 Z-0.45 F4
G1 X3.2054 Y0.2509 F8
G1 X3.2054 Y0.4879
G1 X0.2509 Y0.4879
G1 X0.2509 Y0.2509
G0 Z0.25
G0 X0.2509 Y0.2509
G1 Z-0.5 F4
G1 X3.2054 Y0.2509 F8
G1 X3.2054 Y0.4879
G1 X0.2509 Y0.4879
G1 X0.2509 Y0.2509
G0 Z0.25
G0 X0.2509 Y0.2509
G1 Z-0.55 F4
G1 X3.2054 Y0.2509 F8
G1 X3.2054 Y0.4879
G1 X0.2509 Y0.4879
G1 X0.2509 Y0.2509
G0 Z0.25
G0 X0.2509 Y0.2509
G1 Z-0.6 F4
G1 X3.2054 Y0.2509 F8
G1 X3.2054 Y0.4879
G1 X0.2509 Y0.4879
G1 X0.2509 Y0.2509
G0 Z0.25
G0 X0.2509 Y0.2509
G1 Z-0.65 F4
G1 X3.2054 Y0.2509 F8
G1 X3.2054 Y0.4879
G1 X0.2509 Y0.4879
G1 X0.2509 Y0.2509
G0 Z0.25
G0 X0.2509 Y0.2509
G1 Z-0.7 F4
G1 X3.2054 Y0.2509 F8
G1 X3.2054 Y0.4879
G1 X0.2509 Y0.4879
G1 X0.2509 Y0.2509
G0 Z0.25
G0 X0.2509 Y0.2509
G1 Z-0.75 F4
G1 X3.2054 Y0.2509 F8
G1 X3.2054 Y0.4879
G1 X0.2509 Y0.4879
G1 X0.2509 Y0.2509
G0 Z0.25
G0 X0.2509 Y0.2509
G1 Z-0.8 F4
G1 X3.2054 Y0.2509 F8
G1 X3.2054 Y0.4879
G1 X0.2509 Y0.4879
G1 X0.2509 Y0.2509
G0 Z0.25
M5
M30
